; G-Code flavour: Marlin
; ID: 65bb9563c00ad50bd949c5a0
; Print time: 2:46:03
; Filament used: 40.76 meter(s)
; Estimated weight: 123 gram(s)
; Generated with: REALvisionCore 26.1.5
; Printer name: Creality K1
; Material Profile: CreaTECH_PLA 
; Layer height: 0.2
M140 S0
M104 S0 
START_PRINT EXTRUDER_TEMP=230 BED_TEMP=45
G92 E0
G92 E0
G1 F2400 E-0.5
; Print start
          ; Repositioning
G1 X0 Y0 F27000
G1 X12.18 Y216.555
G1 Z0 F1800
G1 Z0.03
        ; New Layer
; layer 0, Z = 0.239
M140 S45
; Repositioning
G1 Z0.239
; Contour
G1 X123.364 E6.3236 F3600
G1 Y0.055 E18.637
G1 X12.18 E24.9605
G1 Y216.555 E37.2739
G1 E36.4739 F2400
G92 E0
; Repositioning with retraction
G1 X16.63 Y212.105 F3600
G1 E0.8 F2400
G92 E0
; Contour
G1 X118.914 E5.8174 F3600
G1 Y4.505 E17.6246
G1 X16.63 E23.442
G1 Y212.105 E35.2492
G92 E0
; Repositioning
G1 X17 Y211.735
; Contour
G1 X118.544 E5.7753
G1 Y4.875 E17.5404
G1 X17 E23.3157
G1 Y211.735 E35.0808
G92 E0
; Repositioning
G1 X17.278 Y211.457
; Infill
G1 X17.85 Y211.463 E0.0325 F3600
G1 X17.272 Y210.886 E0.079
G1 Y210.32 E0.1112
G1 X18.416 Y211.463 E0.2032
G1 X18.982 E0.2354
G1 X17.272 Y209.754 E0.3729
G1 Y209.188 E0.4051
G1 X19.547 Y211.463 E0.5882
G1 X20.113 E0.6204
G1 X17.272 Y208.622 E0.849
G1 Y208.056 E0.8812
G1 X20.679 Y211.463 E1.1553
G1 X21.245 E1.1875
G1 X17.272 Y207.49 E1.5072
G1 Y206.924 E1.5394
G1 X21.811 Y211.463 E1.9047
G1 X22.377 E1.9369
G1 X17.272 Y206.358 E2.3477
G1 Y205.792 E2.3799
G1 X22.943 Y211.463 E2.8362
G1 X23.509 E2.8684
G1 X17.272 Y205.226 E3.3702
G1 Y204.66 E3.4024
G1 X24.075 Y211.463 E3.9498
G1 X24.641 E3.982
G1 X17.272 Y204.094 E4.575
G1 Y203.529 E4.6072
G1 X25.207 Y211.463 E5.2456
G1 X25.773 E5.2778
G1 X17.272 Y202.963 E5.9619
G1 Y202.397 E5.9941
G1 X26.339 Y211.463 E6.7236
G1 X26.905 E6.7558
G1 X17.272 Y201.831 E7.5309
G1 Y201.265 E7.5631
G1 X27.471 Y211.463 E8.3838
G1 X28.037 E8.416
G1 X17.272 Y200.699 E9.2822
G1 Y200.133 E9.3144
G1 X28.602 Y211.463 E10.2261
G1 X29.168 E10.2583
G1 X17.272 Y199.567 E11.2155
G1 Y199.001 E11.2477
G1 X29.734 Y211.463 E12.2505
G1 X30.3 E12.2827
G1 X17.272 Y198.435 E13.3311
G1 Y197.869 E13.3633
G1 X30.866 Y211.463 E14.4572
G1 X31.432 E14.4894
G1 X17.272 Y197.303 E15.6288
G1 Y196.737 E15.661
G1 X31.998 Y211.463 E16.846
G1 X32.564 E16.8782
G1 X17.272 Y196.171 E18.1087
G1 Y195.605 E18.1409
G1 X33.13 Y211.463 E19.4169
G1 X33.696 E19.4491
G1 X17.272 Y195.039 E20.7707
G1 Y194.474 E20.8029
G1 X34.262 Y211.463 E22.17
G1 X34.828 E22.2022
G1 X17.272 Y193.908 E23.6149
G1 Y193.342 E23.6471
G1 X35.394 Y211.463 E25.1053
G1 X35.96 E25.1375
G1 X17.272 Y192.776 E26.6412
G1 Y192.21 E26.6734
G1 X36.526 Y211.463 E28.2227
G1 X37.092 E28.2549
G1 X17.272 Y191.644 E29.8498
G1 Y191.078 E29.882
G1 X37.657 Y211.463 E31.5223
G1 X38.223 E31.5545
G1 X17.272 Y190.512 E33.2404
G1 Y189.946 E33.2726
G1 X38.789 Y211.463 E35.0041
G1 X39.355 E35.0363
G1 X17.272 Y189.38 E36.8133
G1 Y188.814 E36.8455
G1 X39.921 Y211.463 E38.668
G1 X40.487 E38.7002
G1 X17.272 Y188.248 E40.5683
G1 Y187.682 E40.6005
G1 X41.053 Y211.463 E42.5141
G1 X41.619 E42.5463
G1 X17.272 Y187.116 E44.5055
G1 Y186.55 E44.5377
G1 X42.185 Y211.463 E46.5423
G1 X42.751 E46.5746
G1 X17.272 Y185.984 E48.6248
G1 Y185.419 E48.657
G1 X43.317 Y211.463 E50.7528
G1 X43.883 E50.785
G1 X17.272 Y184.853 E52.9263
G1 Y184.287 E52.9585
G1 X44.449 Y211.463 E55.1453
G1 X45.015 E55.1775
G1 X17.272 Y183.721 E57.4099
G1 Y183.155 E57.4421
G1 X45.581 Y211.463 E59.7201
G1 X46.147 E59.7523
G1 X17.272 Y182.589 E62.0757
G1 Y182.023 E62.1079
G1 X46.712 Y211.463 E64.477
G1 X47.278 E64.5092
G1 X17.272 Y181.457 E66.9237
G1 Y180.891 E66.9559
G1 X47.844 Y211.463 E69.416
G1 X48.41 E69.4482
G1 X17.272 Y180.325 E71.9539
G1 Y179.759 E71.9861
G1 X48.976 Y211.463 E74.5372
G1 X49.542 E74.5694
G1 X17.272 Y179.193 E77.1662
G1 Y178.627 E77.1984
G1 X50.108 Y211.463 E79.8406
G1 X50.674 E79.8728
G1 X17.272 Y178.061 E82.5606
G1 Y177.495 E82.5928
G1 X51.24 Y211.463 E85.3262
G1 X51.806 E85.3584
G1 X17.272 Y176.929 E88.1372
G1 Y176.364 E88.1694
G1 X52.372 Y211.463 E90.9939
G1 X52.938 E91.0261
G1 X17.272 Y175.798 E93.896
G1 Y175.232 E93.9282
G1 X53.504 Y211.463 E96.8437
G1 X54.07 E96.8759
G1 X17.272 Y174.666 E99.837
G1 Y174.1 E99.8692
G1 X54.636 Y211.463 E102.8758
G1 X55.202 E102.908
G1 X17.272 Y173.534 E105.9601
G1 Y172.968 E105.9923
G1 X55.767 Y211.463 E109.0899
G1 X56.333 E109.1221
G1 X17.272 Y172.402 E112.2654
G1 Y171.836 E112.2976
G1 X56.899 Y211.463 E115.4863
G1 X57.465 E115.5185
G1 X17.272 Y171.27 E118.7528
G1 Y170.704 E118.785
G1 X58.031 Y211.463 E122.0648
G1 X58.597 E122.097
G1 X17.272 Y170.138 E125.4224
G1 Y169.572 E125.4546
G1 X59.163 Y211.463 E128.8255
G1 X59.729 E128.8577
G1 X17.272 Y169.006 E132.2741
G1 Y168.44 E132.3063
G1 X60.295 Y211.463 E135.7683
G1 X60.861 E135.8005
G1 X17.272 Y167.874 E139.3081
G1 Y167.309 E139.3403
G1 X61.427 Y211.463 E142.8933
G1 X61.993 E142.9255
G1 X17.272 Y166.743 E146.5241
G1 Y166.177 E146.5563
G1 X62.559 Y211.463 E150.2005
G1 X63.125 E150.2327
G1 X17.272 Y165.611 E153.9224
G1 Y165.045 E153.9546
G1 X63.691 Y211.463 E157.6898
G1 X64.257 E157.722
G1 X17.272 Y164.479 E161.5028
G1 Y163.913 E161.535
G1 X64.822 Y211.463 E165.3613
G1 X65.388 E165.3935
G1 X17.272 Y163.347 E169.2654
G1 Y162.781 E169.2976
G1 X65.954 Y211.463 E173.2149
G1 X66.52 E173.2472
G1 X17.272 Y162.215 E177.2101
G1 Y161.649 E177.2423
G1 X67.086 Y211.463 E181.2508
G1 X67.652 E181.283
G1 X17.272 Y161.083 E185.337
G1 Y160.517 E185.3692
G1 X68.218 Y211.463 E189.4687
G1 X68.784 E189.5009
G1 X17.272 Y159.951 E193.646
G1 Y159.385 E193.6782
G1 X69.35 Y211.463 E197.8689
G1 X69.916 E197.9011
G1 X17.272 Y158.819 E202.1372
G1 Y158.254 E202.1694
G1 X70.482 Y211.463 E206.4512
G1 X71.048 E206.4834
G1 X17.272 Y157.688 E210.8106
G1 Y157.122 E210.8428
G1 X71.614 Y211.463 E215.2156
G1 X72.18 E215.2478
G1 X17.272 Y156.556 E219.6662
G1 Y155.99 E219.6984
G1 X72.746 Y211.463 E224.1622
G1 X73.312 E224.1944
G1 X17.272 Y155.424 E228.7039
G1 Y154.858 E228.7361
G1 X73.877 Y211.463 E233.291
G1 X74.443 E233.3232
G1 X17.272 Y154.292 E237.9237
G1 Y153.726 E237.9559
G1 X75.009 Y211.463 E242.602
G1 X75.575 E242.6342
G1 X17.272 Y153.16 E247.3257
G1 Y152.594 E247.3579
G1 X76.141 Y211.463 E252.0951
G1 X76.707 E252.1273
G1 X17.272 Y152.028 E256.9099
G1 Y151.462 E256.9421
G1 X77.273 Y211.463 E261.7703
G1 X77.839 E261.8025
G1 X17.272 Y150.896 E266.6763
G1 Y150.33 E266.7085
G1 X78.405 Y211.463 E271.6278
G1 X78.971 E271.66
G1 X17.272 Y149.764 E276.6248
G1 Y149.199 E276.657
G1 X79.537 Y211.463 E281.6674
G1 X80.103 E281.6996
G1 X17.272 Y148.633 E286.7555
G1 Y148.067 E286.7877
G1 X80.669 Y211.463 E291.8891
G1 X81.235 E291.9213
G1 X17.272 Y147.501 E297.0683
G1 Y146.935 E297.1005
G1 X81.801 Y211.463 E302.293
G1 X82.367 E302.3252
G1 X17.272 Y146.369 E307.5633
G1 Y145.803 E307.5955
G1 X82.932 Y211.463 E312.8791
G1 X83.498 E312.9113
G1 X17.272 Y145.237 E318.2405
G1 Y144.671 E318.2727
G1 X84.064 Y211.463 E323.6473
G1 X84.63 E323.6795
G1 X17.272 Y144.105 E329.0998
G1 Y143.539 E329.132
G1 X85.196 Y211.463 E334.5977
G1 X85.762 E334.6299
G1 X17.272 Y142.973 E340.1413
G1 Y142.407 E340.1735
G1 X86.328 Y211.463 E345.7303
G1 X86.894 E345.7625
G1 X17.272 Y141.841 E351.3649
G1 Y141.275 E351.3971
G1 X87.46 Y211.463 E357.045
G1 X88.026 E357.0772
G1 X17.272 Y140.709 E362.7707
G1 Y140.144 E362.8029
G1 X88.592 Y211.463 E368.5419
G1 X89.158 E368.5741
G1 X17.272 Y139.578 E374.3587
G1 Y139.012 E374.3909
G1 X89.724 Y211.463 E380.221
G1 X90.29 E380.2532
G1 X17.272 Y138.446 E386.1288
G1 Y137.88 E386.161
G1 X90.856 Y211.463 E392.0822
G1 X91.422 E392.1144
G1 X17.272 Y137.314 E398.0811
G1 Y136.748 E398.1133
G1 X91.987 Y211.463 E404.1255
G1 X92.553 E404.1577
G1 X17.272 Y136.182 E410.2155
G1 Y135.616 E410.2477
G1 X93.119 Y211.463 E416.3511
G1 X93.685 E416.3833
G1 X17.272 Y135.05 E422.5322
G1 Y134.484 E422.5644
G1 X94.251 Y211.463 E428.7588
G1 X94.817 E428.791
G1 X17.272 Y133.918 E435.0309
G1 Y133.352 E435.0631
G1 X95.383 Y211.463 E441.3486
G1 X95.949 E441.3808
G1 X17.272 Y132.786 E447.7119
G1 Y132.22 E447.7441
G1 X96.515 Y211.463 E454.1207
G1 X97.081 E454.1529
G1 X17.272 Y131.654 E460.575
G1 Y131.089 E460.6072
G1 X97.647 Y211.463 E467.0748
G1 X98.213 E467.107
G1 X17.272 Y130.523 E473.6202
G1 Y129.957 E473.6524
G1 X98.779 Y211.463 E480.2112
G1 X99.345 E480.2434
G1 X17.272 Y129.391 E486.8477
G1 Y128.825 E486.8799
G1 X99.911 Y211.463 E493.5297
G1 X100.477 E493.5619
G1 X17.272 Y128.259 E500.2573
G1 Y127.693 E500.2895
G1 X101.042 Y211.463 E507.0304
G1 X101.608 E507.0626
G1 X17.272 Y127.127 E513.849
G1 Y126.561 E513.8812
G1 X102.174 Y211.463 E520.7132
G1 X102.74 E520.7454
G1 X17.272 Y125.995 E527.6229
G1 Y125.429 E527.6551
G1 X103.306 Y211.463 E534.5782
G1 X103.872 E534.6104
G1 X17.272 Y124.863 E541.579
G1 Y124.297 E541.6112
G1 X104.438 Y211.463 E548.6253
G1 X105.004 E548.6575
G1 X17.272 Y123.731 E555.7172
G1 Y123.165 E555.7494
G1 X105.57 Y211.463 E562.8547
G1 X106.136 E562.8869
G1 X17.272 Y122.599 E570.0376
G1 Y122.034 E570.0698
G1 X106.702 Y211.463 E577.2661
G1 X107.268 E577.2983
G1 X17.272 Y121.468 E584.5402
G1 Y120.902 E584.5724
G1 X107.834 Y211.463 E591.8598
G1 X108.4 E591.892
G1 X17.272 Y120.336 E599.2249
G1 Y119.77 E599.2571
G1 X108.966 Y211.463 E606.6356
G1 X109.532 E606.6678
G1 X17.272 Y119.204 E614.0918
G1 Y118.638 E614.124
G1 X110.097 Y211.463 E621.5935
G1 X110.663 E621.6257
G1 X17.272 Y118.072 E629.1408
G1 Y117.506 E629.173
G1 X111.229 Y211.463 E636.7337
G1 X111.795 E636.7659
G1 X17.272 Y116.94 E644.372
G1 Y116.374 E644.4042
G1 X112.361 Y211.463 E652.0559
G1 X112.927 E652.0882
G1 X17.272 Y115.808 E659.7854
G1 Y115.242 E659.8176
G1 X113.493 Y211.463 E667.5604
G1 X114.059 E667.5926
G1 X17.272 Y114.676 E675.3809
G1 Y114.11 E675.4131
G1 X114.625 Y211.463 E683.247
G1 X115.191 E683.2792
G1 X17.272 Y113.544 E691.1586
G1 Y112.979 E691.1908
G1 X115.757 Y211.463 E699.1158
G1 X116.323 E699.148
G1 X17.272 Y112.413 E707.1185
G1 Y111.847 E707.1507
G1 X116.889 Y211.463 E715.1667
G1 X117.455 E715.1989
G1 X17.272 Y111.281 E723.2605
G1 Y110.715 E723.2927
G1 X118.021 Y211.463 E731.3998
G1 X118.272 Y211.149 E731.4227
G1 X17.272 Y110.149 E739.5501
G1 Y109.583 E739.5823
G1 X118.272 Y210.583 E747.7096
G1 Y210.017 E747.7418
G1 X17.272 Y109.017 E755.8692
G1 Y108.451 E755.9014
G1 X118.272 Y209.451 E764.0288
G1 Y208.885 E764.061
G1 X17.272 Y107.885 E772.1883
G1 Y107.319 E772.2205
G1 X118.272 Y208.319 E780.3479
G1 Y207.753 E780.3801
G1 X17.272 Y106.753 E788.5074
G1 Y106.187 E788.5396
G1 X118.272 Y207.187 E796.667
G1 Y206.621 E796.6992
G1 X17.272 Y105.621 E804.8266
G1 Y105.055 E804.8588
G1 X118.272 Y206.055 E812.9861
G1 Y205.489 E813.0183
G1 X17.272 Y104.489 E821.1457
G1 Y103.924 E821.1779
G1 X118.272 Y204.923 E829.3052
G1 Y204.357 E829.3374
G1 X17.272 Y103.358 E837.4648
G1 Y102.792 E837.497
G1 X118.272 Y203.791 E845.6244
G1 Y203.225 E845.6566
G1 X17.272 Y102.226 E853.7839
G1 Y101.66 E853.8161
G1 X118.272 Y202.66 E861.9435
G1 Y202.094 E861.9757
G1 X17.272 Y101.094 E870.103
G1 Y100.528 E870.1352
G1 X118.272 Y201.528 E878.2626
G1 Y200.962 E878.2948
G1 X17.272 Y99.962 E886.4222
G1 Y99.396 E886.4544
G1 X118.272 Y200.396 E894.5817
G1 Y199.83 E894.6139
G1 X17.272 Y98.83 E902.7413
G1 Y98.264 E902.7735
G1 X118.272 Y199.264 E910.9008
G1 Y198.698 E910.933
G1 X17.272 Y97.698 E919.0604
G1 Y97.132 E919.0926
G1 X118.272 Y198.132 E927.22
G1 Y197.566 E927.2522
G1 X17.272 Y96.566 E935.3795
G1 Y96 E935.4117
G1 X118.272 Y197 E943.5391
G1 Y196.434 E943.5713
G1 X17.272 Y95.434 E951.6986
G1 Y94.869 E951.7308
G1 X118.272 Y195.868 E959.8582
G1 Y195.302 E959.8904
G1 X17.272 Y94.303 E968.0178
G1 Y93.737 E968.05
G1 X118.272 Y194.736 E976.1773
G1 Y194.17 E976.2095
G1 X17.272 Y93.171 E984.3369
G1 Y92.605 E984.3691
G1 X118.272 Y193.605 E992.4964
G1 Y193.039 E992.5286
G1 X17.272 Y92.039 E1000.656
G1 Y91.473 E1000.6882
G1 X118.272 Y192.473 E1008.8156
G1 Y191.907 E1008.8478
G1 X17.272 Y90.907 E1016.9751
G1 Y90.341 E1017.0073
G1 X118.272 Y191.341 E1025.1347
G1 Y190.775 E1025.1669
G1 X17.272 Y89.775 E1033.2942
G1 Y89.209 E1033.3264
G1 X118.272 Y190.209 E1041.4538
G1 Y189.643 E1041.486
G1 X17.272 Y88.643 E1049.6134
G1 Y88.077 E1049.6456
G1 X118.272 Y189.077 E1057.7729
G1 Y188.511 E1057.8051
G1 X17.272 Y87.511 E1065.9325
G1 Y86.945 E1065.9647
G1 X118.272 Y187.945 E1074.092
G1 Y187.379 E1074.1242
G1 X17.272 Y86.379 E1082.2516
G1 Y85.814 E1082.2838
G1 X118.272 Y186.813 E1090.4112
G1 Y186.247 E1090.4434
G1 X17.272 Y85.248 E1098.5707
G1 Y84.682 E1098.6029
G1 X118.272 Y185.681 E1106.7303
G1 Y185.115 E1106.7625
G1 X17.272 Y84.116 E1114.8898
G1 Y83.55 E1114.922
G1 X118.272 Y184.55 E1123.0494
G1 Y183.984 E1123.0816
G1 X17.272 Y82.984 E1131.209
G1 Y82.418 E1131.2412
G1 X118.272 Y183.418 E1139.3685
G1 Y182.852 E1139.4007
G1 X17.272 Y81.852 E1147.5281
G1 Y81.286 E1147.5603
G1 X118.272 Y182.286 E1155.6876
G1 Y181.72 E1155.7198
G1 X17.272 Y80.72 E1163.8472
G1 Y80.154 E1163.8794
G1 X118.272 Y181.154 E1172.0067
G1 Y180.588 E1172.039
G1 X17.272 Y79.588 E1180.1663
G1 Y79.022 E1180.1985
G1 X118.272 Y180.022 E1188.3259
G1 Y179.456 E1188.3581
G1 X17.272 Y78.456 E1196.4854
G1 Y77.89 E1196.5176
G1 X118.272 Y178.89 E1204.645
G1 Y178.324 E1204.6772
G1 X17.272 Y77.324 E1212.8045
G1 Y76.759 E1212.8367
G1 X118.272 Y177.758 E1220.9641
G1 Y177.192 E1220.9963
G1 X17.272 Y76.193 E1229.1237
G1 Y75.627 E1229.1559
G1 X118.272 Y176.626 E1237.2832
G1 Y176.06 E1237.3154
G1 X17.272 Y75.061 E1245.4428
G1 Y74.495 E1245.475
G1 X118.272 Y175.495 E1253.6023
G1 Y174.929 E1253.6345
G1 X17.272 Y73.929 E1261.7619
G1 Y73.363 E1261.7941
G1 X118.272 Y174.363 E1269.9215
G1 Y173.797 E1269.9537
G1 X17.272 Y72.797 E1278.081
G1 Y72.231 E1278.1132
G1 X118.272 Y173.231 E1286.2406
G1 Y172.665 E1286.2728
G1 X17.272 Y71.665 E1294.4001
G1 Y71.099 E1294.4323
G1 X118.272 Y172.099 E1302.5597
G1 Y171.533 E1302.5919
G1 X17.272 Y70.533 E1310.7193
G1 Y69.967 E1310.7515
G1 X118.272 Y170.967 E1318.8788
G1 Y170.401 E1318.911
G1 X17.272 Y69.401 E1327.0384
G1 Y68.835 E1327.0706
G1 X118.272 Y169.835 E1335.1979
G1 Y169.269 E1335.2301
G1 X17.272 Y68.269 E1343.3575
G1 Y67.704 E1343.3897
G1 X118.272 Y168.703 E1351.5171
G1 Y168.137 E1351.5493
G1 X17.272 Y67.138 E1359.6766
G1 Y66.572 E1359.7088
G1 X118.272 Y167.571 E1367.8362
G1 Y167.005 E1367.8684
G1 X17.272 Y66.006 E1375.9957
G1 Y65.44 E1376.0279
G1 X118.272 Y166.44 E1384.1553
G1 Y165.874 E1384.1875
G1 X17.272 Y64.874 E1392.3149
G1 Y64.308 E1392.3471
G1 X118.272 Y165.308 E1400.4744
G1 Y164.742 E1400.5066
G1 X17.272 Y63.742 E1408.634
G1 Y63.176 E1408.6662
G1 X118.272 Y164.176 E1416.7935
G1 Y163.61 E1416.8257
G1 X17.272 Y62.61 E1424.9531
G1 Y62.044 E1424.9853
G1 X118.272 Y163.044 E1433.1127
G1 Y162.478 E1433.1449
G1 X17.272 Y61.478 E1441.2722
G1 Y60.912 E1441.3044
G1 X118.272 Y161.912 E1449.4318
G1 Y161.346 E1449.464
G1 X17.272 Y60.346 E1457.5913
G1 Y59.78 E1457.6235
G1 X118.272 Y160.78 E1465.7509
G1 Y160.214 E1465.7831
G1 X17.272 Y59.214 E1473.9105
G1 Y58.649 E1473.9427
G1 X118.272 Y159.648 E1482.07
G1 Y159.082 E1482.1022
G1 X17.272 Y58.083 E1490.2296
G1 Y57.517 E1490.2618
G1 X118.272 Y158.516 E1498.3891
G1 Y157.95 E1498.4213
G1 X17.272 Y56.951 E1506.5487
G1 Y56.385 E1506.5809
G1 X118.272 Y157.385 E1514.7083
G1 Y156.819 E1514.7405
G1 X17.272 Y55.819 E1522.8678
G1 Y55.253 E1522.9
G1 X118.272 Y156.253 E1531.0274
G1 Y155.687 E1531.0596
G1 X17.272 Y54.687 E1539.1869
G1 Y54.121 E1539.2191
G1 X118.272 Y155.121 E1547.3465
G1 Y154.555 E1547.3787
G1 X17.272 Y53.555 E1555.5061
G1 Y52.989 E1555.5383
G1 X118.272 Y153.989 E1563.6656
G1 Y153.423 E1563.6978
G1 X17.272 Y52.423 E1571.8252
G1 Y51.857 E1571.8574
G1 X118.272 Y152.857 E1579.9847
G1 Y152.291 E1580.0169
G1 X17.272 Y51.291 E1588.1443
G1 Y50.725 E1588.1765
G1 X118.272 Y151.725 E1596.3039
G1 Y151.159 E1596.3361
G1 X17.272 Y50.159 E1604.4634
G1 Y49.594 E1604.4956
G1 X118.272 Y150.593 E1612.623
G1 Y150.027 E1612.6552
G1 X17.272 Y49.028 E1620.7825
G1 Y48.462 E1620.8147
G1 X118.272 Y149.461 E1628.9421
G1 Y148.895 E1628.9743
G1 X17.272 Y47.896 E1637.1017
G1 Y47.33 E1637.1339
G1 X118.272 Y148.33 E1645.2612
G1 Y147.764 E1645.2934
G1 X17.272 Y46.764 E1653.4208
G1 Y46.198 E1653.453
G1 X118.272 Y147.198 E1661.5803
G1 Y146.632 E1661.6125
G1 X17.272 Y45.632 E1669.7399
G1 Y45.066 E1669.7721
G1 X118.272 Y146.066 E1677.8995
G1 Y145.5 E1677.9317
G1 X17.272 Y44.5 E1686.059
G1 Y43.934 E1686.0912
G1 X118.272 Y144.934 E1694.2186
G1 Y144.368 E1694.2508
G1 X17.272 Y43.368 E1702.3781
G1 Y42.802 E1702.4103
G1 X118.272 Y143.802 E1710.5377
G1 Y143.236 E1710.5699
G1 X17.272 Y42.236 E1718.6973
G1 Y41.67 E1718.7295
G1 X118.272 Y142.67 E1726.8568
G1 Y142.104 E1726.889
G1 X17.272 Y41.104 E1735.0164
G1 Y40.539 E1735.0486
G1 X118.272 Y141.538 E1743.1759
G1 Y140.972 E1743.2081
G1 X17.272 Y39.973 E1751.3355
G1 Y39.407 E1751.3677
G1 X118.272 Y140.406 E1759.495
G1 Y139.84 E1759.5273
G1 X17.272 Y38.841 E1767.6546
G1 Y38.275 E1767.6868
G1 X118.272 Y139.275 E1775.8142
G1 Y138.709 E1775.8464
G1 X17.272 Y37.709 E1783.9737
G1 Y37.143 E1784.0059
G1 X118.272 Y138.143 E1792.1333
G1 Y137.577 E1792.1655
G1 X17.272 Y36.577 E1800.2928
G1 Y36.011 E1800.325
G1 X118.272 Y137.011 E1808.4524
G1 Y136.445 E1808.4846
G1 X17.272 Y35.445 E1816.612
G1 Y34.879 E1816.6442
G1 X118.272 Y135.879 E1824.7715
G1 Y135.313 E1824.8037
G1 X17.272 Y34.313 E1832.9311
G1 Y33.747 E1832.9633
G1 X118.272 Y134.747 E1841.0906
G1 Y134.181 E1841.1228
G1 X17.272 Y33.181 E1849.2502
G1 Y32.615 E1849.2824
G1 X118.272 Y133.615 E1857.4098
G1 Y133.049 E1857.442
G1 X17.272 Y32.049 E1865.5693
G1 Y31.484 E1865.6015
G1 X118.272 Y132.483 E1873.7289
G1 Y131.917 E1873.7611
G1 X17.272 Y30.918 E1881.8884
G1 Y30.352 E1881.9206
G1 X118.272 Y131.351 E1890.048
G1 Y130.785 E1890.0802
G1 X17.272 Y29.786 E1898.2076
G1 Y29.22 E1898.2398
G1 X118.272 Y130.22 E1906.3671
G1 Y129.654 E1906.3993
G1 X17.272 Y28.654 E1914.5267
G1 Y28.088 E1914.5589
G1 X118.272 Y129.088 E1922.6862
G1 Y128.522 E1922.7184
G1 X17.272 Y27.522 E1930.8458
G1 Y26.956 E1930.878
G1 X118.272 Y127.956 E1939.0054
G1 Y127.39 E1939.0376
G1 X17.272 Y26.39 E1947.1649
G1 Y25.824 E1947.1971
G1 X118.272 Y126.824 E1955.3245
G1 Y126.258 E1955.3567
G1 X17.272 Y25.258 E1963.484
G1 Y24.692 E1963.5162
G1 X118.272 Y125.692 E1971.6436
G1 Y125.126 E1971.6758
G1 X17.272 Y24.126 E1979.8032
G1 Y23.56 E1979.8354
G1 X118.272 Y124.56 E1987.9627
G1 Y123.994 E1987.9949
G1 X17.272 Y22.994 E1996.1223
G1 Y22.429 E1996.1545
G1 X118.272 Y123.428 E2004.2818
G1 Y122.862 E2004.314
G1 X17.272 Y21.863 E2012.4414
G1 Y21.297 E2012.4736
G1 X118.272 Y122.296 E2020.601
G1 Y121.73 E2020.6332
G1 X17.272 Y20.731 E2028.7605
G1 Y20.165 E2028.7927
G1 X118.272 Y121.165 E2036.9201
G1 Y120.599 E2036.9523
G1 X17.272 Y19.599 E2045.0796
G1 Y19.033 E2045.1118
G1 X118.272 Y120.033 E2053.2392
G1 Y119.467 E2053.2714
G1 X17.272 Y18.467 E2061.3988
G1 Y17.901 E2061.431
G1 X118.272 Y118.901 E2069.5583
G1 Y118.335 E2069.5905
G1 X17.272 Y17.335 E2077.7179
G1 Y16.769 E2077.7501
G1 X118.272 Y117.769 E2085.8774
G1 Y117.203 E2085.9096
G1 X17.272 Y16.203 E2094.037
G1 Y15.637 E2094.0692
G1 X118.272 Y116.637 E2102.1966
G1 Y116.071 E2102.2288
G1 X17.272 Y15.071 E2110.3561
G1 Y14.505 E2110.3883
G1 X118.272 Y115.505 E2118.5157
G1 Y114.939 E2118.5479
G1 X17.272 Y13.939 E2126.6752
G1 Y13.374 E2126.7074
G1 X118.272 Y114.373 E2134.8348
G1 Y113.807 E2134.867
G1 X17.272 Y12.808 E2142.9944
G1 Y12.242 E2143.0266
G1 X118.272 Y113.241 E2151.1539
G1 Y112.675 E2151.1861
G1 X17.272 Y11.676 E2159.3135
G1 Y11.11 E2159.3457
G1 X118.272 Y112.11 E2167.473
G1 Y111.544 E2167.5052
G1 X17.272 Y10.544 E2175.6326
G1 Y9.978 E2175.6648
G1 X118.272 Y110.978 E2183.7922
G1 Y110.412 E2183.8244
G1 X17.272 Y9.412 E2191.9517
G1 Y8.846 E2191.9839
G1 X118.272 Y109.846 E2200.1113
G1 Y109.28 E2200.1435
G1 X17.272 Y8.28 E2208.2708
G1 Y7.714 E2208.303
G1 X118.272 Y108.714 E2216.4304
G1 Y108.148 E2216.4626
G1 X17.272 Y7.148 E2224.59
G1 Y6.582 E2224.6222
G1 X118.272 Y107.582 E2232.7495
G1 Y107.016 E2232.7817
G1 X17.272 Y6.016 E2240.9091
G1 Y5.45 E2240.9413
G1 X118.272 Y106.45 E2249.0686
G1 Y105.884 E2249.1008
G1 X17.535 Y5.147 E2257.2071
G1 X18.101 E2257.2393
G1 X118.272 Y105.318 E2265.3
G1 Y104.752 E2265.3322
G1 X18.667 Y5.147 E2273.3473
G1 X19.233 E2273.3795
G1 X118.272 Y104.186 E2281.3491
G1 Y103.62 E2281.3813
G1 X19.799 Y5.147 E2289.3054
G1 X20.365 E2289.3376
G1 X118.272 Y103.055 E2297.2161
G1 Y102.489 E2297.2483
G1 X20.931 Y5.147 E2305.0813
G1 X21.496 E2305.1135
G1 X118.272 Y101.923 E2312.901
G1 Y101.357 E2312.9332
G1 X22.062 Y5.147 E2320.6751
G1 X22.628 E2320.7073
G1 X118.272 Y100.791 E2328.4036
G1 Y100.225 E2328.4358
G1 X23.194 Y5.147 E2336.0867
G1 X23.76 E2336.1189
G1 X118.272 Y99.659 E2343.7242
G1 Y99.093 E2343.7564
G1 X24.326 Y5.147 E2351.3161
G1 X24.892 E2351.3483
G1 X118.272 Y98.527 E2358.8625
G1 Y97.961 E2358.8947
G1 X25.458 Y5.147 E2366.3634
G1 X26.024 E2366.3956
G1 X118.272 Y97.395 E2373.8187
G1 Y96.829 E2373.8509
G1 X26.59 Y5.147 E2381.2285
G1 X27.156 E2381.2607
G1 X118.272 Y96.263 E2388.5927
G1 Y95.697 E2388.6249
G1 X27.722 Y5.147 E2395.9114
G1 X28.288 E2395.9436
G1 X118.272 Y95.131 E2403.1846
G1 Y94.565 E2403.2168
G1 X28.854 Y5.147 E2410.4122
G1 X29.42 E2410.4444
G1 X118.272 Y94 E2417.5943
G1 Y93.434 E2417.6265
G1 X29.986 Y5.147 E2424.7309
G1 X30.551 E2424.7631
G1 X118.272 Y92.868 E2431.8219
G1 Y92.302 E2431.8541
G1 X31.117 Y5.147 E2438.8673
G1 X31.683 E2438.8995
G1 X118.272 Y91.736 E2445.8672
G1 Y91.17 E2445.8994
G1 X32.249 Y5.147 E2452.8216
G1 X32.815 E2452.8538
G1 X118.272 Y90.604 E2459.7305
G1 Y90.038 E2459.7627
G1 X33.381 Y5.147 E2466.5938
G1 X33.947 E2466.626
G1 X118.272 Y89.472 E2473.4115
G1 Y88.906 E2473.4437
G1 X34.513 Y5.147 E2480.1837
G1 X35.079 E2480.2159
G1 X118.272 Y88.34 E2486.9104
G1 Y87.774 E2486.9426
G1 X35.645 Y5.147 E2493.5916
G1 X36.211 E2493.6238
G1 X118.272 Y87.208 E2500.2272
G1 Y86.642 E2500.2594
G1 X36.777 Y5.147 E2506.8172
G1 X37.343 E2506.8494
G1 X118.272 Y86.076 E2513.3617
G1 Y85.51 E2513.3939
G1 X37.909 Y5.147 E2519.8607
G1 X38.475 E2519.8929
G1 X118.272 Y84.945 E2526.3141
G1 Y84.379 E2526.3463
G1 X39.041 Y5.147 E2532.722
G1 X39.607 E2532.7542
G1 X118.272 Y83.813 E2539.0844
G1 Y83.247 E2539.1166
G1 X40.172 Y5.147 E2545.4012
G1 X40.738 E2545.4334
G1 X118.272 Y82.681 E2551.6725
G1 Y82.115 E2551.7047
G1 X41.304 Y5.147 E2557.8982
G1 X41.87 E2557.9304
G1 X118.272 Y81.549 E2564.0784
G1 Y80.983 E2564.1106
G1 X42.436 Y5.147 E2570.213
G1 X43.002 E2570.2452
G1 X118.272 Y80.417 E2576.3022
G1 Y79.851 E2576.3344
G1 X43.568 Y5.147 E2582.3457
G1 X44.134 E2582.3779
G1 X118.272 Y79.285 E2588.3438
G1 Y78.719 E2588.376
G1 X44.7 Y5.147 E2594.2963
G1 X45.266 E2594.3285
G1 X118.272 Y78.153 E2600.2032
G1 Y77.587 E2600.2354
G1 X45.832 Y5.147 E2606.0646
G1 X46.398 E2606.0968
G1 X118.272 Y77.021 E2611.8805
G1 Y76.455 E2611.9127
G1 X46.964 Y5.147 E2617.6508
G1 X47.53 E2617.683
G1 X118.272 Y75.89 E2623.3756
G1 Y75.324 E2623.4078
G1 X48.096 Y5.147 E2629.0548
G1 X48.662 E2629.087
G1 X118.272 Y74.758 E2634.6885
G1 Y74.192 E2634.7207
G1 X49.227 Y5.147 E2640.2767
G1 X49.793 E2640.3089
G1 X118.272 Y73.626 E2645.8193
G1 Y73.06 E2645.8515
G1 X50.359 Y5.147 E2651.3164
G1 X50.925 E2651.3486
G1 X118.272 Y72.494 E2656.768
G1 Y71.928 E2656.8002
G1 X51.491 Y5.147 E2662.174
G1 X52.057 E2662.2062
G1 X118.272 Y71.362 E2667.5344
G1 Y70.796 E2667.5666
G1 X52.623 Y5.147 E2672.8494
G1 X53.189 E2672.8816
G1 X118.272 Y70.23 E2678.1187
G1 Y69.664 E2678.1509
G1 X53.755 Y5.147 E2683.3426
G1 X54.321 E2683.3748
G1 X118.272 Y69.098 E2688.5209
G1 Y68.532 E2688.5531
G1 X54.887 Y5.147 E2693.6536
G1 X55.453 E2693.6858
G1 X118.272 Y67.966 E2698.7409
G1 Y67.4 E2698.7731
G1 X56.019 Y5.147 E2703.7825
G1 X56.585 E2703.8147
G1 X118.272 Y66.835 E2708.7787
G1 Y66.269 E2708.8109
G1 X57.151 Y5.147 E2713.7293
G1 X57.717 E2713.7615
G1 X118.272 Y65.703 E2718.6343
G1 Y65.137 E2718.6665
G1 X58.282 Y5.147 E2723.4939
G1 X58.848 E2723.5261
G1 X118.272 Y64.571 E2728.3078
G1 Y64.005 E2728.34
G1 X59.414 Y5.147 E2733.0763
G1 X59.98 E2733.1085
G1 X118.272 Y63.439 E2737.7992
G1 Y62.873 E2737.8314
G1 X60.546 Y5.147 E2742.4765
G1 X61.112 E2742.5087
G1 X118.272 Y62.307 E2747.1083
G1 Y61.741 E2747.1405
G1 X61.678 Y5.147 E2751.6946
G1 X62.244 E2751.7268
G1 X118.272 Y61.175 E2756.2354
G1 Y60.609 E2756.2676
G1 X62.81 Y5.147 E2760.7306
G1 X63.376 E2760.7628
G1 X118.272 Y60.043 E2765.1802
G1 Y59.477 E2765.2124
G1 X63.942 Y5.147 E2769.5843
G1 X64.508 E2769.6165
G1 X118.272 Y58.911 E2773.9429
G1 Y58.345 E2773.9751
G1 X65.074 Y5.147 E2778.2559
G1 X65.64 E2778.2881
G1 X118.272 Y57.78 E2782.5234
G1 Y57.214 E2782.5556
G1 X66.206 Y5.147 E2786.7454
G1 X66.772 E2786.7776
G1 X118.272 Y56.648 E2790.9218
G1 Y56.082 E2790.954
G1 X67.337 Y5.147 E2795.0526
G1 X67.903 E2795.0849
G1 X118.272 Y55.516 E2799.138
G1 Y54.95 E2799.1702
G1 X68.469 Y5.147 E2803.1778
G1 X69.035 E2803.21
G1 X118.272 Y54.384 E2807.172
G1 Y53.818 E2807.2042
G1 X69.601 Y5.147 E2811.1207
G1 X70.167 E2811.1529
G1 X118.272 Y53.252 E2815.0239
G1 Y52.686 E2815.0561
G1 X70.733 Y5.147 E2818.8815
G1 X71.299 E2818.9137
G1 X118.272 Y52.12 E2822.6936
G1 Y51.554 E2822.7258
G1 X71.865 Y5.147 E2826.4602
G1 X72.431 E2826.4924
G1 X118.272 Y50.988 E2830.1812
G1 Y50.422 E2830.2134
G1 X72.997 Y5.147 E2833.8566
G1 X73.563 E2833.8888
G1 X118.272 Y49.856 E2837.4866
G1 Y49.29 E2837.5188
G1 X74.129 Y5.147 E2841.0709
G1 X74.695 E2841.1031
G1 X118.272 Y48.725 E2844.6098
G1 Y48.159 E2844.642
G1 X75.261 Y5.147 E2848.1031
G1 X75.827 E2848.1353
G1 X118.272 Y47.593 E2851.5508
G1 Y47.027 E2851.5831
G1 X76.392 Y5.147 E2854.9531
G1 X76.958 E2854.9853
G1 X118.272 Y46.461 E2858.3098
G1 Y45.895 E2858.342
G1 X77.524 Y5.147 E2861.6209
G1 X78.09 E2861.6531
G1 X118.272 Y45.329 E2864.8865
G1 Y44.763 E2864.9187
G1 X78.656 Y5.147 E2868.1066
G1 X79.222 E2868.1388
G1 X118.272 Y44.197 E2871.2811
G1 Y43.631 E2871.3133
G1 X79.788 Y5.147 E2874.4101
G1 X80.354 E2874.4423
G1 X118.272 Y43.065 E2877.4935
G1 Y42.499 E2877.5257
G1 X80.92 Y5.147 E2880.5314
G1 X81.486 E2880.5636
G1 X118.272 Y41.933 E2883.5238
G1 Y41.367 E2883.556
G1 X82.052 Y5.147 E2886.4706
G1 X82.618 E2886.5028
G1 X118.272 Y40.801 E2889.3718
G1 Y40.235 E2889.4041
G1 X83.184 Y5.147 E2892.2276
G1 X83.75 E2892.2598
G1 X118.272 Y39.67 E2895.0378
G1 Y39.104 E2895.07
G1 X84.316 Y5.147 E2897.8024
G1 X84.882 E2897.8346
G1 X118.272 Y38.538 E2900.5216
G1 Y37.972 E2900.5538
G1 X85.447 Y5.147 E2903.1951
G1 X86.013 E2903.2273
G1 X118.272 Y37.406 E2905.8232
G1 Y36.84 E2905.8554
G1 X86.579 Y5.147 E2908.4057
G1 X87.145 E2908.4379
G1 X118.272 Y36.274 E2910.9426
G1 Y35.708 E2910.9748
G1 X87.711 Y5.147 E2913.434
G1 X88.277 E2913.4662
G1 X118.272 Y35.142 E2915.8799
G1 Y34.576 E2915.9121
G1 X88.843 Y5.147 E2918.2802
G1 X89.409 E2918.3124
G1 X118.272 Y34.01 E2920.635
G1 Y33.444 E2920.6672
G1 X89.975 Y5.147 E2922.9443
G1 X90.541 E2922.9765
G1 X118.272 Y32.878 E2925.208
G1 Y32.312 E2925.2402
G1 X91.107 Y5.147 E2927.4262
G1 X91.673 E2927.4584
G1 X118.272 Y31.746 E2929.5988
G1 Y31.18 E2929.631
G1 X92.239 Y5.147 E2931.7259
G1 X92.805 E2931.7581
G1 X118.272 Y30.615 E2933.8074
G1 Y30.049 E2933.8396
G1 X93.371 Y5.147 E2935.8434
G1 X93.937 E2935.8756
G1 X118.272 Y29.483 E2937.8339
G1 Y28.917 E2937.8661
G1 X94.502 Y5.147 E2939.7788
G1 X95.068 E2939.811
G1 X118.272 Y28.351 E2941.6782
G1 Y27.785 E2941.7104
G1 X95.634 Y5.147 E2943.5321
G1 X96.2 E2943.5643
G1 X118.272 Y27.219 E2945.3404
G1 Y26.653 E2945.3726
G1 X96.766 Y5.147 E2947.1031
G1 X97.332 E2947.1353
G1 X118.272 Y26.087 E2948.8203
G1 Y25.521 E2948.8526
G1 X97.898 Y5.147 E2950.492
G1 X98.464 E2950.5242
G1 X118.272 Y24.955 E2952.1182
G1 Y24.389 E2952.1504
G1 X99.03 Y5.147 E2953.6988
G1 X99.596 E2953.731
G1 X118.272 Y23.823 E2955.2338
G1 Y23.257 E2955.266
G1 X100.162 Y5.147 E2956.7234
G1 X100.728 E2956.7556
G1 X118.272 Y22.691 E2958.1673
G1 Y22.125 E2958.1995
G1 X101.294 Y5.147 E2959.5658
G1 X101.86 E2959.598
G1 X118.272 Y21.559 E2960.9187
G1 Y20.994 E2960.9509
G1 X102.426 Y5.147 E2962.226
G1 X102.992 E2962.2583
G1 X118.272 Y20.428 E2963.4879
G1 Y19.862 E2963.5201
G1 X103.557 Y5.147 E2964.7041
G1 X104.123 E2964.7364
G1 X118.272 Y19.296 E2965.8749
G1 Y18.73 E2965.9071
G1 X104.689 Y5.147 E2967.0001
G1 X105.255 E2967.0323
G1 X118.272 Y18.164 E2968.0797
G1 Y17.598 E2968.1119
G1 X105.821 Y5.147 E2969.1139
G1 X106.387 E2969.1461
G1 X118.272 Y17.032 E2970.1024
G1 Y16.466 E2970.1346
G1 X106.953 Y5.147 E2971.0455
G1 X107.519 E2971.0777
G1 X118.272 Y15.9 E2971.943
G1 Y15.334 E2971.9752
G1 X108.085 Y5.147 E2972.7949
G1 X108.651 E2972.8271
G1 X118.272 Y14.768 E2973.6013
G1 Y14.202 E2973.6335
G1 X109.217 Y5.147 E2974.3622
G1 X109.783 E2974.3944
G1 X118.272 Y13.636 E2975.0775
G1 Y13.07 E2975.1098
G1 X110.349 Y5.147 E2975.7473
G1 X110.915 E2975.7795
G1 X118.272 Y12.504 E2976.3716
G1 Y11.939 E2976.4038
G1 X111.481 Y5.147 E2976.9503
G1 X112.047 E2976.9825
G1 X118.272 Y11.373 E2977.4835
G1 Y10.807 E2977.5157
G1 X112.612 Y5.147 E2977.9711
G1 X113.178 E2978.0033
G1 X118.272 Y10.241 E2978.4132
G1 Y9.675 E2978.4454
G1 X113.744 Y5.147 E2978.8098
G1 X114.31 E2978.842
G1 X118.272 Y9.109 E2979.1608
G1 Y8.543 E2979.193
G1 X114.876 Y5.147 E2979.4662
G1 X115.442 E2979.4984
G1 X118.272 Y7.977 E2979.7262
G1 Y7.411 E2979.7584
G1 X116.008 Y5.147 E2979.9406
G1 X116.574 E2979.9728
G1 X118.272 Y6.845 E2980.1094
G1 Y6.279 E2980.1416
G1 X117.14 Y5.147 E2980.2327
G1 X117.706 E2980.2649
G1 X118.272 Y5.713 E2980.3105
G1 Y5.147 E2980.3427
G1 E2979.5427 F2400
G92 E0
            ; New Layer
; layer 1, Z = 0.439
; Repositioning
M106 P0 S0
G0 Z0.439 F1800
; Repositioning with retraction
G1 X16.479 Y211.735 F27000
G1 E0.8 F2400
G92 E0
; Contour
G1 X195.905 E5.6693 F12000
G1 X195.907 Y4.875 E12.2055
G1 X16.479 E17.8749
G1 Y211.735 E24.4111
G92 E0
; Repositioning
G1 X16.109 Y212.105 F27000
; Contour
G1 X196.275 E5.6927 F12000
G1 X196.277 Y4.505 E12.2523
G1 X16.109 E17.9451
G1 Y212.105 E24.5046
G1 E23.7046 F2400
G92 E0
; Repositioning with retraction
G1 X195.643 Y211.473 F27000
G1 E0.8 F2400
G92 E0
; InfillOverhang
G1 X195.076 E0.0179 F12000
G1 X195.643 Y210.906 E0.0433
G1 Y210.34 E0.0612
G1 X194.51 Y211.473 E0.1119
G1 X193.943 E0.1299
G1 X195.643 Y209.773 E0.2059
G1 Y209.207 E0.2239
G1 X193.377 Y211.473 E0.3253
G1 X192.81 E0.3432
G1 X195.643 Y208.64 E0.47
G1 Y208.074 E0.4879
G1 X192.244 Y211.473 E0.6401
G1 X191.677 E0.658
G1 X195.643 Y207.507 E0.8355
G1 Y206.94 E0.8534
G1 X191.111 Y211.473 E1.0562
G1 X190.544 E1.0741
G1 X195.643 Y206.374 E1.3023
G1 Y205.807 E1.3202
G1 X189.978 Y211.473 E1.5738
G1 X189.411 E1.5917
G1 X195.643 Y205.241 E1.8706
G1 Y204.674 E1.8885
G1 X188.845 Y211.473 E2.1928
G1 X188.278 E2.2107
G1 X195.643 Y204.108 E2.5403
G1 Y203.541 E2.5582
G1 X187.712 Y211.473 E2.9131
G1 X187.145 E2.9311
G1 X195.643 Y202.975 E3.3114
G1 Y202.408 E3.3293
G1 X186.579 Y211.473 E3.7349
G1 X186.012 E3.7529
G1 X195.643 Y201.842 E4.1838
G1 Y201.275 E4.2018
G1 X185.446 Y211.473 E4.6581
G1 X184.879 E4.676
G1 X195.643 Y200.709 E5.1577
G1 Y200.142 E5.1757
G1 X184.313 Y211.473 E5.6827
G1 X183.746 E5.7007
G1 X195.644 Y199.576 E6.2331
G1 Y199.009 E6.251
G1 X183.18 Y211.473 E6.8087
G1 X182.613 E6.8267
G1 X195.644 Y198.443 E7.4098
G1 Y197.876 E7.4277
G1 X182.047 Y211.473 E8.0361
G1 X181.48 E8.0541
G1 X195.644 Y197.31 E8.6879
G1 Y196.743 E8.7058
G1 X180.914 Y211.473 E9.365
G1 X180.347 E9.3829
G1 X195.644 Y196.177 E10.0674
G1 Y195.61 E10.0853
G1 X179.781 Y211.473 E10.7952
G1 X179.214 E10.8131
G1 X195.644 Y195.044 E11.5483
G1 Y194.477 E11.5663
G1 X178.648 Y211.473 E12.3268
G1 X178.081 E12.3448
G1 X195.644 Y193.911 E13.1307
G1 Y193.344 E13.1486
G1 X177.515 Y211.473 E13.9599
G1 X176.948 E13.9778
G1 X195.644 Y192.778 E14.8144
G1 Y192.211 E14.8323
G1 X176.382 Y211.473 E15.6943
G1 X175.815 E15.7122
G1 X195.644 Y191.645 E16.5996
G1 Y191.078 E16.6175
G1 X175.249 Y211.473 E17.5302
G1 X174.682 E17.5481
G1 X195.644 Y190.512 E18.4861
G1 Y189.945 E18.5041
G1 X174.116 Y211.473 E19.4674
G1 X173.549 E19.4854
G1 X195.644 Y189.379 E20.4741
G1 Y188.812 E20.492
G1 X172.983 Y211.473 E21.5061
G1 X172.416 E21.524
G1 X195.644 Y188.246 E22.5635
G1 Y187.679 E22.5814
G1 X171.85 Y211.473 E23.6462
G1 X171.283 E23.6641
G1 X195.644 Y187.112 E24.7542
G1 Y186.546 E24.7722
G1 X170.717 Y211.473 E25.8877
G1 X170.15 E25.9056
G1 X195.644 Y185.979 E27.0464
G1 Y185.413 E27.0644
G1 X169.584 Y211.473 E28.2305
G1 X169.017 E28.2485
G1 X195.644 Y184.846 E29.44
G1 Y184.28 E29.4579
G1 X168.451 Y211.473 E30.6748
G1 X167.884 E30.6928
G1 X195.644 Y183.713 E31.935
G1 Y183.147 E31.9529
G1 X167.318 Y211.473 E33.2205
G1 X166.751 E33.2385
G1 X195.644 Y182.58 E34.5314
G1 Y182.014 E34.5493
G1 X166.185 Y211.473 E35.8677
G1 X165.618 E35.8856
G1 X195.644 Y181.447 E37.2292
G1 Y180.881 E37.2472
G1 X165.051 Y211.473 E38.6162
G1 X164.485 E38.6341
G1 X195.644 Y180.314 E40.0285
G1 Y179.748 E40.0464
G1 X163.918 Y211.473 E41.4661
G1 X163.352 E41.484
G1 X195.644 Y179.181 E42.9291
G1 Y178.615 E42.947
G1 X162.785 Y211.473 E44.4174
G1 X162.219 E44.4353
G1 X195.644 Y178.048 E45.9311
G1 Y177.482 E45.949
G1 X161.652 Y211.473 E47.4702
G1 X161.086 E47.4881
G1 X195.644 Y176.915 E49.0345
G1 Y176.349 E49.0525
G1 X160.519 Y211.473 E50.6243
G1 X159.953 E50.6422
G1 X195.644 Y175.782 E52.2394
G1 Y175.216 E52.2573
G1 X159.386 Y211.473 E53.8798
G1 X158.82 E53.8978
G1 X195.644 Y174.649 E55.5456
G1 Y174.083 E55.5636
G1 X158.253 Y211.473 E57.2368
G1 X157.687 E57.2547
G1 X195.644 Y173.516 E58.9533
G1 Y172.95 E58.9712
G1 X157.12 Y211.473 E60.6952
G1 X156.554 E60.7131
G1 X195.644 Y172.383 E62.4624
G1 Y171.817 E62.4803
G1 X155.987 Y211.473 E64.2549
G1 X155.421 E64.2728
G1 X195.644 Y171.25 E66.0728
G1 Y170.684 E66.0908
G1 X154.854 Y211.473 E67.9161
G1 X154.288 E67.934
G1 X195.644 Y170.117 E69.7847
G1 Y169.551 E69.8026
G1 X153.721 Y211.473 E71.6787
G1 X153.155 E71.6966
G1 X195.644 Y168.984 E73.598
G1 Y168.417 E73.6159
G1 X152.588 Y211.473 E75.5427
G1 X152.022 E75.5606
G1 X195.644 Y167.851 E77.5127
G1 Y167.284 E77.5306
G1 X151.455 Y211.473 E79.5081
G1 X150.889 E79.526
G1 X195.644 Y166.718 E81.5288
G1 Y166.151 E81.5467
G1 X150.322 Y211.473 E83.5749
G1 X149.756 E83.5928
G1 X195.644 Y165.585 E85.6463
G1 Y165.018 E85.6642
G1 X149.189 Y211.473 E87.7431
G1 X148.623 E87.761
G1 X195.644 Y164.452 E89.8652
G1 Y163.885 E89.8831
G1 X148.056 Y211.473 E92.0127
G1 X147.49 E92.0306
G1 X195.644 Y163.319 E94.1855
G1 Y162.752 E94.2034
G1 X146.923 Y211.473 E96.3837
G1 X146.357 E96.4016
G1 X195.644 Y162.186 E98.6072
G1 Y161.619 E98.6252
G1 X145.79 Y211.473 E100.8561
G1 X145.224 E100.8741
G1 X195.644 Y161.053 E103.1304
G1 Y160.486 E103.1483
G1 X144.657 Y211.473 E105.43
G1 X144.091 E105.4479
G1 X195.644 Y159.92 E107.7549
G1 Y159.353 E107.7728
G1 X143.524 Y211.473 E110.1052
G1 X142.958 E110.1231
G1 X195.644 Y158.787 E112.4808
G1 Y158.22 E112.4988
G1 X142.391 Y211.473 E114.8818
G1 X141.825 E114.8998
G1 X195.644 Y157.654 E117.3082
G1 Y157.087 E117.3261
G1 X141.258 Y211.473 E119.7599
G1 X140.692 E119.7778
G1 X195.644 Y156.521 E122.237
G1 Y155.954 E122.2549
G1 X140.125 Y211.473 E124.7394
G1 X139.559 E124.7573
G1 X195.644 Y155.388 E127.2671
G1 Y154.821 E127.285
G1 X138.992 Y211.473 E129.8202
G1 X138.426 E129.8382
G1 X195.644 Y154.255 E132.3987
G1 Y153.688 E132.4166
G1 X137.859 Y211.473 E135.0025
G1 X137.293 E135.0204
G1 X195.644 Y153.122 E137.6317
G1 Y152.555 E137.6496
G1 X136.726 Y211.473 E140.2862
G1 X136.16 E140.3041
G1 X195.644 Y151.989 E142.9661
G1 Y151.422 E142.984
G1 X135.593 Y211.473 E145.6713
G1 X135.027 E145.6892
G1 X195.644 Y150.856 E148.4018
G1 Y150.289 E148.4198
G1 X134.46 Y211.473 E151.1578
G1 X133.893 E151.1757
G1 X195.644 Y149.722 E153.939
G1 Y149.156 E153.957
G1 X133.327 Y211.473 E156.7457
G1 X132.76 E156.7636
G1 X195.644 Y148.589 E159.5776
G1 Y148.023 E159.5956
G1 X132.194 Y211.473 E162.435
G1 X131.627 E162.4529
G1 X195.644 Y147.456 E165.3177
G1 Y146.89 E165.3356
G1 X131.061 Y211.473 E168.2257
G1 X130.494 E168.2436
G1 X195.644 Y146.323 E171.1591
G1 Y145.757 E171.177
G1 X129.928 Y211.473 E174.1178
G1 X129.361 E174.1357
G1 X195.644 Y145.19 E177.1019
G1 Y144.624 E177.1198
G1 X128.795 Y211.473 E180.1113
G1 X128.228 E180.1293
G1 X195.644 Y144.057 E183.1461
G1 Y143.491 E183.164
G1 X127.662 Y211.473 E186.2063
G1 X127.095 E186.2242
G1 X195.644 Y142.924 E189.2918
G1 Y142.358 E189.3097
G1 X126.529 Y211.473 E192.4026
G1 X125.962 E192.4205
G1 X195.644 Y141.791 E195.5388
G1 Y141.225 E195.5567
G1 X125.396 Y211.473 E198.7004
G1 X124.829 E198.7183
G1 X195.644 Y140.658 E201.8873
G1 Y140.092 E201.9052
G1 X124.263 Y211.473 E205.0995
G1 X123.696 E205.1174
G1 X195.644 Y139.525 E208.3371
G1 Y138.959 E208.355
G1 X123.13 Y211.473 E211.6001
G1 X122.563 E211.618
G1 X195.644 Y138.392 E214.8884
G1 Y137.826 E214.9063
G1 X121.997 Y211.473 E218.202
G1 X121.43 E218.22
G1 X195.644 Y137.259 E221.541
G1 Y136.693 E221.559
G1 X120.864 Y211.473 E224.9054
G1 X120.297 E224.9233
G1 X195.644 Y136.126 E228.2951
G1 Y135.56 E228.313
G1 X119.731 Y211.473 E231.7102
G1 X119.164 E231.7281
G1 X195.644 Y134.993 E235.1506
G1 Y134.427 E235.1685
G1 X118.598 Y211.473 E238.6164
G1 X118.031 E238.6343
G1 X195.644 Y133.86 E242.1075
G1 Y133.294 E242.1254
G1 X117.465 Y211.473 E245.624
G1 X116.898 E245.6419
G1 X195.644 Y132.727 E249.1658
G1 Y132.161 E249.1837
G1 X116.332 Y211.473 E252.733
G1 X115.765 E252.7509
G1 X195.644 Y131.594 E256.3255
G1 Y131.028 E256.3434
G1 X115.199 Y211.473 E259.9434
G1 X114.632 E259.9613
G1 X195.644 Y130.461 E263.5866
G1 Y129.894 E263.6045
G1 X114.066 Y211.473 E267.2552
G1 X113.499 E267.2731
G1 X195.644 Y129.328 E270.9491
G1 Y128.761 E270.967
G1 X112.933 Y211.473 E274.6684
G1 X112.366 E274.6863
G1 X195.644 Y128.195 E278.413
G1 Y127.628 E278.431
G1 X111.8 Y211.473 E282.183
G1 X111.233 E282.201
G1 X195.644 Y127.062 E285.9784
G1 Y126.495 E285.9963
G1 X110.667 Y211.473 E289.7991
G1 X110.1 E289.817
G1 X195.644 Y125.929 E293.6451
G1 Y125.362 E293.663
G1 X109.534 Y211.473 E297.5165
G1 X108.967 E297.5344
G1 X195.644 Y124.796 E301.4132
G1 Y124.229 E301.4312
G1 X108.401 Y211.473 E305.3353
G1 X107.834 E305.3533
G1 X195.644 Y123.663 E309.2828
G1 Y123.096 E309.3007
G1 X107.268 Y211.473 E313.2556
G1 X106.701 E313.2735
G1 X195.644 Y122.53 E317.2538
G1 Y121.963 E317.2717
G1 X106.135 Y211.473 E321.2773
G1 X105.568 E321.2952
G1 X195.644 Y121.397 E325.3261
G1 Y120.83 E325.344
G1 X105.002 Y211.473 E329.4003
G1 X104.435 E329.4183
G1 X195.644 Y120.264 E333.4999
G1 Y119.697 E333.5178
G1 X103.868 Y211.473 E337.6248
G1 X103.302 E337.6427
G1 X195.644 Y119.131 E341.7751
G1 Y118.564 E341.793
G1 X102.735 Y211.473 E345.9507
G1 X102.169 E345.9686
G1 X195.644 Y117.998 E350.1516
G1 Y117.431 E350.1696
G1 X101.602 Y211.473 E354.378
G1 X101.036 E354.3959
G1 X195.644 Y116.865 E358.6296
G1 Y116.298 E358.6476
G1 X100.469 Y211.473 E362.9067
G1 X99.903 E362.9246
G1 X195.644 Y115.732 E367.209
G1 Y115.165 E367.227
G1 X99.336 Y211.473 E371.5368
G1 X98.77 E371.5547
G1 X195.644 Y114.599 E375.8898
G1 Y114.032 E375.9078
G1 X98.203 Y211.473 E380.2683
G1 X97.637 E380.2862
G1 X195.644 Y113.466 E384.672
G1 Y112.899 E384.69
G1 X97.07 Y211.473 E389.1012
G1 X96.504 E389.1191
G1 X195.644 Y112.333 E393.5557
G1 Y111.766 E393.5736
G1 X95.937 Y211.473 E398.0355
G1 X95.371 E398.0534
G1 X195.644 Y111.199 E402.5407
G1 Y110.633 E402.5586
G1 X94.804 Y211.473 E407.0712
G1 X94.238 E407.0891
G1 X195.644 Y110.066 E411.6271
G1 Y109.5 E411.645
G1 X93.671 Y211.473 E416.2084
G1 X93.105 E416.2263
G1 X195.644 Y108.933 E420.8149
G1 Y108.367 E420.8329
G1 X92.538 Y211.473 E425.4469
G1 X91.972 E425.4648
G1 X195.644 Y107.8 E430.1042
G1 Y107.234 E430.1221
G1 X91.405 Y211.473 E434.7868
G1 X90.839 E434.8048
G1 X195.644 Y106.667 E439.4948
G1 Y106.101 E439.5128
G1 X90.272 Y211.473 E444.2282
G1 X89.706 E444.2461
G1 X195.644 Y105.534 E448.9869
G1 Y104.968 E449.0048
G1 X89.139 Y211.473 E453.7709
G1 X88.573 E453.7889
G1 X195.644 Y104.401 E458.5804
G1 Y103.835 E458.5983
G1 X88.006 Y211.473 E463.4151
G1 X87.44 E463.433
G1 X195.644 Y103.268 E468.2752
G1 Y102.702 E468.2932
G1 X86.873 Y211.473 E473.1607
G1 X86.307 E473.1786
G1 X195.644 Y102.135 E478.0715
G1 Y101.569 E478.0894
G1 X85.74 Y211.473 E483.0077
G1 X85.174 E483.0256
G1 X195.644 Y101.002 E487.9692
G1 Y100.436 E487.9871
G1 X84.607 Y211.473 E492.9561
G1 X84.041 E492.974
G1 X195.644 Y99.869 E497.9683
G1 Y99.303 E497.9862
G1 X83.474 Y211.473 E503.0058
G1 X82.908 E503.0238
G1 X195.644 Y98.736 E508.0688
G1 X195.645 Y98.17 E508.0867
G1 X82.341 Y211.473 E513.157
G1 X81.775 E513.175
G1 X195.645 Y97.603 E518.2707
G1 Y97.037 E518.2886
G1 X81.208 Y211.473 E523.4096
G1 X80.642 E523.4276
G1 X195.645 Y96.47 E528.574
G1 Y95.904 E528.5919
G1 X80.075 Y211.473 E533.7637
G1 X79.509 E533.7816
G1 X195.645 Y95.337 E538.9787
G1 Y94.771 E538.9966
G1 X78.942 Y211.473 E544.2191
G1 X78.376 E544.237
G1 X195.645 Y94.204 E549.4848
G1 Y93.638 E549.5027
G1 X77.809 Y211.473 E554.7759
G1 X77.243 E554.7938
G1 X195.645 Y93.071 E560.0923
G1 Y92.504 E560.1103
G1 X76.676 Y211.473 E565.4341
G1 X76.11 E565.4521
G1 X195.645 Y91.938 E570.8013
G1 Y91.371 E570.8192
G1 X75.543 Y211.473 E576.1938
G1 X74.977 E576.2117
G1 X195.645 Y90.805 E581.6116
G1 Y90.238 E581.6295
G1 X74.41 Y211.473 E587.0548
G1 X73.844 E587.0727
G1 X195.645 Y89.672 E592.5234
G1 Y89.105 E592.5413
G1 X73.277 Y211.473 E598.0173
G1 X72.71 E598.0352
G1 X195.645 Y88.539 E603.5365
G1 Y87.972 E603.5545
G1 X72.144 Y211.473 E609.0811
G1 X71.577 E609.0991
G1 X195.645 Y87.406 E614.6511
G1 Y86.839 E614.669
G1 X71.011 Y211.473 E620.2464
G1 X70.444 E620.2643
G1 X195.645 Y86.273 E625.8671
G1 Y85.706 E625.885
G1 X69.878 Y211.473 E631.5131
G1 X69.311 E631.531
G1 X195.645 Y85.14 E637.1844
G1 Y84.573 E637.2024
G1 X68.745 Y211.473 E642.8811
G1 X68.178 E642.8991
G1 X195.645 Y84.007 E648.6032
G1 Y83.44 E648.6211
G1 X67.612 Y211.473 E654.3506
G1 X67.045 E654.3686
G1 X195.645 Y82.874 E660.1234
G1 Y82.307 E660.1413
G1 X66.479 Y211.473 E665.9215
G1 X65.912 E665.9394
G1 X195.645 Y81.741 E671.745
G1 Y81.174 E671.7629
G1 X65.346 Y211.473 E677.5938
G1 X64.779 E677.6117
G1 X195.645 Y80.608 E683.468
G1 Y80.041 E683.4859
G1 X64.213 Y211.473 E689.3675
G1 X63.646 E689.3855
G1 X195.645 Y79.475 E695.2924
G1 Y78.908 E695.3103
G1 X63.08 Y211.473 E701.2426
G1 X62.513 E701.2606
G1 X195.645 Y78.342 E707.2182
G1 Y77.775 E707.2361
G1 X61.947 Y211.473 E713.2192
G1 X61.38 E713.2371
G1 X195.645 Y77.209 E719.2454
G1 Y76.642 E719.2634
G1 X60.814 Y211.473 E725.2971
G1 X60.247 E725.315
G1 X195.645 Y76.076 E731.3741
G1 Y75.509 E731.392
G1 X59.681 Y211.473 E737.4764
G1 X59.114 E737.4943
G1 X195.645 Y74.943 E743.6041
G1 Y74.376 E743.622
G1 X58.548 Y211.473 E749.7571
G1 X57.981 E749.7751
G1 X195.645 Y73.81 E755.9355
G1 Y73.243 E755.9535
G1 X57.415 Y211.473 E762.1393
G1 X56.848 E762.1572
G1 X195.645 Y72.676 E768.3684
G1 Y72.11 E768.3863
G1 X56.282 Y211.473 E774.6228
G1 X55.715 E774.6408
G1 X195.645 Y71.543 E780.9026
G1 Y70.977 E780.9206
G1 X55.149 Y211.473 E787.2078
G1 X54.582 E787.2257
G1 X195.645 Y70.41 E793.5383
G1 Y69.844 E793.5562
G1 X54.016 Y211.473 E799.8942
G1 X53.449 E799.9121
G1 X195.645 Y69.277 E806.2754
G1 Y68.711 E806.2933
G1 X52.883 Y211.473 E812.6819
G1 X52.316 E812.6999
G1 X195.645 Y68.144 E819.1139
G1 Y67.578 E819.1318
G1 X51.75 Y211.473 E825.5711
G1 X51.183 E825.589
G1 X195.645 Y67.011 E832.0537
G1 Y66.445 E832.0717
G1 X50.617 Y211.473 E838.5617
G1 X50.05 E838.5796
G1 X195.645 Y65.878 E845.095
G1 Y65.312 E845.1129
G1 X49.484 Y211.473 E851.6537
G1 X48.917 E851.6716
G1 X195.645 Y64.745 E858.2377
G1 Y64.179 E858.2556
G1 X48.351 Y211.473 E864.8471
G1 X47.784 E864.865
G1 X195.645 Y63.612 E871.4818
G1 Y63.046 E871.4997
G1 X47.218 Y211.473 E878.1419
G1 X46.651 E878.1598
G1 X195.645 Y62.479 E884.8273
G1 Y61.913 E884.8453
G1 X46.085 Y211.473 E891.5381
G1 X45.518 E891.556
G1 X195.645 Y61.346 E898.2742
G1 Y60.78 E898.2922
G1 X44.952 Y211.473 E905.0357
G1 X44.385 E905.0537
G1 X195.645 Y60.213 E911.8226
G1 Y59.647 E911.8405
G1 X43.819 Y211.473 E918.6347
G1 X43.252 E918.6527
G1 X195.645 Y59.08 E925.4723
G1 Y58.514 E925.4902
G1 X42.685 Y211.473 E932.3352
G1 X42.119 E932.3531
G1 X195.645 Y57.947 E939.2234
G1 Y57.381 E939.2413
G1 X41.552 Y211.473 E946.137
G1 X40.986 E946.1549
G1 X195.645 Y56.814 E953.076
G1 Y56.248 E953.0939
G1 X40.419 Y211.473 E960.0403
G1 X39.853 E960.0582
G1 X195.645 Y55.681 E967.0299
G1 Y55.115 E967.0478
G1 X39.286 Y211.473 E974.0449
G1 X38.72 E974.0628
G1 X195.645 Y54.548 E981.0853
G1 Y53.981 E981.1032
G1 X38.153 Y211.473 E988.151
G1 X37.587 E988.1689
G1 X195.645 Y53.415 E995.242
G1 Y52.848 E995.26
G1 X37.02 Y211.473 E1002.3584
G1 X36.454 E1002.3764
G1 X195.645 Y52.282 E1009.5002
G1 Y51.715 E1009.5181
G1 X35.887 Y211.473 E1016.6673
G1 X35.321 E1016.6852
G1 X195.645 Y51.149 E1023.8598
G1 Y50.582 E1023.8777
G1 X34.754 Y211.473 E1031.0776
G1 X34.188 E1031.0955
G1 X195.645 Y50.016 E1038.3207
G1 Y49.449 E1038.3387
G1 X33.621 Y211.473 E1045.5893
G1 X33.055 E1045.6072
G1 X195.645 Y48.883 E1052.8831
G1 Y48.316 E1052.9011
G1 X32.488 Y211.473 E1060.2024
G1 X31.922 E1060.2203
G1 X195.645 Y47.75 E1067.5469
G1 Y47.183 E1067.5649
G1 X31.355 Y211.473 E1074.9169
G1 X30.789 E1074.9348
G1 X195.645 Y46.617 E1082.3121
G1 Y46.05 E1082.3301
G1 X30.222 Y211.473 E1089.7328
G1 X29.656 E1089.7507
G1 X195.645 Y45.484 E1097.1787
G1 Y44.917 E1097.1967
G1 X29.089 Y211.473 E1104.6501
G1 X28.523 E1104.668
G1 X195.645 Y44.351 E1112.1468
G1 Y43.784 E1112.1647
G1 X27.956 Y211.473 E1119.6688
G1 X27.39 E1119.6867
G1 X195.645 Y43.218 E1127.2162
G1 Y42.651 E1127.2341
G1 X26.823 Y211.473 E1134.7889
G1 X26.257 E1134.8068
G1 X195.645 Y42.085 E1142.387
G1 Y41.518 E1142.4049
G1 X25.69 Y211.473 E1150.0104
G1 X25.124 E1150.0284
G1 X195.645 Y40.952 E1157.6592
G1 Y40.385 E1157.6772
G1 X24.557 Y211.473 E1165.3334
G1 X23.991 E1165.3513
G1 X195.645 Y39.819 E1173.0329
G1 Y39.252 E1173.0508
G1 X23.424 Y211.473 E1180.7577
G1 X22.858 E1180.7756
G1 X195.645 Y38.686 E1188.5079
G1 Y38.119 E1188.5258
G1 X22.291 Y211.473 E1196.2835
G1 X21.725 E1196.3014
G1 X195.645 Y37.553 E1204.0844
G1 Y36.986 E1204.1023
G1 X21.158 Y211.473 E1211.9106
G1 X20.592 E1211.9286
G1 X195.645 Y36.42 E1219.7622
G1 Y35.853 E1219.7802
G1 X20.025 Y211.473 E1227.6392
G1 X19.459 E1227.6571
G1 X195.645 Y35.286 E1235.5415
G1 Y34.72 E1235.5594
G1 X18.892 Y211.473 E1243.4692
G1 X18.326 E1243.4871
G1 X195.645 Y34.153 E1251.4222
G1 Y33.587 E1251.4401
G1 X17.759 Y211.473 E1259.4005
G1 X17.193 E1259.4185
G1 X195.645 Y33.02 E1267.4043
G1 Y32.454 E1267.4222
G1 X16.741 Y211.358 E1275.4282
G1 Y210.791 E1275.4461
G1 X195.645 Y31.887 E1283.4521
G1 Y31.321 E1283.47
G1 X16.741 Y210.225 E1291.476
G1 Y209.658 E1291.4939
G1 X195.645 Y30.754 E1299.4999
G1 Y30.188 E1299.5178
G1 X16.741 Y209.092 E1307.5238
G1 Y208.525 E1307.5417
G1 X195.645 Y29.621 E1315.5477
G1 Y29.055 E1315.5656
G1 X16.741 Y207.959 E1323.5716
G1 Y207.392 E1323.5895
G1 X195.645 Y28.488 E1331.5955
G1 Y27.922 E1331.6134
G1 X16.741 Y206.826 E1339.6194
G1 Y206.259 E1339.6374
G1 X195.645 Y27.355 E1347.6433
G1 Y26.789 E1347.6613
G1 X16.741 Y205.693 E1355.6673
G1 Y205.126 E1355.6852
G1 X195.645 Y26.222 E1363.6912
G1 Y25.656 E1363.7091
G1 X16.741 Y204.56 E1371.7151
G1 Y203.993 E1371.733
G1 X195.645 Y25.089 E1379.739
G1 Y24.523 E1379.7569
G1 X16.741 Y203.427 E1387.7629
G1 Y202.86 E1387.7808
G1 X195.645 Y23.956 E1395.7868
G1 Y23.39 E1395.8047
G1 X16.741 Y202.294 E1403.8107
G1 Y201.727 E1403.8286
G1 X195.645 Y22.823 E1411.8346
G1 Y22.257 E1411.8526
G1 X16.741 Y201.161 E1419.8585
G1 Y200.594 E1419.8765
G1 X195.645 Y21.69 E1427.8825
G1 Y21.124 E1427.9004
G1 X16.741 Y200.028 E1435.9064
G1 Y199.461 E1435.9243
G1 X195.645 Y20.557 E1443.9303
G1 Y19.991 E1443.9482
G1 X16.741 Y198.894 E1451.9542
G1 Y198.328 E1451.9721
G1 X195.645 Y19.424 E1459.9781
G1 Y18.858 E1459.996
G1 X16.741 Y197.761 E1468.002
G1 Y197.195 E1468.0199
G1 X195.645 Y18.291 E1476.0259
G1 Y17.725 E1476.0439
G1 X16.741 Y196.628 E1484.0498
G1 Y196.062 E1484.0678
G1 X195.645 Y17.158 E1492.0738
G1 Y16.592 E1492.0917
G1 X16.741 Y195.495 E1500.0977
G1 Y194.929 E1500.1156
G1 X195.645 Y16.025 E1508.1216
G1 Y15.458 E1508.1395
G1 X16.741 Y194.362 E1516.1455
G1 Y193.796 E1516.1634
G1 X195.645 Y14.892 E1524.1694
G1 Y14.325 E1524.1873
G1 X16.741 Y193.229 E1532.1933
G1 Y192.663 E1532.2113
G1 X195.645 Y13.759 E1540.2172
G1 Y13.192 E1540.2352
G1 X16.741 Y192.096 E1548.2412
G1 Y191.53 E1548.2591
G1 X195.645 Y12.626 E1556.2651
G1 Y12.059 E1556.283
G1 X16.741 Y190.963 E1564.289
G1 Y190.397 E1564.3069
G1 X195.645 Y11.493 E1572.3129
G1 Y10.926 E1572.3308
G1 X16.741 Y189.83 E1580.3368
G1 Y189.264 E1580.3548
G1 X195.645 Y10.36 E1588.3607
G1 Y9.793 E1588.3787
G1 X16.741 Y188.697 E1596.3847
G1 Y188.131 E1596.4026
G1 X195.645 Y9.227 E1604.4086
G1 Y8.66 E1604.4265
G1 X16.741 Y187.564 E1612.4325
G1 Y186.998 E1612.4504
G1 X195.645 Y8.094 E1620.4564
G1 Y7.527 E1620.4743
G1 X16.741 Y186.431 E1628.4803
G1 Y185.865 E1628.4983
G1 X195.645 Y6.961 E1636.5043
G1 Y6.394 E1636.5222
G1 X16.741 Y185.298 E1644.5282
G1 Y184.732 E1644.5461
G1 X195.645 Y5.828 E1652.5521
G1 Y5.261 E1652.57
G1 X16.741 Y184.165 E1660.576
G1 Y183.599 E1660.5939
G1 X195.203 Y5.137 E1668.5801
G1 X194.637 E1668.5981
G1 X16.741 Y183.032 E1676.5589
G1 Y182.466 E1676.5768
G1 X194.07 Y5.137 E1684.5123
G1 X193.504 E1684.5303
G1 X16.741 Y181.899 E1692.4404
G1 Y181.333 E1692.4583
G1 X192.937 Y5.137 E1700.3431
G1 X192.371 E1700.3611
G1 X16.741 Y180.766 E1708.2205
G1 Y180.2 E1708.2384
G1 X191.804 Y5.137 E1716.0725
G1 X191.238 E1716.0904
G1 X16.741 Y179.633 E1723.8992
G1 Y179.067 E1723.9171
G1 X190.671 Y5.137 E1731.7005
G1 X190.105 E1731.7184
G1 X16.741 Y178.5 E1739.4765
G1 Y177.934 E1739.4944
G1 X189.538 Y5.137 E1747.2271
G1 X188.972 E1747.245
G1 X16.741 Y177.367 E1754.9523
G1 Y176.801 E1754.9703
G1 X188.405 Y5.137 E1762.6522
G1 X187.838 E1762.6702
G1 X16.741 Y176.234 E1770.3268
G1 Y175.668 E1770.3447
G1 X187.272 Y5.137 E1777.976
G1 X186.705 E1777.9939
G1 X16.741 Y175.101 E1785.5999
G1 Y174.535 E1785.6178
G1 X186.139 Y5.137 E1793.1984
G1 X185.572 E1793.2163
G1 X16.741 Y173.968 E1800.7715
G1 Y173.402 E1800.7894
G1 X185.006 Y5.137 E1808.3193
G1 X184.439 E1808.3372
G1 X16.741 Y172.835 E1815.8418
G1 Y172.269 E1815.8597
G1 X183.873 Y5.137 E1823.3389
G1 X183.306 E1823.3568
G1 X16.741 Y171.702 E1830.8106
G1 Y171.136 E1830.8285
G1 X182.74 Y5.137 E1838.257
G1 X182.173 E1838.2749
G1 X16.741 Y170.569 E1845.6781
G1 Y170.003 E1845.696
G1 X181.607 Y5.137 E1853.0737
G1 X181.04 E1853.0917
G1 X16.741 Y169.436 E1860.4441
G1 Y168.869 E1860.462
G1 X180.474 Y5.137 E1867.7891
G1 X179.907 E1867.807
G1 X16.741 Y168.303 E1875.1087
G1 Y167.736 E1875.1266
G1 X179.341 Y5.137 E1882.403
G1 X178.774 E1882.4209
G1 X16.741 Y167.17 E1889.6719
G1 Y166.603 E1889.6899
G1 X178.208 Y5.137 E1896.9155
G1 X177.641 E1896.9334
G1 X16.741 Y166.037 E1904.1338
G1 Y165.47 E1904.1517
G1 X177.075 Y5.137 E1911.3266
G1 X176.508 E1911.3446
G1 X16.741 Y164.904 E1918.4942
G1 Y164.337 E1918.5121
G1 X175.942 Y5.137 E1925.6363
G1 X175.375 E1925.6543
G1 X16.741 Y163.771 E1932.7532
G1 Y163.204 E1932.7711
G1 X174.809 Y5.137 E1939.8446
G1 X174.242 E1939.8626
G1 X16.741 Y162.638 E1946.9108
G1 Y162.071 E1946.9287
G1 X173.676 Y5.137 E1953.9515
G1 X173.109 E1953.9695
G1 X16.741 Y161.505 E1960.967
G1 Y160.938 E1960.9849
G1 X172.543 Y5.137 E1967.957
G1 X171.976 E1967.975
G1 X16.741 Y160.372 E1974.9218
G1 Y159.805 E1974.9397
G1 X171.41 Y5.137 E1981.8611
G1 X170.843 E1981.879
G1 X16.741 Y159.239 E1988.7751
G1 Y158.672 E1988.7931
G1 X170.277 Y5.137 E1995.6638
G1 X169.71 E1995.6817
G1 X16.741 Y158.106 E2002.5271
G1 Y157.539 E2002.545
G1 X169.144 Y5.137 E2009.3651
G1 X168.577 E2009.383
G1 X16.741 Y156.973 E2016.1777
G1 Y156.406 E2016.1956
G1 X168.011 Y5.137 E2022.9649
G1 X167.444 E2022.9829
G1 X16.741 Y155.84 E2029.7268
G1 Y155.273 E2029.7448
G1 X166.878 Y5.137 E2036.4634
G1 X166.311 E2036.4813
G1 X16.741 Y154.707 E2043.1746
G1 Y154.14 E2043.1925
G1 X165.745 Y5.137 E2049.8605
G1 X165.178 E2049.8784
G1 X16.741 Y153.574 E2056.521
G1 Y153.007 E2056.5389
G1 X164.612 Y5.137 E2063.1561
G1 X164.045 E2063.174
G1 X16.741 Y152.441 E2069.7659
G1 Y151.874 E2069.7838
G1 X163.479 Y5.137 E2076.3504
G1 X162.912 E2076.3683
G1 X16.741 Y151.308 E2082.9095
G1 Y150.741 E2082.9274
G1 X162.346 Y5.137 E2089.4432
G1 X161.779 E2089.4611
G1 X16.741 Y150.175 E2095.9516
G1 Y149.608 E2095.9695
G1 X161.213 Y5.137 E2102.4346
G1 X160.646 E2102.4526
G1 X16.741 Y149.042 E2108.8923
G1 Y148.475 E2108.9103
G1 X160.08 Y5.137 E2115.3247
G1 X159.513 E2115.3426
G1 X16.741 Y147.909 E2121.7317
G1 Y147.342 E2121.7496
G1 X158.947 Y5.137 E2128.1133
G1 X158.38 E2128.1312
G1 X16.741 Y146.776 E2134.4696
G1 Y146.209 E2134.4875
G1 X157.814 Y5.137 E2140.8005
G1 X157.247 E2140.8184
G1 X16.741 Y145.643 E2147.1061
G1 Y145.076 E2147.124
G1 X156.68 Y5.137 E2153.3863
G1 X156.114 E2153.4042
G1 X16.741 Y144.51 E2159.6412
G1 Y143.943 E2159.6591
G1 X155.547 Y5.137 E2165.8707
G1 X154.981 E2165.8886
G1 X16.741 Y143.377 E2172.0749
G1 Y142.81 E2172.0928
G1 X154.414 Y5.137 E2178.2537
G1 X153.848 E2178.2716
G1 X16.741 Y142.244 E2184.4072
G1 Y141.677 E2184.4251
G1 X153.281 Y5.137 E2190.5353
G1 X152.715 E2190.5532
G1 X16.741 Y141.111 E2196.6381
G1 Y140.544 E2196.656
G1 X152.148 Y5.137 E2202.7155
G1 X151.582 E2202.7334
G1 X16.741 Y139.978 E2208.7676
G1 Y139.411 E2208.7855
G1 X151.015 Y5.137 E2214.7943
G1 X150.449 E2214.8122
G1 X16.741 Y138.845 E2220.7957
G1 Y138.278 E2220.8136
G1 X149.882 Y5.137 E2226.7717
G1 X149.316 E2226.7896
G1 X16.741 Y137.711 E2232.7223
G1 Y137.145 E2232.7403
G1 X148.749 Y5.137 E2238.6476
G1 X148.183 E2238.6656
G1 X16.741 Y136.578 E2244.5476
G1 Y136.012 E2244.5655
G1 X147.616 Y5.137 E2250.4222
G1 X147.05 E2250.4401
G1 X16.741 Y135.445 E2256.2715
G1 Y134.879 E2256.2894
G1 X146.483 Y5.137 E2262.0954
G1 X145.917 E2262.1133
G1 X16.741 Y134.312 E2267.8939
G1 Y133.746 E2267.9119
G1 X145.35 Y5.137 E2273.6671
G1 X144.784 E2273.6851
G1 X16.741 Y133.179 E2279.415
G1 Y132.613 E2279.4329
G1 X144.217 Y5.137 E2285.1375
G1 X143.651 E2285.1554
G1 X16.741 Y132.046 E2290.8346
G1 Y131.48 E2290.8526
G1 X143.084 Y5.137 E2296.5064
G1 X142.518 E2296.5243
G1 X16.741 Y130.913 E2302.1529
G1 Y130.347 E2302.1708
G1 X141.951 Y5.137 E2307.774
G1 X141.385 E2307.7919
G1 X16.741 Y129.78 E2313.3697
G1 Y129.214 E2313.3876
G1 X140.818 Y5.137 E2318.9401
G1 X140.252 E2318.958
G1 X16.741 Y128.647 E2324.4851
G1 Y128.081 E2324.5031
G1 X139.685 Y5.137 E2330.0048
G1 X139.119 E2330.0227
G1 X16.741 Y127.514 E2335.4992
G1 Y126.948 E2335.5171
G1 X138.552 Y5.137 E2340.9681
G1 X137.986 E2340.9861
G1 X16.741 Y126.381 E2346.4118
G1 Y125.815 E2346.4297
G1 X137.419 Y5.137 E2351.8301
G1 X136.853 E2351.848
G1 X16.741 Y125.248 E2357.223
G1 Y124.682 E2357.2409
G1 X136.286 Y5.137 E2362.5906
G1 X135.72 E2362.6085
G1 X16.741 Y124.115 E2367.9328
G1 Y123.549 E2367.9507
G1 X135.153 Y5.137 E2373.2497
G1 X134.587 E2373.2676
G1 X16.741 Y122.982 E2378.5412
G1 Y122.416 E2378.5591
G1 X134.02 Y5.137 E2383.8074
G1 X133.454 E2383.8253
G1 X16.741 Y121.849 E2389.0482
G1 Y121.283 E2389.0661
G1 X132.887 Y5.137 E2394.2637
G1 X132.321 E2394.2816
G1 X16.741 Y120.716 E2399.4538
G1 Y120.15 E2399.4717
G1 X131.754 Y5.137 E2404.6186
G1 X131.188 E2404.6365
G1 X16.741 Y119.583 E2409.758
G1 Y119.017 E2409.7759
G1 X130.621 Y5.137 E2414.872
G1 X130.055 E2414.89
G1 X16.741 Y118.45 E2419.9608
G1 Y117.884 E2419.9787
G1 X129.488 Y5.137 E2425.0241
G1 X128.922 E2425.042
G1 X16.741 Y117.317 E2430.0621
G1 Y116.751 E2430.0801
G1 X128.355 Y5.137 E2435.0748
G1 X127.789 E2435.0927
G1 X16.741 Y116.184 E2440.0621
G1 Y115.618 E2440.08
G1 X127.222 Y5.137 E2445.0241
G1 X126.655 E2445.042
G1 X16.741 Y115.051 E2449.9607
G1 Y114.485 E2449.9786
G1 X126.089 Y5.137 E2454.8719
G1 X125.522 E2454.8898
G1 X16.741 Y113.918 E2459.7578
G1 Y113.352 E2459.7757
G1 X124.956 Y5.137 E2464.6184
G1 X124.389 E2464.6363
G1 X16.741 Y112.785 E2469.4536
G1 Y112.219 E2469.4715
G1 X123.823 Y5.137 E2474.2634
G1 X123.256 E2474.2813
G1 X16.741 Y111.652 E2479.0479
G1 Y111.086 E2479.0658
G1 X122.69 Y5.137 E2483.8071
G1 X122.123 E2483.825
G1 X16.741 Y110.519 E2488.5409
G1 Y109.953 E2488.5588
G1 X121.557 Y5.137 E2493.2493
G1 X120.99 E2493.2672
G1 X16.741 Y109.386 E2497.9324
G1 Y108.82 E2497.9503
G1 X120.424 Y5.137 E2502.5901
G1 X119.857 E2502.6081
G1 X16.741 Y108.253 E2507.2225
G1 Y107.686 E2507.2404
G1 X119.291 Y5.137 E2511.8296
G1 X118.724 E2511.8475
G1 X16.741 Y107.12 E2516.4112
G1 Y106.553 E2516.4292
G1 X118.158 Y5.137 E2520.9676
G1 X117.591 E2520.9855
G1 X16.741 Y105.987 E2525.4986
G1 Y105.42 E2525.5165
G1 X117.025 Y5.137 E2530.0042
G1 X116.458 E2530.0221
G1 X16.741 Y104.854 E2534.4845
G1 Y104.287 E2534.5024
G1 X115.892 Y5.137 E2538.9394
G1 X115.325 E2538.9573
G1 X16.741 Y103.721 E2543.369
G1 Y103.154 E2543.3869
G1 X114.759 Y5.137 E2547.7732
G1 X114.192 E2547.7911
G1 X16.741 Y102.588 E2552.1521
G1 Y102.021 E2552.17
G1 X113.626 Y5.137 E2556.5056
G1 X113.059 E2556.5235
G1 X16.741 Y101.455 E2560.8338
G1 Y100.888 E2560.8517
G1 X112.493 Y5.137 E2565.1366
G1 X111.926 E2565.1545
G1 X16.741 Y100.322 E2569.4141
G1 Y99.755 E2569.432
G1 X111.36 Y5.137 E2573.6662
G1 X110.793 E2573.6841
G1 X16.741 Y99.189 E2577.8929
G1 Y98.622 E2577.9109
G1 X110.227 Y5.137 E2582.0944
G1 X109.66 E2582.1123
G1 X16.741 Y98.056 E2586.2704
G1 Y97.489 E2586.2884
G1 X109.094 Y5.137 E2590.4211
G1 X108.527 E2590.4391
G1 X16.741 Y96.923 E2594.5465
G1 Y96.356 E2594.5644
G1 X107.961 Y5.137 E2598.6465
G1 X107.394 E2598.6644
G1 X16.741 Y95.79 E2602.7212
G1 Y95.223 E2602.7391
G1 X106.828 Y5.137 E2606.7705
G1 X106.261 E2606.7884
G1 X16.741 Y94.657 E2610.7944
G1 Y94.09 E2610.8124
G1 X105.695 Y5.137 E2614.793
G1 X105.128 E2614.811
G1 X16.741 Y93.524 E2618.7663
G1 Y92.957 E2618.7842
G1 X104.562 Y5.137 E2622.7142
G1 X103.995 E2622.7321
G1 X16.741 Y92.391 E2626.6367
G1 Y91.824 E2626.6547
G1 X103.429 Y5.137 E2630.5339
G1 X102.862 E2630.5519
G1 X16.741 Y91.258 E2634.4058
G1 Y90.691 E2634.4237
G1 X102.296 Y5.137 E2638.2523
G1 X101.729 E2638.2702
G1 X16.741 Y90.125 E2642.0734
G1 Y89.558 E2642.0913
G1 X101.163 Y5.137 E2645.8692
G1 X100.596 E2645.8871
G1 X16.741 Y88.992 E2649.6397
G1 Y88.425 E2649.6576
G1 X100.03 Y5.137 E2653.3847
G1 X99.463 E2653.4027
G1 X16.741 Y87.859 E2657.1045
G1 Y87.292 E2657.1224
G1 X98.897 Y5.137 E2660.7989
G1 X98.33 E2660.8168
G1 X16.741 Y86.726 E2664.4679
G1 Y86.159 E2664.4858
G1 X97.764 Y5.137 E2668.1116
G1 X97.197 E2668.1295
G1 X16.741 Y85.593 E2671.7299
G1 Y85.026 E2671.7478
G1 X96.631 Y5.137 E2675.3229
G1 X96.064 E2675.3408
G1 X16.741 Y84.46 E2678.8905
G1 Y83.893 E2678.9085
G1 X95.497 Y5.137 E2682.4328
G1 X94.931 E2682.4507
G1 X16.741 Y83.327 E2685.9497
G1 Y82.76 E2685.9677
G1 X94.364 Y5.137 E2689.4413
G1 X93.798 E2689.4592
G1 X16.741 Y82.194 E2692.9075
G1 Y81.627 E2692.9255
G1 X93.231 Y5.137 E2696.3484
G1 X92.665 E2696.3663
G1 X16.741 Y81.061 E2699.7639
G1 Y80.494 E2699.7819
G1 X92.098 Y5.137 E2703.1541
G1 X91.532 E2703.172
G1 X16.741 Y79.928 E2706.5189
G1 Y79.361 E2706.5368
G1 X90.965 Y5.137 E2709.8584
G1 X90.399 E2709.8763
G1 X16.741 Y78.795 E2713.1725
G1 Y78.228 E2713.1904
G1 X89.832 Y5.137 E2716.4613
G1 X89.266 E2716.4792
G1 X16.741 Y77.662 E2719.7247
G1 Y77.095 E2719.7426
G1 X88.699 Y5.137 E2722.9627
G1 X88.133 E2722.9807
G1 X16.741 Y76.528 E2726.1754
G1 Y75.962 E2726.1934
G1 X87.566 Y5.137 E2729.3628
G1 X87 E2729.3807
G1 X16.741 Y75.395 E2732.5248
G1 Y74.829 E2732.5427
G1 X86.433 Y5.137 E2735.6615
G1 X85.867 E2735.6794
G1 X16.741 Y74.262 E2738.7728
G1 Y73.696 E2738.7907
G1 X85.3 Y5.137 E2741.8587
G1 X84.734 E2741.8766
G1 X16.741 Y73.129 E2744.9193
G1 Y72.563 E2744.9373
G1 X84.167 Y5.137 E2747.9546
G1 X83.601 E2747.9725
G1 X16.741 Y71.996 E2750.9645
G1 Y71.43 E2750.9824
G1 X83.034 Y5.137 E2753.949
G1 X82.468 E2753.9669
G1 X16.741 Y70.863 E2756.9082
G1 Y70.297 E2756.9261
G1 X81.901 Y5.137 E2759.8421
G1 X81.335 E2759.86
G1 X16.741 Y69.73 E2762.7506
G1 Y69.164 E2762.7685
G1 X80.768 Y5.137 E2765.6337
G1 X80.202 E2765.6516
G1 X16.741 Y68.597 E2768.4915
G1 Y68.031 E2768.5094
G1 X79.635 Y5.137 E2771.3239
G1 X79.069 E2771.3419
G1 X16.741 Y67.464 E2774.131
G1 Y66.898 E2774.1489
G1 X78.502 Y5.137 E2776.9127
G1 X77.936 E2776.9307
G1 X16.741 Y66.331 E2779.6691
G1 Y65.765 E2779.6871
G1 X77.369 Y5.137 E2782.4002
G1 X76.803 E2782.4181
G1 X16.741 Y65.198 E2785.1058
G1 Y64.632 E2785.1238
G1 X76.236 Y5.137 E2787.7862
G1 X75.67 E2787.8041
G1 X16.741 Y64.065 E2790.4412
G1 Y63.499 E2790.4591
G1 X75.103 Y5.137 E2793.0708
G1 X74.537 E2793.0887
G1 X16.741 Y62.932 E2795.6751
G1 Y62.366 E2795.693
G1 X73.97 Y5.137 E2798.254
G1 X73.404 E2798.2719
G1 X16.741 Y61.799 E2800.8076
G1 Y61.233 E2800.8255
G1 X72.837 Y5.137 E2803.3358
G1 X72.271 E2803.3537
G1 X16.741 Y60.666 E2805.8387
G1 Y60.1 E2805.8566
G1 X71.704 Y5.137 E2808.3162
G1 X71.138 E2808.3341
G1 X16.741 Y59.533 E2810.7683
G1 Y58.967 E2810.7863
G1 X70.571 Y5.137 E2813.1952
G1 X70.005 E2813.2131
G1 X16.741 Y58.4 E2815.5966
G1 Y57.834 E2815.6145
G1 X69.438 Y5.137 E2817.9727
G1 X68.872 E2817.9907
G1 X16.741 Y57.267 E2820.3235
G1 Y56.701 E2820.3414
G1 X68.305 Y5.137 E2822.6489
G1 X67.739 E2822.6668
G1 X16.741 Y56.134 E2824.949
G1 Y55.568 E2824.9669
G1 X67.172 Y5.137 E2827.2237
G1 X66.606 E2827.2416
G1 X16.741 Y55.001 E2829.473
G1 Y54.435 E2829.491
G1 X66.039 Y5.137 E2831.697
G1 X65.472 E2831.715
G1 X16.741 Y53.868 E2833.8957
G1 Y53.302 E2833.9136
G1 X64.906 Y5.137 E2836.069
G1 X64.339 E2836.0869
G1 X16.741 Y52.735 E2838.2169
G1 Y52.169 E2838.2349
G1 X63.773 Y5.137 E2840.3395
G1 X63.206 E2840.3575
G1 X16.741 Y51.602 E2842.4368
G1 Y51.036 E2842.4547
G1 X62.64 Y5.137 E2844.5087
G1 X62.073 E2844.5266
G1 X16.741 Y50.469 E2846.5552
G1 Y49.903 E2846.5732
G1 X61.507 Y5.137 E2848.5764
G1 X60.94 E2848.5943
G1 X16.741 Y49.336 E2850.5723
G1 Y48.77 E2850.5902
G1 X60.374 Y5.137 E2852.5428
G1 X59.807 E2852.5607
G1 X16.741 Y48.203 E2854.4879
G1 Y47.637 E2854.5058
G1 X59.241 Y5.137 E2856.4077
G1 X58.674 E2856.4256
G1 X16.741 Y47.07 E2858.3021
G1 Y46.503 E2858.32
G1 X58.108 Y5.137 E2860.1712
G1 X57.541 E2860.1891
G1 X16.741 Y45.937 E2862.0149
G1 Y45.37 E2862.0329
G1 X56.975 Y5.137 E2863.8333
G1 X56.408 E2863.8512
G1 X16.741 Y44.804 E2865.6264
G1 Y44.237 E2865.6443
G1 X55.842 Y5.137 E2867.394
G1 X55.275 E2867.412
G1 X16.741 Y43.671 E2869.1364
G1 Y43.104 E2869.1543
G1 X54.709 Y5.137 E2870.8533
G1 X54.142 E2870.8713
G1 X16.741 Y42.538 E2872.545
G1 Y41.971 E2872.5629
G1 X53.576 Y5.137 E2874.2112
G1 X53.009 E2874.2292
G1 X16.741 Y41.405 E2875.8522
G1 Y40.838 E2875.8701
G1 X52.443 Y5.137 E2877.4677
G1 X51.876 E2877.4857
G1 X16.741 Y40.272 E2879.058
G1 Y39.705 E2879.0759
G1 X51.31 Y5.137 E2880.6228
G1 X50.743 E2880.6407
G1 X16.741 Y39.139 E2882.1623
G1 Y38.572 E2882.1803
G1 X50.177 Y5.137 E2883.6765
G1 X49.61 E2883.6944
G1 X16.741 Y38.006 E2885.1653
G1 Y37.439 E2885.1832
G1 X49.044 Y5.137 E2886.6288
G1 X48.477 E2886.6467
G1 X16.741 Y36.873 E2888.0669
G1 Y36.306 E2888.0848
G1 X47.911 Y5.137 E2889.4796
G1 X47.344 E2889.4976
G1 X16.741 Y35.74 E2890.8671
G1 Y35.173 E2890.885
G1 X46.778 Y5.137 E2892.2291
G1 X46.211 E2892.247
G1 X16.741 Y34.607 E2893.5658
G1 Y34.04 E2893.5837
G1 X45.645 Y5.137 E2894.8772
G1 X45.078 E2894.8951
G1 X16.741 Y33.474 E2896.1632
G1 Y32.907 E2896.1811
G1 X44.512 Y5.137 E2897.4238
G1 X43.945 E2897.4418
G1 X16.741 Y32.341 E2898.6591
G1 Y31.774 E2898.6771
G1 X43.379 Y5.137 E2899.8691
G1 X42.812 E2899.887
G1 X16.741 Y31.208 E2901.0537
G1 Y30.641 E2901.0716
G1 X42.246 Y5.137 E2902.2129
G1 X41.679 E2902.2308
G1 X16.741 Y30.075 E2903.3468
G1 Y29.508 E2903.3647
G1 X41.113 Y5.137 E2904.4554
G1 X40.546 E2904.4733
G1 X16.741 Y28.942 E2905.5386
G1 Y28.375 E2905.5565
G1 X39.98 Y5.137 E2906.5964
G1 X39.413 E2906.6143
G1 X16.741 Y27.809 E2907.6289
G1 Y27.242 E2907.6468
G1 X38.847 Y5.137 E2908.636
G1 X38.28 E2908.6539
G1 X16.741 Y26.676 E2909.6178
G1 Y26.109 E2909.6357
G1 X37.714 Y5.137 E2910.5742
G1 X37.147 E2910.5922
G1 X16.741 Y25.543 E2911.5053
G1 Y24.976 E2911.5232
G1 X36.581 Y5.137 E2912.4111
G1 X36.014 E2912.429
G1 X16.741 Y24.41 E2913.2914
G1 Y23.843 E2913.3094
G1 X35.448 Y5.137 E2914.1465
G1 X34.881 E2914.1644
G1 X16.741 Y23.277 E2914.9761
G1 Y22.71 E2914.9941
G1 X34.314 Y5.137 E2915.7805
G1 X33.748 E2915.7984
G1 X16.741 Y22.144 E2916.5594
G1 Y21.577 E2916.5774
G1 X33.181 Y5.137 E2917.3131
G1 X32.615 E2917.331
G1 X16.741 Y21.011 E2918.0413
G1 Y20.444 E2918.0593
G1 X32.048 Y5.137 E2918.7443
G1 X31.482 E2918.7622
G1 X16.741 Y19.878 E2919.4218
G1 Y19.311 E2919.4398
G1 X30.915 Y5.137 E2920.074
G1 X30.349 E2920.092
G1 X16.741 Y18.745 E2920.7009
G1 Y18.178 E2920.7188
G1 X29.782 Y5.137 E2921.3024
G1 X29.216 E2921.3203
G1 X16.741 Y17.612 E2921.8786
G1 Y17.045 E2921.8965
G1 X28.649 Y5.137 E2922.4294
G1 X28.083 E2922.4473
G1 X16.741 Y16.479 E2922.9549
G1 Y15.912 E2922.9728
G1 X27.516 Y5.137 E2923.455
G1 X26.95 E2923.4729
G1 X16.741 Y15.345 E2923.9297
G1 Y14.779 E2923.9477
G1 X26.383 Y5.137 E2924.3791
G1 X25.817 E2924.3971
G1 X16.741 Y14.212 E2924.8032
G1 Y13.646 E2924.8211
G1 X25.25 Y5.137 E2925.2019
G1 X24.684 E2925.2198
G1 X16.741 Y13.079 E2925.5752
G1 Y12.513 E2925.5932
G1 X24.117 Y5.137 E2925.9232
G1 X23.551 E2925.9412
G1 X16.741 Y11.946 E2926.2459
G1 Y11.38 E2926.2638
G1 X22.984 Y5.137 E2926.5432
G1 X22.418 E2926.5611
G1 X16.741 Y10.813 E2926.8151
G1 Y10.247 E2926.8331
G1 X21.851 Y5.137 E2927.0617
G1 X21.285 E2927.0797
G1 X16.741 Y9.68 E2927.283
G1 Y9.114 E2927.3009
G1 X20.718 Y5.137 E2927.4789
G1 X20.152 E2927.4968
G1 X16.741 Y8.547 E2927.6494
G1 Y7.981 E2927.6673
G1 X19.585 Y5.137 E2927.7946
G1 X19.019 E2927.8125
G1 X16.741 Y7.414 E2927.9144
G1 Y6.848 E2927.9324
G1 X18.452 Y5.137 E2928.0089
G1 X17.886 E2928.0269
G1 X16.741 Y6.281 E2928.0781
G1 Y5.715 E2928.096
G1 X17.319 Y5.137 E2928.1218
G1 X16.747 Y5.143 E2928.1399
G1 E2927.3399 F2400
G92 E0
      ; New Layer
; layer 2, Z = 0.639
; Repositioning
M106 P0 S255
G0 Z0.639 F1800
; Repositioning with retraction
G1 X15.958 Y211.735 F27000
G1 E0.8 F2400
G92 E0
; Contour
G1 X196.198 E5.695 F14210.526
G1 Y4.875 E12.2312
G1 X15.958 E17.9263
G1 Y211.735 E24.4625
G92 E0
; Repositioning
G1 X15.588 Y212.105 F27000
; Contour
G1 X196.568 E5.7184 F12000
G1 Y4.505 E12.278
G1 X15.588 E17.9964
G1 Y212.105 E24.556
G92 E0
; Repositioning
G1 X16.236 Y211.457 F27000
; Infill
G1 X16.808 Y211.463 E0.0181 F14203.07
G1 X16.23 Y210.886 E0.0439
G1 Y210.32 E0.0618
G1 X17.374 Y211.463 E0.1129
G1 X17.94 E0.1308
G1 X16.23 Y209.754 E0.2072
G1 Y209.188 E0.2251
G1 X18.506 Y211.463 E0.3268
G1 X19.072 E0.3447
G1 X16.23 Y208.622 E0.4717
G1 Y208.056 E0.4896
G1 X19.638 Y211.463 E0.642
G1 X20.204 E0.6599
G1 X16.23 Y207.49 E0.8375
G1 Y206.924 E0.8554
G1 X20.77 Y211.463 E1.0583
G1 X21.336 E1.0762
G1 X16.23 Y206.358 E1.3045
G1 Y205.792 E1.3224
G1 X21.902 Y211.463 E1.5759
G1 X22.467 E1.5938
G1 X16.23 Y205.226 E1.8726
G1 Y204.66 E1.8905
G1 X23.033 Y211.463 E2.1947
G1 X23.599 E2.2126
G1 X16.23 Y204.094 E2.542
G1 Y203.528 E2.5599
G1 X24.165 Y211.463 E2.9147
G1 X24.731 E2.9326
G1 X16.23 Y202.962 E3.3127
G1 Y202.396 E3.3306
G1 X25.297 Y211.463 E3.7359
G1 X25.863 E3.7538
G1 X16.23 Y201.83 E4.1845
G1 Y201.264 E4.2024
G1 X26.429 Y211.463 E4.6584
G1 X26.995 E4.6763
G1 X16.23 Y200.698 E5.1576
G1 Y200.132 E5.1754
G1 X27.561 Y211.463 E5.682
G1 X28.127 E5.6999
G1 X16.23 Y199.566 E6.2318
G1 Y199 E6.2497
G1 X28.693 Y211.463 E6.8069
G1 X29.259 E6.8248
G1 X16.23 Y198.434 E7.4073
G1 Y197.868 E7.4252
G1 X29.825 Y211.463 E8.033
G1 X30.391 E8.0509
G1 X16.23 Y197.302 E8.684
G1 Y196.736 E8.7019
G1 X30.957 Y211.463 E9.3603
G1 X31.523 E9.3782
G1 X16.23 Y196.17 E10.0619
G1 Y195.604 E10.0798
G1 X32.089 Y211.463 E10.7889
G1 X32.655 E10.8067
G1 X16.23 Y195.038 E11.5411
G1 Y194.472 E11.559
G1 X33.221 Y211.463 E12.3186
G1 X33.787 E12.3365
G1 X16.23 Y193.906 E13.1214
G1 Y193.34 E13.1393
G1 X34.353 Y211.463 E13.9496
G1 X34.919 E13.9675
G1 X16.23 Y192.774 E14.803
G1 Y192.208 E14.8209
G1 X35.485 Y211.463 E15.6817
G1 X36.051 E15.6996
G1 X16.23 Y191.642 E16.5858
G1 Y191.076 E16.6037
G1 X36.617 Y211.463 E17.5151
G1 X37.183 E17.533
G1 X16.23 Y190.51 E18.4698
G1 Y189.944 E18.4877
G1 X37.749 Y211.463 E19.4498
G1 X38.315 E19.4677
G1 X16.23 Y189.378 E20.455
G1 Y188.812 E20.4729
G1 X38.881 Y211.463 E21.4856
G1 X39.447 E21.5035
G1 X16.23 Y188.246 E22.5415
G1 Y187.68 E22.5594
G1 X40.013 Y211.463 E23.6226
G1 X40.579 E23.6405
G1 X16.23 Y187.114 E24.7291
G1 Y186.548 E24.747
G1 X41.145 Y211.463 E25.8609
G1 X41.711 E25.8788
G1 X16.23 Y185.983 E27.018
G1 Y185.417 E27.0359
G1 X42.277 Y211.463 E28.2004
G1 X42.843 E28.2183
G1 X16.23 Y184.851 E29.4081
G1 Y184.285 E29.426
G1 X43.409 Y211.463 E30.6411
G1 X43.975 E30.659
G1 X16.23 Y183.719 E31.8994
G1 Y183.153 E31.9173
G1 X44.541 Y211.463 E33.183
G1 X45.107 E33.2009
G1 X16.23 Y182.587 E34.4919
G1 Y182.021 E34.5098
G1 X45.673 Y211.463 E35.8261
G1 X46.239 E35.844
G1 X16.23 Y181.455 E37.1857
G1 Y180.889 E37.2035
G1 X46.805 Y211.463 E38.5705
G1 X47.371 E38.5884
G1 X16.23 Y180.323 E39.9806
G1 Y179.757 E39.9985
G1 X47.937 Y211.463 E41.416
G1 X48.503 E41.4339
G1 X16.23 Y179.191 E42.8768
G1 Y178.625 E42.8947
G1 X49.069 Y211.463 E44.3628
G1 X49.635 E44.3807
G1 X16.23 Y178.059 E45.8742
G1 Y177.493 E45.8921
G1 X50.201 Y211.463 E47.4108
G1 X50.767 E47.4287
G1 X16.23 Y176.927 E48.9728
G1 Y176.361 E48.9907
G1 X51.333 Y211.463 E50.56
G1 X51.899 E50.5779
G1 X16.23 Y175.795 E52.1726
G1 Y175.229 E52.1905
G1 X52.465 Y211.463 E53.8105
G1 X53.031 E53.8284
G1 X16.23 Y174.663 E55.4737
G1 Y174.097 E55.4915
G1 X53.596 Y211.463 E57.1621
G1 X54.162 E57.18
G1 X16.23 Y173.531 E58.8759
G1 Y172.965 E58.8938
G1 X54.728 Y211.463 E60.615
G1 X55.294 E60.6329
G1 X16.23 Y172.399 E62.3794
G1 Y171.833 E62.3973
G1 X55.86 Y211.463 E64.1691
G1 X56.426 E64.187
G1 X16.23 Y171.267 E65.9841
G1 Y170.701 E66.002
G1 X56.992 Y211.463 E67.8244
G1 X57.558 E67.8423
G1 X16.23 Y170.135 E69.69
G1 Y169.569 E69.7079
G1 X58.124 Y211.463 E71.5809
G1 X58.69 E71.5988
G1 X16.23 Y169.003 E73.4971
G1 Y168.437 E73.515
G1 X59.256 Y211.463 E75.4386
G1 X59.822 E75.4565
G1 X16.23 Y167.871 E77.4055
G1 Y167.305 E77.4234
G1 X60.388 Y211.463 E79.3976
G1 X60.954 E79.4155
G1 X16.23 Y166.739 E81.415
G1 Y166.173 E81.4329
G1 X61.52 Y211.463 E83.4578
G1 X62.086 E83.4757
G1 X16.23 Y165.607 E85.5258
G1 Y165.041 E85.5437
G1 X62.652 Y211.463 E87.6191
G1 X63.218 E87.637
G1 X16.23 Y164.475 E89.7378
G1 Y163.909 E89.7557
G1 X63.784 Y211.463 E91.8817
G1 X64.35 E91.8996
G1 X16.23 Y163.343 E94.051
G1 Y162.777 E94.0689
G1 X64.916 Y211.463 E96.2456
G1 X65.482 E96.2635
G1 X16.23 Y162.211 E98.4654
G1 Y161.645 E98.4833
G1 X66.048 Y211.463 E100.7106
G1 X66.614 E100.7285
G1 X16.23 Y161.079 E102.9811
G1 Y160.513 E102.999
G1 X67.18 Y211.463 E105.2769
G1 X67.746 E105.2948
G1 X16.23 Y159.947 E107.5979
G1 Y159.381 E107.6158
G1 X68.312 Y211.463 E109.9443
G1 X68.878 E109.9622
G1 X16.23 Y158.815 E112.316
G1 Y158.249 E112.3339
G1 X69.444 Y211.463 E114.713
G1 X70.01 E114.7309
G1 X16.23 Y157.683 E117.1353
G1 Y157.117 E117.1532
G1 X70.576 Y211.463 E119.5829
G1 X71.142 E119.6008
G1 X16.23 Y156.551 E122.0558
G1 Y155.985 E122.0737
G1 X71.708 Y211.463 E124.554
G1 X72.274 E124.5719
G1 X16.23 Y155.419 E127.0776
G1 Y154.854 E127.0955
G1 X72.84 Y211.463 E129.6264
G1 X73.406 E129.6443
G1 X16.23 Y154.288 E132.2005
G1 Y153.722 E132.2184
G1 X73.972 Y211.463 E134.7999
G1 X74.538 E134.8178
G1 X16.23 Y153.156 E137.4247
G1 Y152.59 E137.4426
G1 X75.104 Y211.463 E140.0747
G1 X75.67 E140.0926
G1 X16.23 Y152.024 E142.7501
G1 Y151.458 E142.7679
G1 X76.236 Y211.463 E145.4507
G1 X76.802 E145.4686
G1 X16.23 Y150.892 E148.1766
G1 Y150.326 E148.1945
G1 X77.368 Y211.463 E150.9279
G1 X77.934 E150.9458
G1 X16.23 Y149.76 E153.7045
G1 Y149.194 E153.7224
G1 X78.5 Y211.463 E156.5063
G1 X79.066 E156.5242
G1 X16.23 Y148.628 E159.3335
G1 Y148.062 E159.3514
G1 X79.632 Y211.463 E162.186
G1 X80.198 E162.2039
G1 X16.23 Y147.496 E165.0637
G1 Y146.93 E165.0816
G1 X80.764 Y211.463 E167.9668
G1 X81.33 E167.9847
G1 X16.23 Y146.364 E170.8952
G1 Y145.798 E170.9131
G1 X81.896 Y211.463 E173.8489
G1 X82.462 E173.8668
G1 X16.23 Y145.232 E176.8279
G1 Y144.666 E176.8458
G1 X83.028 Y211.463 E179.8322
G1 X83.594 E179.8501
G1 X16.23 Y144.1 E182.8618
G1 Y143.534 E182.8797
G1 X84.16 Y211.463 E185.9167
G1 X84.725 E185.9346
G1 X16.23 Y142.968 E188.9969
G1 Y142.402 E189.0148
G1 X85.291 Y211.463 E192.1024
G1 X85.857 E192.1203
G1 X16.23 Y141.836 E195.2332
G1 Y141.27 E195.2511
G1 X86.423 Y211.463 E198.3894
G1 X86.989 E198.4073
G1 X16.23 Y140.704 E201.5708
G1 Y140.138 E201.5887
G1 X87.555 Y211.463 E204.7775
G1 X88.121 E204.7954
G1 X16.23 Y139.572 E208.0096
G1 Y139.006 E208.0274
G1 X88.687 Y211.463 E211.2669
G1 X89.253 E211.2848
G1 X16.23 Y138.44 E214.5495
G1 Y137.874 E214.5674
G1 X89.819 Y211.463 E217.8575
G1 X90.385 E217.8754
G1 X16.23 Y137.308 E221.1907
G1 Y136.742 E221.2086
G1 X90.951 Y211.463 E224.5493
G1 X91.517 E224.5672
G1 X16.23 Y136.176 E227.9332
G1 Y135.61 E227.951
G1 X92.083 Y211.463 E231.3423
G1 X92.649 E231.3602
G1 X16.23 Y135.044 E234.7768
G1 Y134.478 E234.7947
G1 X93.215 Y211.463 E238.2366
G1 X93.781 E238.2545
G1 X16.23 Y133.912 E241.7216
G1 Y133.346 E241.7395
G1 X94.347 Y211.463 E245.232
G1 X94.913 E245.2499
G1 X16.23 Y132.78 E248.7677
G1 Y132.214 E248.7856
G1 X95.479 Y211.463 E252.3287
G1 X96.045 E252.3466
G1 X16.23 Y131.648 E255.915
G1 Y131.082 E255.9329
G1 X96.611 Y211.463 E259.5266
G1 X97.177 E259.5445
G1 X16.23 Y130.516 E263.1635
G1 Y129.95 E263.1814
G1 X97.743 Y211.463 E266.8257
G1 X98.309 E266.8436
G1 X16.23 Y129.384 E270.5132
G1 Y128.818 E270.5311
G1 X98.875 Y211.463 E274.226
G1 X99.441 E274.2439
G1 X16.23 Y128.252 E277.9641
G1 Y127.686 E277.982
G1 X100.007 Y211.463 E281.7276
G1 X100.573 E281.7455
G1 X16.23 Y127.12 E285.5163
G1 Y126.554 E285.5342
G1 X101.139 Y211.463 E289.3303
G1 X101.705 E289.3482
G1 X16.23 Y125.988 E293.1697
G1 Y125.422 E293.1876
G1 X102.271 Y211.463 E297.0343
G1 X102.837 E297.0522
G1 X16.23 Y124.856 E300.9243
G1 Y124.29 E300.9421
G1 X103.403 Y211.463 E304.8395
G1 X103.969 E304.8574
G1 X16.23 Y123.724 E308.7801
G1 Y123.159 E308.7979
G1 X104.535 Y211.463 E312.7459
G1 X105.101 E312.7638
G1 X16.23 Y122.593 E316.7371
G1 Y122.027 E316.755
G1 X105.667 Y211.463 E320.7535
G1 X106.233 E320.7714
G1 X16.23 Y121.461 E324.7953
G1 Y120.895 E324.8132
G1 X106.799 Y211.463 E328.8624
G1 X107.365 E328.8803
G1 X16.23 Y120.329 E332.9548
G1 Y119.763 E332.9727
G1 X107.931 Y211.463 E337.0724
G1 X108.497 E337.0903
G1 X16.23 Y119.197 E341.2154
G1 Y118.631 E341.2333
G1 X109.063 Y211.463 E345.3837
G1 X109.629 E345.4016
G1 X16.23 Y118.065 E349.5773
G1 Y117.499 E349.5952
G1 X110.195 Y211.463 E353.7962
G1 X110.761 E353.8141
G1 X16.23 Y116.933 E358.0404
G1 Y116.367 E358.0583
G1 X111.327 Y211.463 E362.3099
G1 X111.893 E362.3278
G1 X16.23 Y115.801 E366.6048
G1 Y115.235 E366.6226
G1 X112.459 Y211.463 E370.9249
G1 X113.025 E370.9428
G1 X16.23 Y114.669 E375.2703
G1 Y114.103 E375.2882
G1 X113.591 Y211.463 E379.641
G1 X114.157 E379.6589
G1 X16.23 Y113.537 E384.037
G1 Y112.971 E384.0549
G1 X114.723 Y211.463 E388.4584
G1 X115.289 E388.4763
G1 X16.23 Y112.405 E392.905
G1 Y111.839 E392.9229
G1 X115.854 Y211.463 E397.377
G1 X116.42 E397.3949
G1 X16.23 Y111.273 E401.8742
G1 Y110.707 E401.8921
G1 X116.986 Y211.463 E406.3968
G1 X117.552 E406.4146
G1 X16.23 Y110.141 E410.9446
G1 Y109.575 E410.9625
G1 X118.118 Y211.463 E415.5178
G1 X118.684 E415.5357
G1 X16.23 Y109.009 E420.1162
G1 Y108.443 E420.1341
G1 X119.25 Y211.463 E424.74
G1 X119.816 E424.7579
G1 X16.23 Y107.877 E429.3891
G1 Y107.311 E429.407
G1 X120.382 Y211.463 E434.0634
G1 X120.948 E434.0813
G1 X16.23 Y106.745 E438.7631
G1 Y106.179 E438.781
G1 X121.514 Y211.463 E443.4881
G1 X122.08 E443.506
G1 X16.23 Y105.613 E448.2384
G1 Y105.047 E448.2563
G1 X122.646 Y211.463 E453.014
G1 X123.212 E453.0319
G1 X16.23 Y104.481 E457.8149
G1 Y103.915 E457.8328
G1 X123.778 Y211.463 E462.6411
G1 X124.344 E462.659
G1 X16.23 Y103.349 E467.4926
G1 Y102.783 E467.5105
G1 X124.91 Y211.463 E472.3694
G1 X125.476 E472.3873
G1 X16.23 Y102.217 E477.2715
G1 Y101.651 E477.2894
G1 X126.042 Y211.463 E482.1989
G1 X126.608 E482.2168
G1 X16.23 Y101.085 E487.1517
G1 Y100.519 E487.1696
G1 X127.174 Y211.463 E492.1297
G1 X127.74 E492.1476
G1 X16.23 Y99.953 E497.133
G1 Y99.387 E497.1509
G1 X128.306 Y211.463 E502.1617
G1 X128.872 E502.1796
G1 X16.23 Y98.821 E507.2156
G1 Y98.255 E507.2335
G1 X129.438 Y211.463 E512.2948
G1 X130.004 E512.3127
G1 X16.23 Y97.689 E517.3994
G1 Y97.123 E517.4173
G1 X130.57 Y211.463 E522.5292
G1 X131.136 E522.5471
G1 X16.23 Y96.557 E527.6844
G1 Y95.991 E527.7023
G1 X131.702 Y211.463 E532.8649
G1 X132.268 E532.8828
G1 X16.23 Y95.425 E538.0706
G1 Y94.859 E538.0885
G1 X132.834 Y211.463 E543.3017
G1 X133.4 E543.3196
G1 X16.23 Y94.293 E548.5581
G1 Y93.727 E548.576
G1 X133.966 Y211.463 E553.8397
G1 X134.532 E553.8576
G1 X16.23 Y93.161 E559.1467
G1 Y92.595 E559.1646
G1 X135.098 Y211.463 E564.479
G1 X135.664 E564.4969
G1 X16.23 Y92.03 E569.8366
G1 Y91.464 E569.8545
G1 X136.23 Y211.463 E575.2195
G1 X136.796 E575.2374
G1 X16.23 Y90.898 E580.6277
G1 Y90.332 E580.6456
G1 X137.362 Y211.463 E586.0612
G1 X137.928 E586.0791
G1 X16.23 Y89.766 E591.52
G1 Y89.2 E591.5379
G1 X138.494 Y211.463 E597.0041
G1 X139.06 E597.022
G1 X16.23 Y88.634 E602.5135
G1 Y88.068 E602.5314
G1 X139.626 Y211.463 E608.0483
G1 X140.192 E608.0661
G1 X16.23 Y87.502 E613.6083
G1 Y86.936 E613.6262
G1 X140.758 Y211.463 E619.1936
G1 X141.324 E619.2115
G1 X16.23 Y86.37 E624.8042
G1 Y85.804 E624.8221
G1 X141.89 Y211.463 E630.4402
G1 X142.456 E630.4581
G1 X16.23 Y85.238 E636.1014
G1 Y84.672 E636.1193
G1 X143.022 Y211.463 E641.788
G1 X143.588 E641.8059
G1 X16.23 Y84.106 E647.4998
G1 Y83.54 E647.5177
G1 X144.154 Y211.463 E653.237
G1 X144.72 E653.2549
G1 X16.23 Y82.974 E658.9994
G1 Y82.408 E659.0173
G1 X145.286 Y211.463 E664.7872
G1 X145.852 E664.8051
G1 X16.23 Y81.842 E670.6003
G1 Y81.276 E670.6181
G1 X146.418 Y211.463 E676.4386
G1 X146.983 E676.4565
G1 X16.23 Y80.71 E682.3023
G1 Y80.144 E682.3202
G1 X147.549 Y211.463 E688.1913
G1 X148.115 E688.2092
G1 X16.23 Y79.578 E694.1056
G1 Y79.012 E694.1235
G1 X148.681 Y211.463 E700.0451
G1 X149.247 E700.063
G1 X16.23 Y78.446 E706.01
G1 Y77.88 E706.0279
G1 X149.813 Y211.463 E712.0002
G1 X150.379 E712.0181
G1 X16.23 Y77.314 E718.0157
G1 Y76.748 E718.0336
G1 X150.945 Y211.463 E724.0565
G1 X151.511 E724.0744
G1 X16.23 Y76.182 E730.1226
G1 Y75.616 E730.1405
G1 X152.077 Y211.463 E736.2141
G1 X152.643 E736.232
G1 X16.23 Y75.05 E742.3308
G1 Y74.484 E742.3487
G1 X153.209 Y211.463 E748.4728
G1 X153.775 E748.4907
G1 X16.23 Y73.918 E754.6401
G1 Y73.352 E754.658
G1 X154.341 Y211.463 E760.8328
G1 X154.907 E760.8506
G1 X16.23 Y72.786 E767.0507
G1 Y72.22 E767.0686
G1 X155.473 Y211.463 E773.2939
G1 X156.039 E773.3118
G1 X16.23 Y71.654 E779.5625
G1 Y71.088 E779.5804
G1 X156.605 Y211.463 E785.8563
G1 X157.171 E785.8742
G1 X16.23 Y70.522 E792.1755
G1 Y69.956 E792.1934
G1 X157.737 Y211.463 E798.5199
G1 X158.303 E798.5378
G1 X16.23 Y69.39 E804.8897
G1 Y68.824 E804.9076
G1 X158.869 Y211.463 E811.2847
G1 X159.435 E811.3026
G1 X16.23 Y68.258 E817.7051
G1 Y67.692 E817.723
G1 X160.001 Y211.463 E824.1508
G1 X160.567 E824.1687
G1 X16.23 Y67.126 E830.6218
G1 Y66.56 E830.6397
G1 X161.133 Y211.463 E837.118
G1 X161.699 E837.1359
G1 X16.23 Y65.994 E843.6396
G1 Y65.428 E843.6575
G1 X162.265 Y211.463 E850.1865
G1 X162.831 E850.2044
G1 X16.23 Y64.862 E856.7587
G1 Y64.296 E856.7766
G1 X163.397 Y211.463 E863.3562
G1 X163.963 E863.3741
G1 X16.23 Y63.73 E869.979
G1 Y63.164 E869.9969
G1 X164.529 Y211.463 E876.6271
G1 X165.095 E876.645
G1 X16.23 Y62.598 E883.3005
G1 Y62.032 E883.3184
G1 X165.661 Y211.463 E889.9992
G1 X166.227 E890.0171
G1 X16.23 Y61.466 E896.7233
G1 Y60.901 E896.7411
G1 X166.793 Y211.463 E903.4726
G1 X167.359 E903.4905
G1 X16.23 Y60.335 E910.2472
G1 Y59.769 E910.2651
G1 X167.925 Y211.463 E917.0471
G1 X168.491 E917.065
G1 X16.23 Y59.203 E923.8724
G1 Y58.637 E923.8903
G1 X169.057 Y211.463 E930.7229
G1 X169.623 E930.7408
G1 X16.23 Y58.071 E937.5988
G1 Y57.505 E937.6166
G1 X170.189 Y211.463 E944.4999
G1 X170.755 E944.5178
G1 X16.23 Y56.939 E951.4264
G1 Y56.373 E951.4442
G1 X171.321 Y211.463 E958.3781
G1 X171.887 E958.396
G1 X16.23 Y55.807 E965.3552
G1 Y55.241 E965.3731
G1 X172.453 Y211.463 E972.3575
G1 X173.019 E972.3754
G1 X16.23 Y54.675 E979.3852
G1 Y54.109 E979.4031
G1 X173.585 Y211.463 E986.4382
G1 X174.151 E986.4561
G1 X16.23 Y53.543 E993.5165
G1 Y52.977 E993.5344
G1 X174.717 Y211.463 E1000.62
G1 X175.283 E1000.6379
G1 X16.23 Y52.411 E1007.7489
G1 Y51.845 E1007.7668
G1 X175.849 Y211.463 E1014.9031
G1 X176.415 E1014.921
G1 X16.23 Y51.279 E1022.0826
G1 Y50.713 E1022.1005
G1 X176.981 Y211.463 E1029.2874
G1 X177.547 E1029.3053
G1 X16.23 Y50.147 E1036.5175
G1 Y49.581 E1036.5354
G1 X178.112 Y211.463 E1043.7729
G1 X178.678 E1043.7908
G1 X16.23 Y49.015 E1051.0536
G1 Y48.449 E1051.0715
G1 X179.244 Y211.463 E1058.3596
G1 X179.81 E1058.3775
G1 X16.23 Y47.883 E1065.691
G1 Y47.317 E1065.7089
G1 X180.376 Y211.463 E1073.0476
G1 X180.942 E1073.0655
G1 X16.23 Y46.751 E1080.4295
G1 Y46.185 E1080.4474
G1 X181.508 Y211.463 E1087.8368
G1 X182.074 E1087.8546
G1 X16.23 Y45.619 E1095.2693
G1 Y45.053 E1095.2872
G1 X182.64 Y211.463 E1102.7271
G1 X183.206 E1102.745
G1 X16.23 Y44.487 E1110.2103
G1 Y43.921 E1110.2282
G1 X183.772 Y211.463 E1117.7187
G1 X184.338 E1117.7366
G1 X16.23 Y43.355 E1125.2525
G1 Y42.789 E1125.2704
G1 X184.904 Y211.463 E1132.8115
G1 X185.47 E1132.8294
G1 X16.23 Y42.223 E1140.3959
G1 Y41.657 E1140.4138
G1 X186.036 Y211.463 E1148.0056
G1 X186.602 E1148.0235
G1 X16.23 Y41.091 E1155.6405
G1 Y40.525 E1155.6584
G1 X187.168 Y211.463 E1163.3008
G1 X187.734 E1163.3187
G1 X16.23 Y39.959 E1170.9864
G1 Y39.393 E1171.0043
G1 X188.3 Y211.463 E1178.6973
G1 X188.866 E1178.7152
G1 X16.23 Y38.827 E1186.4335
G1 Y38.261 E1186.4514
G1 X189.432 Y211.463 E1194.195
G1 X189.998 E1194.2128
G1 X16.23 Y37.695 E1201.9817
G1 Y37.129 E1201.9996
G1 X190.564 Y211.463 E1209.7938
G1 X191.13 E1209.8117
G1 X16.23 Y36.563 E1217.6313
G1 Y35.997 E1217.6491
G1 X191.696 Y211.463 E1225.494
G1 X192.262 E1225.5119
G1 X16.23 Y35.431 E1233.382
G1 Y34.865 E1233.3999
G1 X192.828 Y211.463 E1241.2953
G1 X193.394 E1241.3132
G1 X16.23 Y34.299 E1249.2339
G1 Y33.733 E1249.2518
G1 X193.96 Y211.463 E1257.1978
G1 X194.526 E1257.2157
G1 X16.23 Y33.167 E1265.1871
G1 Y32.601 E1265.205
G1 X195.092 Y211.463 E1273.2016
G1 X195.658 E1273.2195
G1 X16.23 Y32.035 E1281.2414
G1 Y31.469 E1281.2593
G1 X195.926 Y211.165 E1289.2932
G1 Y210.599 E1289.3111
G1 X16.23 Y30.903 E1297.3451
G1 Y30.337 E1297.363
G1 X195.926 Y210.033 E1305.3969
G1 Y209.467 E1305.4148
G1 X16.23 Y29.772 E1313.4487
G1 Y29.206 E1313.4666
G1 X195.926 Y208.901 E1321.5005
G1 Y208.335 E1321.5184
G1 X16.23 Y28.64 E1329.5523
G1 Y28.074 E1329.5702
G1 X195.926 Y207.769 E1337.6041
G1 Y207.203 E1337.622
G1 X16.23 Y27.508 E1345.6559
G1 Y26.942 E1345.6738
G1 X195.926 Y206.637 E1353.7077
G1 Y206.071 E1353.7256
G1 X16.23 Y26.376 E1361.7595
G1 Y25.81 E1361.7774
G1 X195.926 Y205.505 E1369.8113
G1 Y204.939 E1369.8292
G1 X16.23 Y25.244 E1377.8632
G1 Y24.678 E1377.881
G1 X195.926 Y204.373 E1385.915
G1 Y203.807 E1385.9329
G1 X16.23 Y24.112 E1393.9668
G1 Y23.546 E1393.9847
G1 X195.926 Y203.241 E1402.0186
G1 Y202.675 E1402.0365
G1 X16.23 Y22.98 E1410.0704
G1 Y22.414 E1410.0883
G1 X195.926 Y202.109 E1418.1222
G1 Y201.543 E1418.1401
G1 X16.23 Y21.848 E1426.174
G1 Y21.282 E1426.1919
G1 X195.926 Y200.977 E1434.2258
G1 Y200.411 E1434.2437
G1 X16.23 Y20.716 E1442.2776
G1 Y20.15 E1442.2955
G1 X195.926 Y199.845 E1450.3294
G1 Y199.279 E1450.3473
G1 X16.23 Y19.584 E1458.3812
G1 Y19.018 E1458.3991
G1 X195.926 Y198.713 E1466.4331
G1 Y198.147 E1466.4509
G1 X16.23 Y18.452 E1474.4849
G1 Y17.886 E1474.5028
G1 X195.926 Y197.581 E1482.5367
G1 Y197.015 E1482.5546
G1 X16.23 Y17.32 E1490.5885
G1 Y16.754 E1490.6064
G1 X195.926 Y196.449 E1498.6403
G1 Y195.883 E1498.6582
G1 X16.23 Y16.188 E1506.6921
G1 Y15.622 E1506.71
G1 X195.926 Y195.317 E1514.7439
G1 Y194.751 E1514.7618
G1 X16.23 Y15.056 E1522.7957
G1 Y14.49 E1522.8136
G1 X195.926 Y194.185 E1530.8475
G1 Y193.619 E1530.8654
G1 X16.23 Y13.924 E1538.8993
G1 Y13.358 E1538.9172
G1 X195.926 Y193.053 E1546.9512
G1 Y192.487 E1546.969
G1 X16.23 Y12.792 E1555.003
G1 Y12.226 E1555.0209
G1 X195.926 Y191.921 E1563.0548
G1 Y191.355 E1563.0727
G1 X16.23 Y11.66 E1571.1066
G1 Y11.094 E1571.1245
G1 X195.926 Y190.789 E1579.1584
G1 Y190.223 E1579.1763
G1 X16.23 Y10.528 E1587.2102
G1 Y9.962 E1587.2281
G1 X195.926 Y189.657 E1595.262
G1 Y189.091 E1595.2799
G1 X16.23 Y9.396 E1603.3138
G1 Y8.83 E1603.3317
G1 X195.926 Y188.526 E1611.3656
G1 Y187.96 E1611.3835
G1 X16.23 Y8.264 E1619.4174
G1 Y7.698 E1619.4353
G1 X195.926 Y187.394 E1627.4692
G1 Y186.828 E1627.4871
G1 X16.23 Y7.132 E1635.5211
G1 Y6.566 E1635.5389
G1 X195.926 Y186.262 E1643.5729
G1 Y185.696 E1643.5908
G1 X16.23 Y6 E1651.6247
G1 Y5.434 E1651.6426
G1 X195.926 Y185.13 E1659.6765
G1 Y184.564 E1659.6944
G1 X16.509 Y5.147 E1667.7158
G1 X17.075 E1667.7337
G1 X195.926 Y183.998 E1675.7299
G1 Y183.432 E1675.7478
G1 X17.641 Y5.147 E1683.7186
G1 X18.207 E1683.7365
G1 X195.926 Y182.866 E1691.6821
G1 Y182.3 E1691.6999
G1 X18.773 Y5.147 E1699.6202
G1 X19.339 E1699.6381
G1 X195.926 Y181.734 E1707.533
G1 Y181.168 E1707.5509
G1 X19.905 Y5.147 E1715.4205
G1 X20.471 E1715.4384
G1 X195.926 Y180.602 E1723.2828
G1 Y180.036 E1723.3007
G1 X21.037 Y5.147 E1731.1197
G1 X21.603 E1731.1376
G1 X195.926 Y179.47 E1738.9313
G1 Y178.904 E1738.9492
G1 X22.169 Y5.147 E1746.7176
G1 X22.735 E1746.7355
G1 X195.926 Y178.338 E1754.4786
G1 Y177.772 E1754.4965
G1 X23.301 Y5.147 E1762.2143
G1 X23.867 E1762.2322
G1 X195.926 Y177.206 E1769.9247
G1 Y176.64 E1769.9426
G1 X24.433 Y5.147 E1777.6098
G1 X24.999 E1777.6277
G1 X195.926 Y176.074 E1785.2696
G1 Y175.508 E1785.2875
G1 X25.565 Y5.147 E1792.9041
G1 X26.131 E1792.9219
G1 X195.926 Y174.942 E1800.5132
G1 Y174.376 E1800.5311
G1 X26.697 Y5.147 E1808.0971
G1 X27.263 E1808.115
G1 X195.926 Y173.81 E1815.6557
G1 Y173.244 E1815.6736
G1 X27.829 Y5.147 E1823.1889
G1 X28.395 E1823.2068
G1 X195.926 Y172.678 E1830.6969
G1 Y172.112 E1830.7148
G1 X28.961 Y5.147 E1838.1796
G1 X29.527 E1838.1974
G1 X195.926 Y171.546 E1845.6369
G1 Y170.98 E1845.6548
G1 X30.093 Y5.147 E1853.069
G1 X30.659 E1853.0869
G1 X195.926 Y170.414 E1860.4757
G1 Y169.848 E1860.4936
G1 X31.225 Y5.147 E1867.8571
G1 X31.791 E1867.875
G1 X195.926 Y169.282 E1875.2133
G1 Y168.716 E1875.2312
G1 X32.357 Y5.147 E1882.5441
G1 X32.923 E1882.562
G1 X195.926 Y168.15 E1889.8496
G1 Y167.584 E1889.8675
G1 X33.489 Y5.147 E1897.1299
G1 X34.054 E1897.1478
G1 X195.926 Y167.018 E1904.3848
G1 Y166.452 E1904.4027
G1 X34.62 Y5.147 E1911.6144
G1 X35.186 E1911.6323
G1 X195.926 Y165.886 E1918.8187
G1 Y165.32 E1918.8366
G1 X35.752 Y5.147 E1925.9977
G1 X36.318 E1926.0156
G1 X195.926 Y164.754 E1933.1514
G1 Y164.188 E1933.1693
G1 X36.884 Y5.147 E1940.2798
G1 X37.45 E1940.2977
G1 X195.926 Y163.622 E1947.3829
G1 Y163.056 E1947.4008
G1 X38.016 Y5.147 E1954.4607
G1 X38.582 E1954.4786
G1 X195.926 Y162.49 E1961.5132
G1 Y161.924 E1961.5311
G1 X39.148 Y5.147 E1968.5404
G1 X39.714 E1968.5582
G1 X195.926 Y161.358 E1975.5422
G1 Y160.792 E1975.5601
G1 X40.28 Y5.147 E1982.5188
G1 X40.846 E1982.5367
G1 X195.926 Y160.226 E1989.4701
G1 Y159.66 E1989.488
G1 X41.412 Y5.147 E1996.396
G1 X41.978 E1996.4139
G1 X195.926 Y159.094 E2003.2967
G1 Y158.528 E2003.3146
G1 X42.544 Y5.147 E2010.172
G1 X43.11 E2010.1899
G1 X195.926 Y157.962 E2017.0221
G1 Y157.397 E2017.04
G1 X43.676 Y5.147 E2023.8468
G1 X44.242 E2023.8647
G1 X195.926 Y156.831 E2030.6463
G1 Y156.265 E2030.6642
G1 X44.808 Y5.147 E2037.4204
G1 X45.374 E2037.4383
G1 X195.926 Y155.699 E2044.1693
G1 Y155.133 E2044.1872
G1 X45.94 Y5.147 E2050.8928
G1 X46.506 E2050.9107
G1 X195.926 Y154.567 E2057.591
G1 Y154.001 E2057.6089
G1 X47.072 Y5.147 E2064.2639
G1 X47.638 E2064.2818
G1 X195.926 Y153.435 E2070.9116
G1 Y152.869 E2070.9294
G1 X48.204 Y5.147 E2077.5339
G1 X48.77 E2077.5518
G1 X195.926 Y152.303 E2084.1309
G1 Y151.737 E2084.1488
G1 X49.336 Y5.147 E2090.7026
G1 X49.902 E2090.7205
G1 X195.926 Y151.171 E2097.249
G1 Y150.605 E2097.2669
G1 X50.468 Y5.147 E2103.7701
G1 X51.034 E2103.788
G1 X195.926 Y150.039 E2110.2659
G1 Y149.473 E2110.2838
G1 X51.6 Y5.147 E2116.7364
G1 X52.166 E2116.7543
G1 X195.926 Y148.907 E2123.1815
G1 Y148.341 E2123.1994
G1 X52.732 Y5.147 E2129.6014
G1 X53.298 E2129.6193
G1 X195.926 Y147.775 E2135.996
G1 Y147.209 E2136.0139
G1 X53.864 Y5.147 E2142.3653
G1 X54.43 E2142.3832
G1 X195.926 Y146.643 E2148.7092
G1 Y146.077 E2148.7271
G1 X54.996 Y5.147 E2155.0279
G1 X55.562 E2155.0458
G1 X195.926 Y145.511 E2161.3213
G1 Y144.945 E2161.3391
G1 X56.128 Y5.147 E2167.5893
G1 X56.694 E2167.6072
G1 X195.926 Y144.379 E2173.8321
G1 Y143.813 E2173.85
G1 X57.26 Y5.147 E2180.0495
G1 X57.826 E2180.0674
G1 X195.926 Y143.247 E2186.2416
G1 Y142.681 E2186.2595
G1 X58.392 Y5.147 E2192.4085
G1 X58.958 E2192.4264
G1 X195.926 Y142.115 E2198.55
G1 Y141.549 E2198.5679
G1 X59.524 Y5.147 E2204.6662
G1 X60.09 E2204.6841
G1 X195.926 Y140.983 E2210.7572
G1 Y140.417 E2210.7751
G1 X60.656 Y5.147 E2216.8228
G1 X61.222 E2216.8407
G1 X195.926 Y139.851 E2222.8631
G1 Y139.285 E2222.881
G1 X61.788 Y5.147 E2228.8781
G1 X62.354 E2228.896
G1 X195.926 Y138.719 E2234.8678
G1 Y138.153 E2234.8857
G1 X62.92 Y5.147 E2240.8322
G1 X63.486 E2240.8501
G1 X195.926 Y137.587 E2246.7713
G1 Y137.021 E2246.7892
G1 X64.052 Y5.147 E2252.6851
G1 X64.618 E2252.703
G1 X195.926 Y136.455 E2258.5736
G1 Y135.889 E2258.5915
G1 X65.183 Y5.147 E2264.4368
G1 X65.749 E2264.4547
G1 X195.926 Y135.323 E2270.2747
G1 Y134.757 E2270.2926
G1 X66.315 Y5.147 E2276.0873
G1 X66.881 E2276.1051
G1 X195.926 Y134.191 E2281.8745
G1 Y133.625 E2281.8924
G1 X67.447 Y5.147 E2287.6365
G1 X68.013 E2287.6544
G1 X195.926 Y133.059 E2293.3732
G1 Y132.493 E2293.3911
G1 X68.579 Y5.147 E2299.0845
G1 X69.145 E2299.1024
G1 X195.926 Y131.927 E2304.7706
G1 Y131.361 E2304.7885
G1 X69.711 Y5.147 E2310.4313
G1 X70.277 E2310.4492
G1 X195.926 Y130.795 E2316.0668
G1 Y130.229 E2316.0847
G1 X70.843 Y5.147 E2321.6769
G1 X71.409 E2321.6948
G1 X195.926 Y129.663 E2327.2618
G1 Y129.097 E2327.2797
G1 X71.975 Y5.147 E2332.8213
G1 X72.541 E2332.8392
G1 X195.926 Y128.531 E2338.3555
G1 Y127.965 E2338.3734
G1 X73.107 Y5.147 E2343.8645
G1 X73.673 E2343.8824
G1 X195.926 Y127.399 E2349.3481
G1 Y126.833 E2349.366
G1 X74.239 Y5.147 E2354.8064
G1 X74.805 E2354.8243
G1 X195.926 Y126.268 E2360.2394
G1 Y125.702 E2360.2573
G1 X75.371 Y5.147 E2365.6471
G1 X75.937 E2365.665
G1 X195.926 Y125.136 E2371.0295
G1 Y124.57 E2371.0474
G1 X76.503 Y5.147 E2376.3866
G1 X77.069 E2376.4045
G1 X195.926 Y124.004 E2381.7184
G1 Y123.438 E2381.7363
G1 X77.635 Y5.147 E2387.0249
G1 X78.201 E2387.0428
G1 X195.926 Y122.872 E2392.3061
G1 Y122.306 E2392.324
G1 X78.767 Y5.147 E2397.562
G1 X79.333 E2397.5799
G1 X195.926 Y121.74 E2402.7926
G1 Y121.174 E2402.8105
G1 X79.899 Y5.147 E2407.9979
G1 X80.465 E2408.0157
G1 X195.926 Y120.608 E2413.1778
G1 Y120.042 E2413.1957
G1 X81.031 Y5.147 E2418.3325
G1 X81.597 E2418.3504
G1 X195.926 Y119.476 E2423.4619
G1 Y118.91 E2423.4798
G1 X82.163 Y5.147 E2428.5659
G1 X82.729 E2428.5838
G1 X195.926 Y118.344 E2433.6447
G1 Y117.778 E2433.6626
G1 X83.295 Y5.147 E2438.6981
G1 X83.861 E2438.716
G1 X195.926 Y117.212 E2443.7263
G1 Y116.646 E2443.7442
G1 X84.427 Y5.147 E2448.7291
G1 X84.993 E2448.747
G1 X195.926 Y116.08 E2453.7067
G1 Y115.514 E2453.7245
G1 X85.559 Y5.147 E2458.6589
G1 X86.125 E2458.6768
G1 X195.926 Y114.948 E2463.5858
G1 Y114.382 E2463.6037
G1 X86.691 Y5.147 E2468.4874
G1 X87.257 E2468.5053
G1 X195.926 Y113.816 E2473.3638
G1 Y113.25 E2473.3817
G1 X87.823 Y5.147 E2478.2148
G1 X88.389 E2478.2327
G1 X195.926 Y112.684 E2483.0405
G1 Y112.118 E2483.0584
G1 X88.955 Y5.147 E2487.8409
G1 X89.521 E2487.8588
G1 X195.926 Y111.552 E2492.616
G1 Y110.986 E2492.6339
G1 X90.087 Y5.147 E2497.3658
G1 X90.653 E2497.3837
G1 X195.926 Y110.42 E2502.0903
G1 Y109.854 E2502.1082
G1 X91.219 Y5.147 E2506.7895
G1 X91.785 E2506.8074
G1 X195.926 Y109.288 E2511.4634
G1 Y108.722 E2511.4813
G1 X92.351 Y5.147 E2516.112
G1 X92.917 E2516.1299
G1 X195.926 Y108.156 E2520.7352
G1 Y107.59 E2520.7531
G1 X93.483 Y5.147 E2525.3332
G1 X94.049 E2525.3511
G1 X195.926 Y107.024 E2529.9059
G1 Y106.458 E2529.9238
G1 X94.615 Y5.147 E2534.4533
G1 X95.181 E2534.4711
G1 X195.926 Y105.892 E2538.9753
G1 Y105.326 E2538.9932
G1 X95.747 Y5.147 E2543.4721
G1 X96.312 E2543.49
G1 X195.926 Y104.76 E2547.9435
G1 Y104.194 E2547.9614
G1 X96.878 Y5.147 E2552.3897
G1 X97.444 E2552.4076
G1 X195.926 Y103.628 E2556.8105
G1 Y103.062 E2556.8284
G1 X98.01 Y5.147 E2561.2061
G1 X98.576 E2561.224
G1 X195.926 Y102.496 E2565.5763
G1 Y101.93 E2565.5942
G1 X99.142 Y5.147 E2569.9212
G1 X99.708 E2569.9391
G1 X195.926 Y101.364 E2574.2409
G1 Y100.798 E2574.2588
G1 X100.274 Y5.147 E2578.5352
G1 X100.84 E2578.5531
G1 X195.926 Y100.232 E2582.8042
G1 Y99.666 E2582.8221
G1 X101.406 Y5.147 E2587.0479
G1 X101.972 E2587.0658
G1 X195.926 Y99.1 E2591.2663
G1 Y98.534 E2591.2842
G1 X102.538 Y5.147 E2595.4594
G1 X103.104 E2595.4773
G1 X195.926 Y97.968 E2599.6272
G1 Y97.402 E2599.6451
G1 X103.67 Y5.147 E2603.7697
G1 X104.236 E2603.7876
G1 X195.926 Y96.836 E2607.8869
G1 Y96.27 E2607.9048
G1 X104.802 Y5.147 E2611.9788
G1 X105.368 E2611.9967
G1 X195.926 Y95.704 E2616.0454
G1 Y95.139 E2616.0633
G1 X105.934 Y5.147 E2620.0867
G1 X106.5 E2620.1046
G1 X195.926 Y94.573 E2624.1027
G1 Y94.007 E2624.1206
G1 X107.066 Y5.147 E2628.0934
G1 X107.632 E2628.1112
G1 X195.926 Y93.441 E2632.0587
G1 Y92.875 E2632.0766
G1 X108.198 Y5.147 E2635.9988
G1 X108.764 E2636.0167
G1 X195.926 Y92.309 E2639.9135
G1 Y91.743 E2639.9314
G1 X109.33 Y5.147 E2643.803
G1 X109.896 E2643.8209
G1 X195.926 Y91.177 E2647.6672
G1 Y90.611 E2647.685
G1 X110.462 Y5.147 E2651.506
G1 X111.028 E2651.5239
G1 X195.926 Y90.045 E2655.3195
G1 Y89.479 E2655.3374
G1 X111.594 Y5.147 E2659.1078
G1 X112.16 E2659.1257
G1 X195.926 Y88.913 E2662.8707
G1 Y88.347 E2662.8886
G1 X112.726 Y5.147 E2666.6084
G1 X113.292 E2666.6262
G1 X195.926 Y87.781 E2670.3207
G1 Y87.215 E2670.3386
G1 X113.858 Y5.147 E2674.0077
G1 X114.424 E2674.0256
G1 X195.926 Y86.649 E2677.6694
G1 Y86.083 E2677.6873
G1 X114.99 Y5.147 E2681.3058
G1 X115.556 E2681.3237
G1 X195.926 Y85.517 E2684.9169
G1 Y84.951 E2684.9348
G1 X116.122 Y5.147 E2688.5028
G1 X116.688 E2688.5206
G1 X195.926 Y84.385 E2692.0633
G1 Y83.819 E2692.0811
G1 X117.254 Y5.147 E2695.5985
G1 X117.82 E2695.6163
G1 X195.926 Y83.253 E2699.1083
G1 Y82.687 E2699.1262
G1 X118.386 Y5.147 E2702.5929
G1 X118.952 E2702.6108
G1 X195.926 Y82.121 E2706.0522
G1 Y81.555 E2706.0701
G1 X119.518 Y5.147 E2709.4862
G1 X120.084 E2709.5041
G1 X195.926 Y80.989 E2712.8949
G1 Y80.423 E2712.9128
G1 X120.65 Y5.147 E2716.2782
G1 X121.216 E2716.2961
G1 X195.926 Y79.857 E2719.6363
G1 Y79.291 E2719.6542
G1 X121.782 Y5.147 E2722.9691
G1 X122.348 E2722.987
G1 X195.926 Y78.725 E2726.2765
G1 Y78.159 E2726.2944
G1 X122.914 Y5.147 E2729.5587
G1 X123.48 E2729.5766
G1 X195.926 Y77.593 E2732.8155
G1 Y77.027 E2732.8334
G1 X124.046 Y5.147 E2736.0471
G1 X124.612 E2736.065
G1 X195.926 Y76.461 E2739.2533
G1 Y75.895 E2739.2712
G1 X125.178 Y5.147 E2742.4343
G1 X125.744 E2742.4522
G1 X195.926 Y75.329 E2745.5899
G1 Y74.763 E2745.6078
G1 X126.31 Y5.147 E2748.7202
G1 X126.876 E2748.7381
G1 X195.926 Y74.197 E2751.8253
G1 Y73.631 E2751.8432
G1 X127.442 Y5.147 E2754.905
G1 X128.007 E2754.9229
G1 X195.926 Y73.065 E2757.9594
G1 Y72.499 E2757.9773
G1 X128.573 Y5.147 E2760.9885
G1 X129.139 E2761.0064
G1 X195.926 Y71.933 E2763.9923
G1 Y71.367 E2764.0102
G1 X129.705 Y5.147 E2766.9708
G1 X130.271 E2766.9887
G1 X195.926 Y70.801 E2769.924
G1 Y70.235 E2769.9419
G1 X130.837 Y5.147 E2772.8519
G1 X131.403 E2772.8698
G1 X195.926 Y69.669 E2775.7545
G1 Y69.103 E2775.7724
G1 X131.969 Y5.147 E2778.6318
G1 X132.535 E2778.6497
G1 X195.926 Y68.537 E2781.4838
G1 Y67.971 E2781.5017
G1 X133.101 Y5.147 E2784.3105
G1 X133.667 E2784.3284
G1 X195.926 Y67.405 E2787.1118
G1 Y66.839 E2787.1297
G1 X134.233 Y5.147 E2789.8879
G1 X134.799 E2789.9058
G1 X195.926 Y66.273 E2792.6387
G1 Y65.707 E2792.6566
G1 X135.365 Y5.147 E2795.3641
G1 X135.931 E2795.382
G1 X195.926 Y65.141 E2798.0643
G1 Y64.575 E2798.0822
G1 X136.497 Y5.147 E2800.7392
G1 X137.063 E2800.757
G1 X195.926 Y64.009 E2803.3887
G1 Y63.444 E2803.4066
G1 X137.629 Y5.147 E2806.0129
G1 X138.195 E2806.0308
G1 X195.926 Y62.878 E2808.6119
G1 Y62.312 E2808.6298
G1 X138.761 Y5.147 E2811.1855
G1 X139.327 E2811.2034
G1 X195.926 Y61.746 E2813.7339
G1 Y61.18 E2813.7517
G1 X139.893 Y5.147 E2816.2569
G1 X140.459 E2816.2748
G1 X195.926 Y60.614 E2818.7546
G1 Y60.048 E2818.7725
G1 X141.025 Y5.147 E2821.227
G1 X141.591 E2821.2449
G1 X195.926 Y59.482 E2823.6741
G1 Y58.916 E2823.692
G1 X142.157 Y5.147 E2826.096
G1 X142.723 E2826.1138
G1 X195.926 Y58.35 E2828.4925
G1 Y57.784 E2828.5104
G1 X143.289 Y5.147 E2830.8637
G1 X143.855 E2830.8816
G1 X195.926 Y57.218 E2833.2096
G1 Y56.652 E2833.2275
G1 X144.421 Y5.147 E2835.5302
G1 X144.987 E2835.5481
G1 X195.926 Y56.086 E2837.8254
G1 Y55.52 E2837.8433
G1 X145.553 Y5.147 E2840.0954
G1 X146.119 E2840.1133
G1 X195.926 Y54.954 E2842.3401
G1 Y54.388 E2842.358
G1 X146.685 Y5.147 E2844.5595
G1 X147.251 E2844.5774
G1 X195.926 Y53.822 E2846.7536
G1 Y53.256 E2846.7715
G1 X147.817 Y5.147 E2848.9223
G1 X148.383 E2848.9402
G1 X195.926 Y52.69 E2851.0658
G1 Y52.124 E2851.0837
G1 X148.949 Y5.147 E2853.184
G1 X149.515 E2853.2019
G1 X195.926 Y51.558 E2855.2768
G1 Y50.992 E2855.2947
G1 X150.081 Y5.147 E2857.3444
G1 X150.647 E2857.3623
G1 X195.926 Y50.426 E2859.3866
G1 Y49.86 E2859.4045
G1 X151.213 Y5.147 E2861.4036
G1 X151.779 E2861.4215
G1 X195.926 Y49.294 E2863.3952
G1 Y48.728 E2863.4131
G1 X152.345 Y5.147 E2865.3615
G1 X152.911 E2865.3794
G1 X195.926 Y48.162 E2867.3026
G1 Y47.596 E2867.3205
G1 X153.477 Y5.147 E2869.2183
G1 X154.043 E2869.2362
G1 X195.926 Y47.03 E2871.1087
G1 Y46.464 E2871.1266
G1 X154.609 Y5.147 E2872.9738
G1 X155.175 E2872.9917
G1 X195.926 Y45.898 E2874.8137
G1 Y45.332 E2874.8315
G1 X155.741 Y5.147 E2876.6282
G1 X156.307 E2876.6461
G1 X195.926 Y44.766 E2878.4174
G1 Y44.2 E2878.4353
G1 X156.873 Y5.147 E2880.1813
G1 X157.439 E2880.1992
G1 X195.926 Y43.634 E2881.9199
G1 Y43.068 E2881.9378
G1 X158.005 Y5.147 E2883.6332
G1 X158.571 E2883.6511
G1 X195.926 Y42.502 E2885.3212
G1 Y41.936 E2885.339
G1 X159.136 Y5.147 E2886.9838
G1 X159.702 E2887.0017
G1 X195.926 Y41.37 E2888.6212
G1 Y40.804 E2888.6391
G1 X160.268 Y5.147 E2890.2333
G1 X160.834 E2890.2512
G1 X195.926 Y40.238 E2891.8201
G1 Y39.672 E2891.838
G1 X161.4 Y5.147 E2893.3815
G1 X161.966 E2893.3994
G1 X195.926 Y39.106 E2894.9177
G1 Y38.54 E2894.9356
G1 X162.532 Y5.147 E2896.4286
G1 X163.098 E2896.4464
G1 X195.926 Y37.974 E2897.9141
G1 Y37.408 E2897.932
G1 X163.664 Y5.147 E2899.3744
G1 X164.23 E2899.3923
G1 X195.926 Y36.842 E2900.8093
G1 Y36.276 E2900.8272
G1 X164.796 Y5.147 E2902.219
G1 X165.362 E2902.2368
G1 X195.926 Y35.71 E2903.6033
G1 Y35.144 E2903.6212
G1 X165.928 Y5.147 E2904.9623
G1 X166.494 E2904.9802
G1 X195.926 Y34.578 E2906.2961
G1 Y34.012 E2906.3139
G1 X167.06 Y5.147 E2907.6045
G1 X167.626 E2907.6224
G1 X195.926 Y33.446 E2908.8876
G1 Y32.88 E2908.9055
G1 X168.192 Y5.147 E2910.1454
G1 X168.758 E2910.1633
G1 X195.926 Y32.315 E2911.3779
G1 Y31.749 E2911.3958
G1 X169.324 Y5.147 E2912.5851
G1 X169.89 E2912.603
G1 X195.926 Y31.183 E2913.767
G1 Y30.617 E2913.7849
G1 X170.456 Y5.147 E2914.9236
G1 X171.022 E2914.9415
G1 X195.926 Y30.051 E2916.0549
G1 Y29.485 E2916.0728
G1 X171.588 Y5.147 E2917.1609
G1 X172.154 E2917.1788
G1 X195.926 Y28.919 E2918.2416
G1 Y28.353 E2918.2595
G1 X172.72 Y5.147 E2919.297
G1 X173.286 E2919.3149
G1 X195.926 Y27.787 E2920.3271
G1 Y27.221 E2920.345
G1 X173.852 Y5.147 E2921.3319
G1 X174.418 E2921.3497
G1 X195.926 Y26.655 E2922.3113
G1 Y26.089 E2922.3292
G1 X174.984 Y5.147 E2923.2655
G1 X175.55 E2923.2834
G1 X195.926 Y25.523 E2924.1944
G1 Y24.957 E2924.2122
G1 X176.116 Y5.147 E2925.0979
G1 X176.682 E2925.1158
G1 X195.926 Y24.391 E2925.9762
G1 Y23.825 E2925.9941
G1 X177.248 Y5.147 E2926.8291
G1 X177.814 E2926.847
G1 X195.926 Y23.259 E2927.6568
G1 Y22.693 E2927.6747
G1 X178.38 Y5.147 E2928.4591
G1 X178.946 E2928.477
G1 X195.926 Y22.127 E2929.2361
G1 Y21.561 E2929.254
G1 X179.512 Y5.147 E2929.9879
G1 X180.078 E2930.0058
G1 X195.926 Y20.995 E2930.7143
G1 Y20.429 E2930.7322
G1 X180.644 Y5.147 E2931.4154
G1 X181.21 E2931.4333
G1 X195.926 Y19.863 E2932.0912
G1 Y19.297 E2932.1091
G1 X181.776 Y5.147 E2932.7418
G1 X182.342 E2932.7597
G1 X195.926 Y18.731 E2933.367
G1 Y18.165 E2933.3849
G1 X182.908 Y5.147 E2933.9669
G1 X183.474 E2933.9848
G1 X195.926 Y17.599 E2934.5415
G1 Y17.033 E2934.5594
G1 X184.04 Y5.147 E2935.0908
G1 X184.606 E2935.1087
G1 X195.926 Y16.467 E2935.6148
G1 Y15.901 E2935.6327
G1 X185.172 Y5.147 E2936.1135
G1 X185.738 E2936.1314
G1 X195.926 Y15.335 E2936.5869
G1 Y14.769 E2936.6047
G1 X186.304 Y5.147 E2937.0349
G1 X186.87 E2937.0528
G1 X195.926 Y14.203 E2937.4577
G1 Y13.637 E2937.4756
G1 X187.436 Y5.147 E2937.8552
G1 X188.002 E2937.8731
G1 X195.926 Y13.071 E2938.2274
G1 Y12.505 E2938.2452
G1 X188.568 Y5.147 E2938.5742
G1 X189.134 E2938.5921
G1 X195.926 Y11.939 E2938.8958
G1 Y11.373 E2938.9137
G1 X189.7 Y5.147 E2939.192
G1 X190.265 E2939.2099
G1 X195.926 Y10.807 E2939.463
G1 Y10.241 E2939.4809
G1 X190.831 Y5.147 E2939.7086
G1 X191.397 E2939.7265
G1 X195.926 Y9.675 E2939.929
G1 Y9.109 E2939.9469
G1 X191.963 Y5.147 E2940.124
G1 X192.529 E2940.1419
