; G-Code flavour: Marlin
; ID: 65bb9363c00ad50bd949c59a
; Print time: 1:38:19
; Filament used: 24.27 meter(s)
; Estimated weight: 73 gram(s)
; Generated with: REALvisionCore 26.1.5
; Printer name: Creality K1
; Material Profile: CreaTECH_PLA 
; Layer height: 0.2
M140 S0
M104 S0 
START_PRINT EXTRUDER_TEMP=230 BED_TEMP=45
G92 E0
G92 E0
G1 F2400 E-0.5
; Print start
          ; Repositioning
G1 X0 Y0 F27000
G1 X17.105 Y209.8
G1 Z0 F1800
G1 Z0.03
         ; New Layer
; layer 0, Z = 0.239
M140 S45
; Repositioning
G1 Z0.239
; Contour
G1 X216.466 E11.3386 F3600
G1 Y10.2 E22.6908
G1 X17.105 E34.0295
G1 Y209.8 E45.3817
G92 E0
; Repositioning
G1 X17.412 Y209.543
G1 X17.475 Y209.43
; Contour
G1 X216.096 E11.2965
G1 Y10.57 E22.6067
G1 X17.475 E33.9032
G1 Y209.43 E45.2133
G1 E44.4133 F2400
G92 E0
; Repositioning with retraction
G1 X88.685 Y149.826 F3600
G1 E0.8 F2400
G92 E0
; Contour
G1 X166.033 Y165.541 E4.4891 F3600
G1 Y54.459 E10.8068
G1 X88.685 Y70.174 E15.2959
G1 Y149.826 E19.8261
G92 E0
; Repositioning
G1 X89.055 Y149.523
; Contour
G1 X165.663 Y165.088 E4.4461
G1 Y54.912 E10.7124
G1 X89.055 Y70.477 E15.1585
G1 Y149.523 E19.6543
G1 E18.8543 F2400
G92 E0
; Repositioning with retraction
G1 X88.335 Y150.131 F3600
G1 X89.009 Y150.169
G1 E0.8 F2400
G92 E0
; Infill
G1 X147.998 Y209.158 E4.7495 F3600
G1 X148.564 E4.7817
G1 X89.719 Y150.313 E9.5196
G1 X90.43 Y150.458 E9.5609
G1 X149.13 Y209.158 E14.2871
G1 X149.697 E14.3194
G1 X91.141 Y150.602 E19.034
G1 X91.851 Y150.746 E19.0753
G1 X150.263 Y209.158 E23.7783
G1 X150.829 E23.8105
G1 X92.562 Y150.891 E28.5019
G1 X93.273 Y151.035 E28.5431
G1 X151.395 Y209.158 E33.2229
G1 X151.962 E33.2551
G1 X93.983 Y151.18 E37.9232
G1 X94.694 Y151.324 E37.9645
G1 X152.528 Y209.158 E42.621
G1 X153.094 E42.6532
G1 X95.405 Y151.468 E47.2981
G1 X96.115 Y151.613 E47.3394
G1 X153.66 Y209.158 E51.9726
G1 X154.227 E52.0049
G1 X96.826 Y151.757 E56.6265
G1 X97.537 Y151.902 E56.6678
G1 X154.793 Y209.158 E61.2778
G1 X155.359 E61.31
G1 X98.247 Y152.046 E65.9084
G1 X98.958 Y152.19 E65.9496
G1 X155.926 Y209.158 E70.5364
G1 X156.492 E70.5686
G1 X99.669 Y152.335 E75.1437
G1 X100.379 Y152.479 E75.185
G1 X157.058 Y209.158 E79.7485
G1 X157.624 E79.7807
G1 X101.09 Y152.624 E84.3326
G1 X101.8 Y152.768 E84.3739
G1 X158.191 Y209.158 E88.9141
G1 X158.757 E88.9464
G1 X102.511 Y152.912 E93.475
G1 X103.222 Y153.057 E93.5163
G1 X159.323 Y209.158 E98.0333
G1 X159.889 E98.0655
G1 X103.932 Y153.201 E102.5709
G1 X104.643 Y153.345 E102.6121
G1 X160.456 Y209.158 E107.1059
G1 X161.022 E107.1381
G1 X105.354 Y153.49 E111.6202
G1 X106.064 Y153.634 E111.6615
G1 X161.588 Y209.158 E116.132
G1 X162.154 E116.1642
G1 X106.775 Y153.779 E120.6231
G1 X107.486 Y153.923 E120.6644
G1 X162.721 Y209.158 E125.1116
G1 X163.287 E125.1439
G1 X108.196 Y154.067 E129.5795
G1 X108.907 Y154.212 E129.6207
G1 X163.853 Y209.158 E134.0447
G1 X164.419 E134.077
G1 X109.618 Y154.356 E138.4893
G1 X110.328 Y154.501 E138.5306
G1 X164.986 Y209.158 E142.9313
G1 X165.552 E142.9636
G1 X111.039 Y154.645 E147.3527
G1 X111.749 Y154.789 E147.394
G1 X166.118 Y209.158 E151.7715
G1 X166.684 E151.8037
G1 X112.46 Y154.934 E156.1696
G1 X113.171 Y155.078 E156.2108
G1 X167.251 Y209.158 E160.5651
G1 X167.817 E160.5973
G1 X113.881 Y155.222 E164.9399
G1 X114.592 Y155.367 E164.9812
G1 X168.383 Y209.158 E169.3122
G1 X168.949 E169.3444
G1 X115.303 Y155.511 E173.6638
G1 X116.013 Y155.656 E173.7051
G1 X169.516 Y209.158 E178.0128
G1 X170.082 E178.045
G1 X116.724 Y155.8 E182.3411
G1 X117.435 Y155.944 E182.3824
G1 X170.648 Y209.158 E186.6669
G1 X171.214 E186.6991
G1 X118.145 Y156.089 E190.972
G1 X118.856 Y156.233 E191.0133
G1 X171.781 Y209.158 E195.2745
G1 X172.347 E195.3068
G1 X119.567 Y156.378 E199.5564
G1 X120.277 Y156.522 E199.5976
G1 X172.913 Y209.158 E203.8356
G1 X173.48 E203.8679
G1 X120.988 Y156.666 E208.0942
G1 X121.699 Y156.811 E208.1355
G1 X174.046 Y209.158 E212.3502
G1 X174.612 E212.3825
G1 X122.409 Y156.955 E216.5856
G1 X123.12 Y157.1 E216.6269
G1 X175.178 Y209.158 E220.8183
G1 X175.745 E220.8506
G1 X123.83 Y157.244 E225.0304
G1 X124.541 Y157.388 E225.0717
G1 X176.311 Y209.158 E229.2399
G1 X176.877 E229.2722
G1 X125.252 Y157.533 E233.4288
G1 X125.962 Y157.677 E233.4701
G1 X177.443 Y209.158 E237.6151
G1 X178.01 E237.6473
G1 X126.673 Y157.821 E241.7806
G1 X127.384 Y157.966 E241.8219
G1 X178.576 Y209.158 E245.9437
G1 X179.142 E245.9759
G1 X128.094 Y158.11 E250.086
G1 X128.805 Y158.255 E250.1273
G1 X179.708 Y209.158 E254.2258
G1 X180.275 E254.258
G1 X129.516 Y158.399 E258.3448
G1 X130.226 Y158.543 E258.3861
G1 X180.841 Y209.158 E262.4614
G1 X181.407 E262.4936
G1 X130.937 Y158.688 E266.5572
G1 X131.648 Y158.832 E266.5985
G1 X181.973 Y209.158 E270.6505
G1 X182.54 E270.6827
G1 X132.358 Y158.977 E274.7231
G1 X133.069 Y159.121 E274.7643
G1 X183.106 Y209.158 E278.7931
G1 X183.672 E278.8253
G1 X133.78 Y159.265 E282.8424
G1 X134.49 Y159.41 E282.8837
G1 X184.238 Y209.158 E286.8892
G1 X184.805 E286.9214
G1 X135.201 Y159.554 E290.9152
G1 X135.911 Y159.698 E290.9565
G1 X185.371 Y209.158 E294.9388
G1 X185.937 E294.971
G1 X136.622 Y159.843 E298.9416
G1 X137.333 Y159.987 E298.9829
G1 X186.503 Y209.158 E302.9419
G1 X187.07 E302.9741
G1 X138.043 Y160.132 E306.9214
G1 X138.754 Y160.276 E306.9627
G1 X187.636 Y209.158 E310.8984
G1 X188.202 E310.9307
G1 X139.465 Y160.42 E314.8548
G1 X140.175 Y160.565 E314.8961
G1 X188.769 Y209.158 E318.8085
G1 X189.335 E318.8408
G1 X140.886 Y160.709 E322.7416
G1 X141.597 Y160.854 E322.7829
G1 X189.901 Y209.158 E326.6721
G1 X190.467 E326.7044
G1 X142.307 Y160.998 E330.582
G1 X143.018 Y161.142 E330.6233
G1 X191.034 Y209.158 E334.4892
G1 X191.6 E334.5215
G1 X143.729 Y161.287 E338.3758
G1 X144.439 Y161.431 E338.4171
G1 X192.166 Y209.158 E342.2598
G1 X192.732 E342.2921
G1 X145.15 Y161.575 E346.1232
G1 X145.86 Y161.72 E346.1644
G1 X193.299 Y209.158 E349.9839
G1 X193.865 E350.0161
G1 X146.571 Y161.864 E353.824
G1 X147.282 Y162.009 E353.8653
G1 X194.431 Y209.158 E357.6615
G1 X194.997 E357.6937
G1 X147.992 Y162.153 E361.4783
G1 X148.703 Y162.297 E361.5196
G1 X195.564 Y209.158 E365.2926
G1 X196.13 E365.3248
G1 X149.414 Y162.442 E369.0862
G1 X150.124 Y162.586 E369.1275
G1 X196.696 Y209.158 E372.8772
G1 X197.262 E372.9094
G1 X150.835 Y162.731 E376.6475
G1 X151.546 Y162.875 E376.6888
G1 X197.829 Y209.158 E380.4153
G1 X198.395 E380.4475
G1 X152.256 Y163.019 E384.1623
G1 X152.967 Y163.164 E384.2036
G1 X198.961 Y209.158 E387.9068
G1 X199.527 E387.9391
G1 X153.678 Y163.308 E391.6307
G1 X154.388 Y163.453 E391.672
G1 X200.094 Y209.158 E395.3519
G1 X200.66 E395.3842
G1 X155.099 Y163.597 E399.0525
G1 X155.81 Y163.741 E399.0938
G1 X201.226 Y209.158 E402.7505
G1 X201.792 E402.7827
G1 X156.52 Y163.886 E406.4278
G1 X157.231 Y164.03 E406.4691
G1 X202.359 Y209.158 E410.1026
G1 X202.925 E410.1348
G1 X157.941 Y164.174 E413.7567
G1 X158.652 Y164.319 E413.798
G1 X203.491 Y209.158 E417.4082
G1 X204.058 E417.4404
G1 X159.363 Y164.463 E421.039
G1 X160.073 Y164.608 E421.0803
G1 X204.624 Y209.158 E424.6672
G1 X205.19 E424.6995
G1 X160.784 Y164.752 E428.2748
G1 X161.495 Y164.896 E428.3161
G1 X205.756 Y209.158 E431.8798
G1 X206.323 E431.9121
G1 X162.205 Y165.041 E435.4642
G1 X162.916 Y165.185 E435.5054
G1 X206.889 Y209.158 E439.0459
G1 X207.455 E439.0781
G1 X163.627 Y165.33 E442.607
G1 X164.337 Y165.474 E442.6483
G1 X208.021 Y209.158 E446.1655
G1 X208.588 E446.1977
G1 X165.048 Y165.618 E449.7033
G1 X165.759 Y165.763 E449.7446
G1 X209.154 Y209.158 E453.2386
G1 X209.72 E453.2708
G1 X166.305 Y165.743 E456.7663
G1 Y165.177 E456.7986
G1 X210.286 Y209.158 E460.3397
G1 X210.853 E460.3719
G1 X166.305 Y164.611 E463.9586
G1 Y164.045 E463.9909
G1 X211.419 Y209.158 E467.6232
G1 X211.985 E467.6554
G1 X166.305 Y163.478 E471.3333
G1 Y162.912 E471.3655
G1 X212.551 Y209.158 E475.089
G1 X213.118 E475.1212
G1 X166.305 Y162.346 E478.8903
G1 Y161.78 E478.9226
G1 X213.684 Y209.158 E482.7372
G1 X214.25 E482.7695
G1 X166.305 Y161.213 E486.6297
G1 Y160.647 E486.662
G1 X214.816 Y209.158 E490.5678
G1 X215.383 E490.6001
G1 X166.305 Y160.081 E494.5515
G1 Y159.514 E494.5837
G1 X215.824 Y209.033 E498.5707
G1 Y208.467 E498.603
G1 X166.305 Y158.948 E502.5899
G1 Y158.382 E502.6222
G1 X215.824 Y207.901 E506.6091
G1 Y207.334 E506.6414
G1 X166.305 Y157.816 E510.6284
G1 Y157.249 E510.6606
G1 X215.824 Y206.768 E514.6476
G1 Y206.202 E514.6798
G1 X166.305 Y156.683 E518.6668
G1 Y156.117 E518.699
G1 X215.824 Y205.635 E522.686
G1 Y205.069 E522.7182
G1 X166.305 Y155.551 E526.7052
G1 Y154.984 E526.7375
G1 X215.824 Y204.503 E530.7244
G1 Y203.937 E530.7567
G1 X166.305 Y154.418 E534.7437
G1 Y153.852 E534.7759
G1 X215.824 Y203.37 E538.7629
G1 Y202.804 E538.7951
G1 X166.305 Y153.286 E542.7821
G1 Y152.719 E542.8143
G1 X215.824 Y202.238 E546.8013
G1 Y201.672 E546.8335
G1 X166.305 Y152.153 E550.8205
G1 Y151.587 E550.8528
G1 X215.824 Y201.105 E554.8397
G1 Y200.539 E554.872
G1 X166.305 Y151.021 E558.8589
G1 Y150.454 E558.8912
G1 X215.824 Y199.973 E562.8782
G1 Y199.407 E562.9104
G1 X166.305 Y149.888 E566.8974
G1 Y149.322 E566.9296
G1 X215.824 Y198.84 E570.9166
G1 Y198.274 E570.9488
G1 X166.305 Y148.756 E574.9358
G1 Y148.189 E574.968
G1 X215.824 Y197.708 E578.955
G1 Y197.142 E578.9873
G1 X166.305 Y147.623 E582.9742
G1 Y147.057 E583.0065
G1 X215.824 Y196.575 E586.9935
G1 Y196.009 E587.0257
G1 X166.305 Y146.491 E591.0127
G1 Y145.924 E591.0449
G1 X215.824 Y195.443 E595.0319
G1 Y194.877 E595.0641
G1 X166.305 Y145.358 E599.0511
G1 Y144.792 E599.0833
G1 X215.824 Y194.31 E603.0703
G1 Y193.744 E603.1026
G1 X166.305 Y144.225 E607.0895
G1 Y143.659 E607.1218
G1 X215.824 Y193.178 E611.1087
G1 Y192.612 E611.141
G1 X166.305 Y143.093 E615.128
G1 Y142.527 E615.1602
G1 X215.824 Y192.045 E619.1472
G1 Y191.479 E619.1794
G1 X166.305 Y141.96 E623.1664
G1 Y141.394 E623.1986
G1 X215.824 Y190.913 E627.1856
G1 Y190.346 E627.2178
G1 X166.305 Y140.828 E631.2048
G1 Y140.262 E631.2371
G1 X215.824 Y189.78 E635.224
G1 Y189.214 E635.2563
G1 X166.305 Y139.695 E639.2432
G1 Y139.129 E639.2755
G1 X215.824 Y188.648 E643.2625
G1 Y188.081 E643.2947
G1 X166.305 Y138.563 E647.2817
G1 Y137.997 E647.3139
G1 X215.824 Y187.515 E651.3009
G1 Y186.949 E651.3331
G1 X166.305 Y137.43 E655.3201
G1 Y136.864 E655.3523
G1 X215.824 Y186.383 E659.3393
G1 Y185.816 E659.3716
G1 X166.305 Y136.298 E663.3585
G1 Y135.732 E663.3908
G1 X215.824 Y185.25 E667.3778
G1 Y184.684 E667.41
G1 X166.305 Y135.165 E671.397
G1 Y134.599 E671.4292
G1 X215.824 Y184.118 E675.4162
G1 Y183.551 E675.4484
G1 X166.305 Y134.033 E679.4354
G1 Y133.467 E679.4676
G1 X215.824 Y182.985 E683.4546
G1 Y182.419 E683.4869
G1 X166.305 Y132.9 E687.4738
G1 Y132.334 E687.5061
G1 X215.824 Y181.853 E691.493
G1 Y181.286 E691.5253
G1 X166.305 Y131.768 E695.5123
G1 Y131.202 E695.5445
G1 X215.824 Y180.72 E699.5315
G1 Y180.154 E699.5637
G1 X166.305 Y130.635 E703.5507
G1 Y130.069 E703.5829
G1 X215.824 Y179.588 E707.5699
G1 Y179.021 E707.6021
G1 X166.305 Y129.503 E711.5891
G1 Y128.936 E711.6214
G1 X215.824 Y178.455 E715.6083
G1 Y177.889 E715.6406
G1 X166.305 Y128.37 E719.6275
G1 Y127.804 E719.6598
G1 X215.824 Y177.323 E723.6468
G1 Y176.756 E723.679
G1 X166.305 Y127.238 E727.666
G1 Y126.671 E727.6982
G1 X215.824 Y176.19 E731.6852
G1 Y175.624 E731.7174
G1 X166.305 Y126.105 E735.7044
G1 Y125.539 E735.7366
G1 X215.824 Y175.058 E739.7236
G1 Y174.491 E739.7559
G1 X166.305 Y124.973 E743.7428
G1 Y124.406 E743.7751
G1 X215.824 Y173.925 E747.7621
G1 Y173.359 E747.7943
G1 X166.305 Y123.84 E751.7813
G1 Y123.274 E751.8135
G1 X215.824 Y172.792 E755.8005
G1 Y172.226 E755.8327
G1 X166.305 Y122.708 E759.8197
G1 Y122.141 E759.8519
G1 X215.824 Y171.66 E763.8389
G1 Y171.094 E763.8712
G1 X166.305 Y121.575 E767.8581
G1 Y121.009 E767.8904
G1 X215.824 Y170.527 E771.8773
G1 Y169.961 E771.9096
G1 X166.305 Y120.443 E775.8966
G1 Y119.876 E775.9288
G1 X215.824 Y169.395 E779.9158
G1 Y168.829 E779.948
G1 X166.305 Y119.31 E783.935
G1 Y118.744 E783.9672
G1 X215.824 Y168.262 E787.9542
G1 Y167.696 E787.9864
G1 X166.305 Y118.178 E791.9734
G1 Y117.611 E792.0057
G1 X215.824 Y167.13 E795.9926
G1 Y166.564 E796.0249
G1 X166.305 Y117.045 E800.0119
G1 Y116.479 E800.0441
G1 X215.824 Y165.997 E804.0311
G1 Y165.431 E804.0633
G1 X166.305 Y115.913 E808.0503
G1 Y115.346 E808.0825
G1 X215.824 Y164.865 E812.0695
G1 Y164.299 E812.1017
G1 X166.305 Y114.78 E816.0887
G1 Y114.214 E816.121
G1 X215.824 Y163.732 E820.1079
G1 Y163.166 E820.1402
G1 X166.305 Y113.648 E824.1271
G1 Y113.081 E824.1594
G1 X215.824 Y162.6 E828.1464
G1 Y162.034 E828.1786
G1 X166.305 Y112.515 E832.1656
G1 Y111.949 E832.1978
G1 X215.824 Y161.467 E836.1848
G1 Y160.901 E836.217
G1 X166.305 Y111.382 E840.204
G1 Y110.816 E840.2362
G1 X215.824 Y160.335 E844.2232
G1 Y159.769 E844.2555
G1 X166.305 Y110.25 E848.2424
G1 Y109.684 E848.2747
G1 X215.824 Y159.202 E852.2616
G1 Y158.636 E852.2939
G1 X166.305 Y109.117 E856.2809
G1 Y108.551 E856.3131
G1 X215.824 Y158.07 E860.3001
G1 Y157.503 E860.3323
G1 X166.305 Y107.985 E864.3193
G1 Y107.419 E864.3515
G1 X215.824 Y156.937 E868.3385
G1 Y156.371 E868.3707
G1 X166.305 Y106.852 E872.3577
G1 Y106.286 E872.39
G1 X215.824 Y155.805 E876.3769
G1 Y155.238 E876.4092
G1 X166.305 Y105.72 E880.3962
G1 Y105.154 E880.4284
G1 X215.824 Y154.672 E884.4154
G1 Y154.106 E884.4476
G1 X166.305 Y104.587 E888.4346
G1 Y104.021 E888.4668
G1 X215.824 Y153.54 E892.4538
G1 Y152.973 E892.486
G1 X166.305 Y103.455 E896.473
G1 Y102.889 E896.5053
G1 X215.824 Y152.407 E900.4922
G1 Y151.841 E900.5245
G1 X166.305 Y102.322 E904.5114
G1 Y101.756 E904.5437
G1 X215.824 Y151.275 E908.5307
G1 Y150.708 E908.5629
G1 X166.305 Y101.19 E912.5499
G1 Y100.624 E912.5821
G1 X215.824 Y150.142 E916.5691
G1 Y149.576 E916.6013
G1 X166.305 Y100.057 E920.5883
G1 Y99.491 E920.6205
G1 X215.824 Y149.01 E924.6075
G1 Y148.443 E924.6398
G1 X166.305 Y98.925 E928.6267
G1 Y98.359 E928.659
G1 X215.824 Y147.877 E932.646
G1 Y147.311 E932.6782
G1 X166.305 Y97.792 E936.6652
G1 Y97.226 E936.6974
G1 X215.824 Y146.745 E940.6844
G1 Y146.178 E940.7166
G1 X166.305 Y96.66 E944.7036
G1 Y96.093 E944.7358
G1 X215.824 Y145.612 E948.7228
G1 Y145.046 E948.755
G1 X166.305 Y95.527 E952.742
G1 Y94.961 E952.7743
G1 X215.824 Y144.48 E956.7612
G1 Y143.913 E956.7935
G1 X166.305 Y94.395 E960.7805
G1 Y93.828 E960.8127
G1 X215.824 Y143.347 E964.7997
G1 Y142.781 E964.8319
G1 X166.305 Y93.262 E968.8189
G1 Y92.696 E968.8511
G1 X215.824 Y142.214 E972.8381
G1 Y141.648 E972.8703
G1 X166.305 Y92.13 E976.8573
G1 Y91.563 E976.8896
G1 X215.824 Y141.082 E980.8765
G1 Y140.516 E980.9088
G1 X166.305 Y90.997 E984.8957
G1 Y90.431 E984.928
G1 X215.824 Y139.949 E988.915
G1 Y139.383 E988.9472
G1 X166.305 Y89.865 E992.9342
G1 Y89.298 E992.9664
G1 X215.824 Y138.817 E996.9534
G1 Y138.251 E996.9856
G1 X166.305 Y88.732 E1000.9726
G1 Y88.166 E1001.0048
G1 X215.824 Y137.684 E1004.9918
G1 Y137.118 E1005.0241
G1 X166.305 Y87.6 E1009.011
G1 Y87.033 E1009.0433
G1 X215.824 Y136.552 E1013.0303
G1 Y135.986 E1013.0625
G1 X166.305 Y86.467 E1017.0495
G1 Y85.901 E1017.0817
G1 X215.824 Y135.419 E1021.0687
G1 Y134.853 E1021.1009
G1 X166.305 Y85.335 E1025.0879
G1 Y84.768 E1025.1201
G1 X215.824 Y134.287 E1029.1071
G1 Y133.721 E1029.1394
G1 X166.305 Y84.202 E1033.1263
G1 Y83.636 E1033.1586
G1 X215.824 Y133.154 E1037.1455
G1 Y132.588 E1037.1778
G1 X166.305 Y83.07 E1041.1648
G1 Y82.503 E1041.197
G1 X215.824 Y132.022 E1045.184
G1 Y131.456 E1045.2162
G1 X166.305 Y81.937 E1049.2032
G1 Y81.371 E1049.2354
G1 X215.824 Y130.889 E1053.2224
G1 Y130.323 E1053.2546
G1 X166.305 Y80.804 E1057.2416
G1 Y80.238 E1057.2739
G1 X215.824 Y129.757 E1061.2608
G1 Y129.191 E1061.2931
G1 X166.305 Y79.672 E1065.28
G1 Y79.106 E1065.3123
G1 X215.824 Y128.624 E1069.2993
G1 Y128.058 E1069.3315
G1 X166.305 Y78.539 E1073.3185
G1 Y77.973 E1073.3507
G1 X215.824 Y127.492 E1077.3377
G1 Y126.925 E1077.3699
G1 X166.305 Y77.407 E1081.3569
G1 Y76.841 E1081.3891
G1 X215.824 Y126.359 E1085.3761
G1 Y125.793 E1085.4084
G1 X166.305 Y76.274 E1089.3953
G1 Y75.708 E1089.4276
G1 X215.824 Y125.227 E1093.4146
G1 Y124.66 E1093.4468
G1 X166.305 Y75.142 E1097.4338
G1 Y74.576 E1097.466
G1 X215.824 Y124.094 E1101.453
G1 Y123.528 E1101.4852
G1 X166.305 Y74.009 E1105.4722
G1 Y73.443 E1105.5044
G1 X215.824 Y122.962 E1109.4914
G1 Y122.395 E1109.5237
G1 X166.305 Y72.877 E1113.5106
G1 Y72.311 E1113.5429
G1 X215.824 Y121.829 E1117.5298
G1 Y121.263 E1117.5621
G1 X166.305 Y71.744 E1121.5491
G1 Y71.178 E1121.5813
G1 X215.824 Y120.697 E1125.5683
G1 Y120.13 E1125.6005
G1 X166.305 Y70.612 E1129.5875
G1 Y70.046 E1129.6197
G1 X215.824 Y119.564 E1133.6067
G1 Y118.998 E1133.6389
G1 X166.305 Y69.479 E1137.6259
G1 Y68.913 E1137.6582
G1 X215.824 Y118.432 E1141.6451
G1 Y117.865 E1141.6774
G1 X166.305 Y68.347 E1145.6644
G1 Y67.781 E1145.6966
G1 X215.824 Y117.299 E1149.6836
G1 Y116.733 E1149.7158
G1 X166.305 Y67.214 E1153.7028
G1 Y66.648 E1153.735
G1 X215.824 Y116.167 E1157.722
G1 Y115.6 E1157.7542
G1 X166.305 Y66.082 E1161.7412
G1 Y65.515 E1161.7734
G1 X215.824 Y115.034 E1165.7604
G1 Y114.468 E1165.7927
G1 X166.305 Y64.949 E1169.7796
G1 Y64.383 E1169.8119
G1 X215.824 Y113.902 E1173.7989
G1 Y113.335 E1173.8311
G1 X166.305 Y63.817 E1177.8181
G1 Y63.25 E1177.8503
G1 X215.824 Y112.769 E1181.8373
G1 Y112.203 E1181.8695
G1 X166.305 Y62.684 E1185.8565
G1 Y62.118 E1185.8887
G1 X215.824 Y111.636 E1189.8757
G1 Y111.07 E1189.908
G1 X166.305 Y61.552 E1193.8949
G1 Y60.985 E1193.9272
G1 X215.824 Y110.504 E1197.9141
G1 Y109.938 E1197.9464
G1 X166.305 Y60.419 E1201.9334
G1 Y59.853 E1201.9656
G1 X215.824 Y109.371 E1205.9526
G1 Y108.805 E1205.9848
G1 X166.305 Y59.287 E1209.9718
G1 Y58.72 E1210.004
G1 X215.824 Y108.239 E1213.991
G1 Y107.673 E1214.0232
G1 X166.305 Y58.154 E1218.0102
G1 Y57.588 E1218.0425
G1 X215.824 Y107.106 E1222.0294
G1 Y106.54 E1222.0617
G1 X166.305 Y57.022 E1226.0487
G1 Y56.455 E1226.0809
G1 X215.824 Y105.974 E1230.0679
G1 Y105.408 E1230.1001
G1 X166.305 Y55.889 E1234.0871
G1 Y55.323 E1234.1193
G1 X215.824 Y104.841 E1238.1063
G1 Y104.275 E1238.1385
G1 X166.305 Y54.757 E1242.1255
G1 Y54.19 E1242.1578
G1 X215.824 Y103.709 E1246.1447
G1 Y103.143 E1246.177
G1 X123.523 Y10.842 E1253.6085
G1 X124.09 E1253.6408
G1 X215.824 Y102.576 E1261.0267
G1 Y102.01 E1261.059
G1 X124.656 Y10.842 E1268.3994
G1 X125.222 E1268.4316
G1 X215.824 Y101.444 E1275.7264
G1 Y100.878 E1275.7586
G1 X125.788 Y10.842 E1283.0078
G1 X126.355 E1283.0401
G1 X215.824 Y100.311 E1290.2437
G1 Y99.745 E1290.2759
G1 X126.921 Y10.842 E1297.4339
G1 X127.487 E1297.4661
G1 X215.824 Y99.179 E1304.5786
G1 Y98.613 E1304.6108
G1 X128.053 Y10.842 E1311.6776
G1 X128.62 E1311.7099
G1 X215.824 Y98.046 E1318.7311
G1 Y97.48 E1318.7633
G1 X129.186 Y10.842 E1325.739
G1 X129.752 E1325.7712
G1 X215.824 Y96.914 E1332.7013
G1 Y96.348 E1332.7335
G1 X130.318 Y10.842 E1339.618
G1 X130.885 E1339.6502
G1 X215.824 Y95.781 E1346.4891
G1 Y95.215 E1346.5213
G1 X131.451 Y10.842 E1353.3146
G1 X132.017 E1353.3468
G1 X215.824 Y94.649 E1360.0945
G1 Y94.082 E1360.1267
G1 X132.584 Y10.842 E1366.8288
G1 X133.15 E1366.8611
G1 X215.824 Y93.516 E1373.5176
G1 Y92.95 E1373.5498
G1 X133.716 Y10.842 E1380.1607
G1 X134.282 E1380.1929
G1 X215.824 Y92.384 E1386.7583
G1 Y91.817 E1386.7905
G1 X134.849 Y10.842 E1393.3102
G1 X135.415 E1393.3425
G1 X215.824 Y91.251 E1399.8166
G1 Y90.685 E1399.8488
G1 X135.981 Y10.842 E1406.2774
G1 X136.547 E1406.3096
G1 X215.824 Y90.119 E1412.6925
G1 Y89.552 E1412.7248
G1 X137.114 Y10.842 E1419.0621
G1 X137.68 E1419.0944
G1 X215.824 Y88.986 E1425.3861
G1 Y88.42 E1425.4184
G1 X138.246 Y10.842 E1431.6645
G1 X138.812 E1431.6968
G1 X215.824 Y87.854 E1437.8973
G1 Y87.287 E1437.9296
G1 X139.379 Y10.842 E1444.0846
G1 X139.945 E1444.1168
G1 X215.824 Y86.721 E1450.2262
G1 Y86.155 E1450.2584
G1 X140.511 Y10.842 E1456.3222
G1 X141.077 E1456.3545
G1 X215.824 Y85.589 E1462.3727
G1 Y85.022 E1462.4049
G1 X141.644 Y10.842 E1468.3775
G1 X142.21 E1468.4098
G1 X215.824 Y84.456 E1474.3368
G1 Y83.89 E1474.369
G1 X142.776 Y10.842 E1480.2505
G1 X143.342 E1480.2827
G1 X215.824 Y83.324 E1486.1185
G1 Y82.757 E1486.1508
G1 X143.909 Y10.842 E1491.941
G1 X144.475 E1491.9732
G1 X215.824 Y82.191 E1497.7179
G1 Y81.625 E1497.7501
G1 X145.041 Y10.842 E1503.4492
G1 X145.607 E1503.4814
G1 X215.824 Y81.059 E1509.1349
G1 Y80.492 E1509.1671
G1 X146.174 Y10.842 E1514.775
G1 X146.74 E1514.8073
G1 X215.824 Y79.926 E1520.3695
G1 Y79.36 E1520.4018
G1 X147.306 Y10.842 E1525.9185
G1 X147.873 E1525.9507
G1 X215.824 Y78.793 E1531.4218
G1 Y78.227 E1531.454
G1 X148.439 Y10.842 E1536.8796
G1 X149.005 E1536.9118
G1 X215.824 Y77.661 E1542.2917
G1 Y77.095 E1542.3239
G1 X149.571 Y10.842 E1547.6583
G1 X150.138 E1547.6905
G1 X215.824 Y76.528 E1552.9792
G1 Y75.962 E1553.0115
G1 X150.704 Y10.842 E1558.2546
G1 X151.27 E1558.2868
G1 X215.824 Y75.396 E1563.4844
G1 Y74.83 E1563.5166
G1 X151.836 Y10.842 E1568.6686
G1 X152.403 E1568.7008
G1 X215.824 Y74.263 E1573.8072
G1 Y73.697 E1573.8394
G1 X152.969 Y10.842 E1578.9002
G1 X153.535 E1578.9324
G1 X215.824 Y73.131 E1583.9476
G1 Y72.565 E1583.9798
G1 X154.101 Y10.842 E1588.9494
G1 X154.668 E1588.9817
G1 X215.824 Y71.998 E1593.9057
G1 Y71.432 E1593.9379
G1 X155.234 Y10.842 E1598.8163
G1 X155.8 E1598.8485
G1 X215.824 Y70.866 E1603.6813
G1 Y70.3 E1603.7136
G1 X156.366 Y10.842 E1608.5008
G1 X156.933 E1608.533
G1 X215.824 Y69.733 E1613.2747
G1 Y69.167 E1613.3069
G1 X157.499 Y10.842 E1618.0029
G1 X158.065 E1618.0352
G1 X215.824 Y68.601 E1622.6856
G1 Y68.035 E1622.7178
G1 X158.631 Y10.842 E1627.3227
G1 X159.198 E1627.3549
G1 X215.824 Y67.468 E1631.9142
G1 Y66.902 E1631.9464
G1 X159.764 Y10.842 E1636.4601
G1 X160.33 E1636.4923
G1 X215.824 Y66.336 E1640.9604
G1 Y65.77 E1640.9926
G1 X160.896 Y10.842 E1645.4151
G1 X161.463 E1645.4473
G1 X215.824 Y65.203 E1649.8242
G1 Y64.637 E1649.8565
G1 X162.029 Y10.842 E1654.1878
G1 X162.595 E1654.22
G1 X215.824 Y64.071 E1658.5057
G1 Y63.504 E1658.5379
G1 X163.162 Y10.842 E1662.7781
G1 X163.728 E1662.8103
G1 X215.824 Y62.938 E1667.0048
G1 Y62.372 E1667.037
G1 X164.294 Y10.842 E1671.186
G1 X164.86 E1671.2182
G1 X215.824 Y61.806 E1675.3215
G1 Y61.239 E1675.3538
G1 X165.427 Y10.842 E1679.4115
G1 X165.993 E1679.4438
G1 X215.824 Y60.673 E1683.4559
G1 Y60.107 E1683.4881
G1 X166.559 Y10.842 E1687.4547
G1 X167.125 E1687.4869
G1 X215.824 Y59.541 E1691.4079
G1 Y58.974 E1691.4401
G1 X167.692 Y10.842 E1695.3155
G1 X168.258 E1695.3477
G1 X215.824 Y58.408 E1699.1775
G1 Y57.842 E1699.2098
G1 X168.824 Y10.842 E1702.994
G1 X169.39 E1703.0262
G1 X215.824 Y57.276 E1706.7648
G1 Y56.709 E1706.797
G1 X169.957 Y10.842 E1710.49
G1 X170.523 E1710.5223
G1 X215.824 Y56.143 E1714.1697
G1 Y55.577 E1714.2019
G1 X171.089 Y10.842 E1717.8037
G1 X171.655 E1717.836
G1 X215.824 Y55.011 E1721.3922
G1 Y54.444 E1721.4244
G1 X172.222 Y10.842 E1724.9351
G1 X172.788 E1724.9673
G1 X215.824 Y53.878 E1728.4323
G1 Y53.312 E1728.4646
G1 X173.354 Y10.842 E1731.884
G1 X173.92 E1731.9163
G1 X215.824 Y52.746 E1735.2901
G1 Y52.179 E1735.3224
G1 X174.487 Y10.842 E1738.6506
G1 X175.053 E1738.6829
G1 X215.824 Y51.613 E1741.9655
G1 Y51.047 E1741.9978
G1 X175.619 Y10.842 E1745.2349
G1 X176.185 E1745.2671
G1 X215.824 Y50.481 E1748.4586
G1 Y49.914 E1748.4908
G1 X176.752 Y10.842 E1751.6367
G1 X177.318 E1751.669
G1 X215.824 Y49.348 E1754.7693
G1 Y48.782 E1754.8015
G1 X177.884 Y10.842 E1757.8562
G1 X178.451 E1757.8884
G1 X215.824 Y48.215 E1760.8976
G1 Y47.649 E1760.9298
G1 X179.017 Y10.842 E1763.8933
G1 X179.583 E1763.9256
G1 X215.824 Y47.083 E1766.8435
G1 Y46.517 E1766.8757
G1 X180.149 Y10.842 E1769.7481
G1 X180.716 E1769.7803
G1 X215.824 Y45.95 E1772.6071
G1 Y45.384 E1772.6393
G1 X181.282 Y10.842 E1775.4205
G1 X181.848 E1775.4527
G1 X215.824 Y44.818 E1778.1883
G1 Y44.252 E1778.2205
G1 X182.414 Y10.842 E1780.9105
G1 X182.981 E1780.9427
G1 X215.824 Y43.685 E1783.5871
G1 Y43.119 E1783.6193
G1 X183.547 Y10.842 E1786.2181
G1 X184.113 E1786.2504
G1 X215.824 Y42.553 E1788.8036
G1 Y41.987 E1788.8358
G1 X184.679 Y10.842 E1791.3434
G1 X185.246 E1791.3756
G1 X215.824 Y41.42 E1793.8377
G1 Y40.854 E1793.8699
G1 X185.812 Y10.842 E1796.2863
G1 X186.378 E1796.3186
G1 X215.824 Y40.288 E1798.6894
G1 Y39.722 E1798.7216
G1 X186.944 Y10.842 E1801.0469
G1 X187.511 E1801.0791
G1 X215.824 Y39.155 E1803.3587
G1 Y38.589 E1803.391
G1 X188.077 Y10.842 E1805.625
G1 X188.643 E1805.6573
G1 X215.824 Y38.023 E1807.8457
G1 Y37.457 E1807.878
G1 X189.209 Y10.842 E1810.0208
G1 X189.776 E1810.0531
G1 X215.824 Y36.89 E1812.1503
G1 Y36.324 E1812.1826
G1 X190.342 Y10.842 E1814.2343
G1 X190.908 E1814.2665
G1 X215.824 Y35.758 E1816.2726
G1 Y35.192 E1816.3048
G1 X191.474 Y10.842 E1818.2653
G1 X192.041 E1818.2976
G1 X215.824 Y34.625 E1820.2125
G1 Y34.059 E1820.2447
G1 X192.607 Y10.842 E1822.114
G1 X193.173 E1822.1463
G1 X215.824 Y33.493 E1823.97
G1 Y32.926 E1824.0022
G1 X193.74 Y10.842 E1825.7804
G1 X194.306 E1825.8126
G1 X215.824 Y32.36 E1827.5451
G1 Y31.794 E1827.5774
G1 X194.872 Y10.842 E1829.2643
G1 X195.438 E1829.2965
G1 X215.824 Y31.228 E1830.9379
G1 Y30.661 E1830.9701
G1 X196.005 Y10.842 E1832.5659
G1 X196.571 E1832.5981
G1 X215.824 Y30.095 E1834.1483
G1 Y29.529 E1834.1805
G1 X197.137 Y10.842 E1835.6851
G1 X197.703 E1835.7174
G1 X215.824 Y28.963 E1837.1763
G1 Y28.396 E1837.2086
G1 X198.27 Y10.842 E1838.622
G1 X198.836 E1838.6542
G1 X215.824 Y27.83 E1840.022
G1 Y27.264 E1840.0542
G1 X199.402 Y10.842 E1841.3765
G1 X199.968 E1841.4087
G1 X215.824 Y26.698 E1842.6853
G1 Y26.131 E1842.7175
G1 X200.535 Y10.842 E1843.9486
G1 X201.101 E1843.9808
G1 X215.824 Y25.565 E1845.1662
G1 Y24.999 E1845.1985
G1 X201.667 Y10.842 E1846.3383
G1 X202.233 E1846.3705
G1 X215.824 Y24.433 E1847.4648
G1 Y23.866 E1847.497
G1 X202.8 Y10.842 E1848.5457
G1 X203.366 E1848.5779
G1 X215.824 Y23.3 E1849.581
G1 Y22.734 E1849.6132
G1 X203.932 Y10.842 E1850.5707
G1 X204.498 E1850.6029
G1 X215.824 Y22.168 E1851.5148
G1 Y21.601 E1851.547
G1 X205.065 Y10.842 E1852.4133
G1 X205.631 E1852.4456
G1 X215.824 Y21.035 E1853.2663
G1 Y20.469 E1853.2985
G1 X206.197 Y10.842 E1854.0736
G1 X206.763 E1854.1058
G1 X215.824 Y19.903 E1854.8353
G1 Y19.336 E1854.8676
G1 X207.33 Y10.842 E1855.5515
G1 X207.896 E1855.5837
G1 X215.824 Y18.77 E1856.2221
G1 Y18.204 E1856.2543
G1 X208.462 Y10.842 E1856.847
G1 X209.028 E1856.8793
G1 X215.824 Y17.638 E1857.4264
G1 Y17.071 E1857.4586
G1 X209.595 Y10.842 E1857.9602
G1 X210.161 E1857.9924
G1 X215.824 Y16.505 E1858.4484
G1 Y15.939 E1858.4806
G1 X210.727 Y10.842 E1858.891
G1 X211.294 E1858.9232
G1 X215.824 Y15.372 E1859.288
G1 Y14.806 E1859.3202
G1 X211.86 Y10.842 E1859.6394
G1 X212.426 E1859.6716
G1 X215.824 Y14.24 E1859.9452
G1 Y13.674 E1859.9775
G1 X212.992 Y10.842 E1860.2055
G1 X213.559 E1860.2377
G1 X215.824 Y13.107 E1860.4201
G1 Y12.541 E1860.4523
G1 X214.125 Y10.842 E1860.5891
G1 X214.691 E1860.6214
G1 X215.824 Y11.975 E1860.7126
G1 Y11.409 E1860.7448
G1 X215.257 Y10.842 E1860.7905
G1 X215.824 E1860.8227
G1 E1860.0227 F2400
G92 E0
; Repositioning with retraction
G1 X166.252 Y54.137 F3600
G1 E0.8 F2400
G92 E0
; Infill
G1 X122.957 Y10.842 E3.4859 F3600
G1 X122.391 E3.5181
G1 X165.782 Y54.233 E7.0117
G1 X165.311 Y54.328 E7.0391
G1 X121.825 Y10.842 E10.5403
G1 X121.258 E10.5726
G1 X164.84 Y54.424 E14.0816
G1 X164.37 Y54.519 E14.1089
G1 X120.692 Y10.842 E17.6256
G1 X120.126 E17.6578
G1 X163.899 Y54.615 E21.1822
G1 X163.428 Y54.711 E21.2096
G1 X119.56 Y10.842 E24.7416
G1 X118.993 E24.7739
G1 X162.958 Y54.806 E28.3137
G1 X162.487 Y54.902 E28.341
G1 X118.427 Y10.842 E31.8885
G1 X117.861 E31.9207
G1 X162.016 Y54.998 E35.4759
G1 X161.546 Y55.093 E35.5032
G1 X117.295 Y10.842 E39.0661
G1 X116.728 E39.0984
G1 X161.075 Y55.189 E42.6689
G1 X160.604 Y55.284 E42.6963
G1 X116.162 Y10.842 E46.2746
G1 X115.596 E46.3068
G1 X160.134 Y55.38 E49.8928
G1 X159.663 Y55.476 E49.9201
G1 X115.03 Y10.842 E53.5138
G1 X114.463 E53.546
G1 X159.193 Y55.571 E57.1474
G1 X158.722 Y55.667 E57.1747
G1 X113.897 Y10.842 E60.7838
G1 X113.331 E60.8161
G1 X158.251 Y55.763 E64.4328
G1 X157.781 Y55.858 E64.4602
G1 X112.764 Y10.842 E68.0846
G1 X112.198 E68.1169
G1 X157.31 Y55.954 E71.749
G1 X156.839 Y56.049 E71.7764
G1 X111.632 Y10.842 E75.4163
G1 X111.066 E75.4485
G1 X156.369 Y56.145 E79.0961
G1 X155.898 Y56.241 E79.1234
G1 X110.499 Y10.842 E82.7787
G1 X109.933 E82.8109
G1 X155.427 Y56.336 E86.4739
G1 X154.957 Y56.432 E86.5012
G1 X109.367 Y10.842 E90.1719
G1 X108.801 E90.2041
G1 X154.486 Y56.528 E93.8825
G1 X154.016 Y56.623 E93.9098
G1 X108.234 Y10.842 E97.5959
G1 X107.668 E97.6281
G1 X153.545 Y56.719 E101.3219
G1 X153.074 Y56.814 E101.3492
G1 X107.102 Y10.842 E105.0507
G1 X106.536 E105.0829
G1 X152.604 Y56.91 E108.7921
G1 X152.133 Y57.006 E108.8194
G1 X105.969 Y10.842 E112.5363
G1 X105.403 E112.5685
G1 X151.662 Y57.101 E116.2931
G1 X151.192 Y57.197 E116.3204
G1 X104.837 Y10.842 E120.0527
G1 X104.271 E120.0849
G1 X150.721 Y57.293 E123.8249
G1 X150.25 Y57.388 E123.8522
G1 X103.704 Y10.842 E127.5999
G1 X103.138 E127.6321
G1 X149.78 Y57.484 E131.3875
G1 X149.309 Y57.579 E131.4148
G1 X102.572 Y10.842 E135.1779
G1 X102.006 E135.2101
G1 X148.839 Y57.675 E138.9809
G1 X148.368 Y57.771 E139.0082
G1 X101.439 Y10.842 E142.7867
G1 X100.873 E142.8189
G1 X147.897 Y57.866 E146.605
G1 X147.427 Y57.962 E146.6324
G1 X100.307 Y10.842 E150.4262
G1 X99.741 E150.4585
G1 X146.956 Y58.058 E154.26
G1 X146.485 Y58.153 E154.2874
G1 X99.174 Y10.842 E158.0966
G1 X98.608 E158.1288
G1 X146.015 Y58.249 E161.9458
G1 X145.544 Y58.344 E161.9731
G1 X98.042 Y10.842 E165.7978
G1 X97.475 E165.83
G1 X145.073 Y58.44 E169.6624
G1 X144.603 Y58.536 E169.6897
G1 X96.909 Y10.842 E173.5298
G1 X96.343 E173.562
G1 X144.132 Y58.631 E177.4097
G1 X143.662 Y58.727 E177.4371
G1 X95.777 Y10.842 E181.2925
G1 X95.21 E181.3248
G1 X143.191 Y58.823 E185.1879
G1 X142.72 Y58.918 E185.2152
G1 X94.644 Y10.842 E189.0861
G1 X94.078 E189.1183
G1 X142.25 Y59.014 E192.9969
G1 X141.779 Y59.109 E193.0242
G1 X93.512 Y10.842 E196.9104
G1 X92.945 E196.9427
G1 X141.308 Y59.205 E200.8366
G1 X140.838 Y59.301 E200.8639
G1 X92.379 Y10.842 E204.7656
G1 X91.813 E204.7978
G1 X140.367 Y59.396 E208.7072
G1 X139.896 Y59.492 E208.7345
G1 X91.247 Y10.842 E212.6515
G1 X90.68 E212.6838
G1 X139.426 Y59.587 E216.6085
G1 X138.955 Y59.683 E216.6358
G1 X90.114 Y10.842 E220.5683
G1 X89.548 E220.6005
G1 X138.485 Y59.779 E224.5406
G1 X138.014 Y59.874 E224.568
G1 X88.982 Y10.842 E228.5158
G1 X88.415 E228.5481
G1 X137.543 Y59.97 E232.5036
G1 X137.073 Y60.066 E232.5309
G1 X87.849 Y10.842 E236.4942
G1 X87.283 E236.5264
G1 X136.602 Y60.161 E240.4973
G1 X136.131 Y60.257 E240.5247
G1 X86.717 Y10.842 E244.5033
G1 X86.15 E244.5355
G1 X135.661 Y60.352 E248.5219
G1 X135.19 Y60.448 E248.5492
G1 X85.584 Y10.842 E252.5432
G1 X85.018 E252.5755
G1 X134.719 Y60.544 E256.5772
G1 X134.249 Y60.639 E256.6045
G1 X84.452 Y10.842 E260.6139
G1 X83.885 E260.6462
G1 X133.778 Y60.735 E264.6633
G1 X133.308 Y60.831 E264.6906
G1 X83.319 Y10.842 E268.7155
G1 X82.753 E268.7477
G1 X132.837 Y60.926 E272.7802
G1 X132.366 Y61.022 E272.8076
G1 X82.186 Y10.842 E276.8478
G1 X81.62 E276.88
G1 X131.896 Y61.117 E280.9279
G1 X131.425 Y61.213 E280.9553
G1 X81.054 Y10.842 E285.0109
G1 X80.488 E285.0431
G1 X130.954 Y61.309 E289.1064
G1 X130.484 Y61.404 E289.1338
G1 X79.921 Y10.842 E293.2048
G1 X79.355 E293.237
G1 X130.013 Y61.5 E297.3158
G1 X129.542 Y61.596 E297.3431
G1 X78.789 Y10.842 E301.4295
G1 X78.223 E301.4617
G1 X129.072 Y61.691 E305.5559
G1 X128.601 Y61.787 E305.5832
G1 X77.656 Y10.842 E309.685
G1 X77.09 E309.7172
G1 X128.131 Y61.882 E313.8268
G1 X127.66 Y61.978 E313.8541
G1 X76.524 Y10.842 E317.9713
G1 X75.958 E318.0035
G1 X127.189 Y62.074 E322.1285
G1 X126.719 Y62.169 E322.1558
G1 X75.391 Y10.842 E326.2884
G1 X74.825 E326.3206
G1 X126.248 Y62.265 E330.4609
G1 X125.777 Y62.361 E330.4883
G1 X74.259 Y10.842 E334.6363
G1 X73.693 E334.6685
G1 X125.307 Y62.456 E338.8242
G1 X124.836 Y62.552 E338.8516
G1 X73.126 Y10.842 E343.015
G1 X72.56 E343.0472
G1 X124.365 Y62.647 E347.2183
G1 X123.895 Y62.743 E347.2457
G1 X71.994 Y10.842 E351.4245
G1 X71.428 E351.4567
G1 X123.424 Y62.839 E355.6432
G1 X122.954 Y62.934 E355.6705
G1 X70.861 Y10.842 E359.8647
G1 X70.295 E359.897
G1 X122.483 Y63.03 E364.0989
G1 X122.012 Y63.126 E364.1262
G1 X69.729 Y10.842 E368.3358
G1 X69.163 E368.368
G1 X121.542 Y63.221 E372.5853
G1 X121.071 Y63.317 E372.6127
G1 X68.596 Y10.842 E376.8377
G1 X68.03 E376.8699
G1 X120.6 Y63.412 E381.1026
G1 X120.13 Y63.508 E381.13
G1 X67.464 Y10.842 E385.3703
G1 X66.897 E385.4026
G1 X119.659 Y63.604 E389.6507
G1 X119.188 Y63.699 E389.678
G1 X66.331 Y10.842 E393.9338
G1 X65.765 E393.966
G1 X118.718 Y63.795 E398.2295
G1 X118.247 Y63.89 E398.2569
G1 X65.199 Y10.842 E402.5281
G1 X64.632 E402.5603
G1 X117.777 Y63.986 E406.8392
G1 X117.306 Y64.082 E406.8665
G1 X64.066 Y10.842 E411.1531
G1 X63.5 E411.1854
G1 X116.835 Y64.177 E415.4796
G1 X116.365 Y64.273 E415.507
G1 X62.934 Y10.842 E419.809
G1 X62.367 E419.8412
G1 X115.894 Y64.369 E424.1509
G1 X115.423 Y64.464 E424.1782
G1 X61.801 Y10.842 E428.4956
G1 X61.235 E428.5279
G1 X114.953 Y64.56 E432.8529
G1 X114.482 Y64.655 E432.8803
G1 X60.669 Y10.842 E437.2131
G1 X60.102 E437.2453
G1 X114.011 Y64.751 E441.5858
G1 X113.541 Y64.847 E441.6131
G1 X59.536 Y10.842 E445.9613
G1 X58.97 E445.9935
G1 X113.07 Y64.942 E450.3494
G1 X112.6 Y65.038 E450.3768
G1 X58.404 Y10.842 E454.7403
G1 X57.837 E454.7726
G1 X112.129 Y65.134 E459.1439
G1 X111.658 Y65.229 E459.1712
G1 X57.271 Y10.842 E463.5502
G1 X56.705 E463.5824
G1 X111.188 Y65.325 E467.9691
G1 X110.717 Y65.42 E467.9964
G1 X56.139 Y10.842 E472.3908
G1 X55.572 E472.423
G1 X110.246 Y65.516 E476.8251
G1 X109.776 Y65.612 E476.8524
G1 X55.006 Y10.842 E481.2622
G1 X54.44 E481.2945
G1 X109.305 Y65.707 E485.7119
G1 X108.834 Y65.803 E485.7393
G1 X53.874 Y10.842 E490.1644
G1 X53.307 E490.1967
G1 X108.364 Y65.899 E494.6295
G1 X107.893 Y65.994 E494.6569
G1 X52.741 Y10.842 E499.0975
G1 X52.175 E499.1297
G1 X107.423 Y66.09 E503.578
G1 X106.952 Y66.185 E503.6053
G1 X51.608 Y10.842 E508.0613
G1 X51.042 E508.0935
G1 X106.481 Y66.281 E512.5572
G1 X106.011 Y66.377 E512.5845
G1 X50.476 Y10.842 E517.0559
G1 X49.91 E517.0881
G1 X105.54 Y66.472 E521.5672
G1 X105.069 Y66.568 E521.5945
G1 X49.343 Y10.842 E526.0813
G1 X48.777 E526.1135
G1 X104.599 Y66.664 E530.608
G1 X104.128 Y66.759 E530.6353
G1 X48.211 Y10.842 E535.1375
G1 X47.645 E535.1697
G1 X103.657 Y66.855 E539.6796
G1 X103.187 Y66.95 E539.7069
G1 X47.078 Y10.842 E544.2245
G1 X46.512 E544.2567
G1 X102.716 Y67.046 E548.782
G1 X102.246 Y67.142 E548.8093
G1 X45.946 Y10.842 E553.3423
G1 X45.38 E553.3745
G1 X101.775 Y67.237 E557.9152
G1 X101.304 Y67.333 E557.9425
G1 X44.813 Y10.842 E562.4908
G1 X44.247 E562.5231
G1 X100.834 Y67.429 E567.0791
G1 X100.363 Y67.524 E567.1065
G1 X43.681 Y10.842 E571.6702
G1 X43.115 E571.7025
G1 X99.892 Y67.62 E576.2739
G1 X99.422 Y67.715 E576.3013
G1 X42.548 Y10.842 E580.8804
G1 X41.982 E580.9126
G1 X98.951 Y67.811 E585.4995
G1 X98.48 Y67.907 E585.5268
G1 X41.416 Y10.842 E590.1214
G1 X40.85 E590.1536
G1 X98.01 Y68.002 E594.7559
G1 X97.539 Y68.098 E594.7832
G1 X40.283 Y10.842 E599.3932
G1 X39.717 E599.4254
G1 X97.069 Y68.194 E604.043
G1 X96.598 Y68.289 E604.0704
G1 X39.151 Y10.842 E608.6957
G1 X38.585 E608.728
G1 X96.127 Y68.385 E613.361
G1 X95.657 Y68.48 E613.3883
G1 X38.018 Y10.842 E618.0291
G1 X37.452 E618.0613
G1 X95.186 Y68.576 E622.7098
G1 X94.715 Y68.672 E622.7371
G1 X36.886 Y10.842 E627.3933
G1 X36.32 E627.4255
G1 X94.245 Y68.767 E632.0893
G1 X93.774 Y68.863 E632.1167
G1 X35.753 Y10.842 E636.7882
G1 X35.187 E636.8204
G1 X93.303 Y68.958 E641.4997
G1 X92.833 Y69.054 E641.527
G1 X34.621 Y10.842 E646.214
G1 X34.054 E646.2462
G1 X92.362 Y69.15 E650.9408
G1 X91.892 Y69.245 E650.9682
G1 X33.488 Y10.842 E655.6705
G1 X32.922 E655.7027
G1 X91.421 Y69.341 E660.4128
G1 X90.95 Y69.437 E660.4401
G1 X32.356 Y10.842 E665.1579
G1 X31.789 E665.1901
G1 X90.48 Y69.532 E669.9155
G1 X90.009 Y69.628 E669.9429
G1 X31.223 Y10.842 E674.676
G1 X30.657 E674.7082
G1 X89.538 Y69.723 E679.4491
G1 X89.068 Y69.819 E679.4764
G1 X30.091 Y10.842 E684.2249
G1 X29.524 E684.2572
G1 X88.597 Y69.915 E689.0134
G92 E0
; Repositioning
G1 X88.335 Y69.869
G1 X88.413 Y70.297
; Infill
G1 X28.958 Y10.842 E4.787
G1 X28.392 E4.8192
G1 X88.413 Y70.863 E9.6518
G1 Y71.429 E9.684
G1 X27.826 Y10.842 E14.5622
G1 X27.259 E14.5944
G1 X88.413 Y71.995 E19.5182
G1 Y72.562 E19.5504
G1 X26.693 Y10.842 E24.5197
G1 X26.127 E24.552
G1 X88.413 Y73.128 E29.5669
G1 Y73.694 E29.5991
G1 X25.561 Y10.842 E34.6597
G1 X24.994 E34.6919
G1 X88.413 Y74.26 E39.798
G1 Y74.827 E39.8303
G1 X24.428 Y10.842 E44.982
G1 X23.862 E45.0142
G1 X88.413 Y75.393 E50.2115
G1 Y75.959 E50.2437
G1 X23.296 Y10.842 E55.4866
G1 X22.729 E55.5189
G1 X88.413 Y76.525 E60.8074
G1 Y77.092 E60.8396
G1 X22.163 Y10.842 E66.1737
G1 X21.597 E66.2059
G1 X88.413 Y77.658 E71.5856
G1 Y78.224 E71.6178
G1 X21.031 Y10.842 E77.0431
G1 X20.464 E77.0753
G1 X88.413 Y78.79 E82.5462
G1 Y79.357 E82.5784
G1 X19.898 Y10.842 E88.0949
G1 X19.332 E88.1271
G1 X88.413 Y79.923 E93.6891
G1 Y80.489 E93.7214
G1 X18.765 Y10.842 E99.329
G1 X18.199 E99.3612
G1 X88.413 Y81.055 E105.0145
G1 Y81.622 E105.0467
G1 X17.747 Y10.956 E110.7363
G1 Y11.522 E110.7686
G1 X88.413 Y82.188 E116.4582
G1 Y82.754 E116.4904
G1 X17.747 Y12.089 E122.1801
G1 Y12.655 E122.2123
G1 X88.413 Y83.321 E127.9019
G1 Y83.887 E127.9342
G1 X17.747 Y13.221 E133.6238
G1 Y13.787 E133.6561
G1 X88.413 Y84.453 E139.3457
G1 Y85.019 E139.3779
G1 X17.747 Y14.354 E145.0676
G1 Y14.92 E145.0998
G1 X88.413 Y85.586 E150.7894
G1 Y86.152 E150.8217
G1 X17.747 Y15.486 E156.5113
G1 Y16.052 E156.5435
G1 X88.413 Y86.718 E162.2332
G1 Y87.284 E162.2654
G1 X17.747 Y16.619 E167.955
G1 Y17.185 E167.9873
G1 X88.413 Y87.851 E173.6769
G1 Y88.417 E173.7092
G1 X17.747 Y17.751 E179.3988
G1 Y18.317 E179.431
G1 X88.413 Y88.983 E185.1207
G1 Y89.549 E185.1529
G1 X17.747 Y18.884 E190.8425
G1 Y19.45 E190.8748
G1 X88.413 Y90.116 E196.5644
G1 Y90.682 E196.5966
G1 X17.747 Y20.016 E202.2863
G1 Y20.582 E202.3185
G1 X88.413 Y91.248 E208.0081
G1 Y91.814 E208.0404
G1 X17.747 Y21.149 E213.73
G1 Y21.715 E213.7623
G1 X88.413 Y92.381 E219.4519
G1 Y92.947 E219.4841
G1 X17.747 Y22.281 E225.1738
G1 Y22.847 E225.206
G1 X88.413 Y93.513 E230.8956
G1 Y94.079 E230.9279
G1 X17.747 Y23.414 E236.6175
G1 Y23.98 E236.6497
G1 X88.413 Y94.646 E242.3394
G1 Y95.212 E242.3716
G1 X17.747 Y24.546 E248.0612
G1 Y25.113 E248.0935
G1 X88.413 Y95.778 E253.7831
G1 Y96.344 E253.8154
G1 X17.747 Y25.679 E259.505
G1 Y26.245 E259.5372
G1 X88.413 Y96.911 E265.2269
G1 Y97.477 E265.2591
G1 X17.747 Y26.811 E270.9487
G1 Y27.378 E270.981
G1 X88.413 Y98.043 E276.6706
G1 Y98.609 E276.7028
G1 X17.747 Y27.944 E282.3925
G1 Y28.51 E282.4247
G1 X88.413 Y99.176 E288.1143
G1 Y99.742 E288.1466
G1 X17.747 Y29.076 E293.8362
G1 Y29.643 E293.8685
G1 X88.413 Y100.308 E299.5581
G1 Y100.875 E299.5903
G1 X17.747 Y30.209 E305.28
G1 Y30.775 E305.3122
G1 X88.413 Y101.441 E311.0018
G1 Y102.007 E311.0341
G1 X17.747 Y31.341 E316.7237
G1 Y31.908 E316.7559
G1 X88.413 Y102.573 E322.4456
G1 Y103.14 E322.4778
G1 X17.747 Y32.474 E328.1674
G1 Y33.04 E328.1997
G1 X88.413 Y103.706 E333.8893
G1 Y104.272 E333.9216
G1 X17.747 Y33.606 E339.6112
G1 Y34.173 E339.6434
G1 X88.413 Y104.838 E345.3331
G1 Y105.405 E345.3653
G1 X17.747 Y34.739 E351.0549
G1 Y35.305 E351.0872
G1 X88.413 Y105.971 E356.7768
G1 Y106.537 E356.809
G1 X17.747 Y35.871 E362.4987
G1 Y36.438 E362.5309
G1 X88.413 Y107.103 E368.2205
G1 Y107.67 E368.2528
G1 X17.747 Y37.004 E373.9424
G1 Y37.57 E373.9747
G1 X88.413 Y108.236 E379.6643
G1 Y108.802 E379.6965
G1 X17.747 Y38.136 E385.3862
G1 Y38.703 E385.4184
G1 X88.413 Y109.368 E391.108
G1 Y109.935 E391.1403
G1 X17.747 Y39.269 E396.8299
G1 Y39.835 E396.8621
G1 X88.413 Y110.501 E402.5518
G1 Y111.067 E402.584
G1 X17.747 Y40.402 E408.2736
G1 Y40.968 E408.3059
G1 X88.413 Y111.633 E413.9955
G1 Y112.2 E414.0278
G1 X17.747 Y41.534 E419.7174
G1 Y42.1 E419.7496
G1 X88.413 Y112.766 E425.4393
G1 Y113.332 E425.4715
G1 X17.747 Y42.667 E431.1611
G1 Y43.233 E431.1934
G1 X88.413 Y113.898 E436.883
G1 Y114.465 E436.9152
G1 X17.747 Y43.799 E442.6049
G1 Y44.365 E442.6371
G1 X88.413 Y115.031 E448.3267
G1 Y115.597 E448.359
G1 X17.747 Y44.932 E454.0486
G1 Y45.498 E454.0809
G1 X88.413 Y116.164 E459.7705
G1 Y116.73 E459.8027
G1 X17.747 Y46.064 E465.4924
G1 Y46.63 E465.5246
G1 X88.413 Y117.296 E471.2142
G1 Y117.862 E471.2465
G1 X17.747 Y47.197 E476.9361
G1 Y47.763 E476.9683
G1 X88.413 Y118.429 E482.658
G1 Y118.995 E482.6902
G1 X17.747 Y48.329 E488.3798
G1 Y48.895 E488.4121
G1 X88.413 Y119.561 E494.1017
G1 Y120.127 E494.134
G1 X17.747 Y49.462 E499.8236
G1 Y50.028 E499.8558
G1 X88.413 Y120.694 E505.5455
G1 Y121.26 E505.5777
G1 X17.747 Y50.594 E511.2673
G1 Y51.16 E511.2996
G1 X88.413 Y121.826 E516.9892
G1 Y122.392 E517.0214
G1 X17.747 Y51.727 E522.7111
G1 Y52.293 E522.7433
G1 X88.413 Y122.959 E528.4329
G1 Y123.525 E528.4652
G1 X17.747 Y52.859 E534.1548
G1 Y53.425 E534.1871
G1 X88.413 Y124.091 E539.8767
G1 Y124.657 E539.9089
G1 X17.747 Y53.992 E545.5986
G1 Y54.558 E545.6308
G1 X88.413 Y125.224 E551.3204
G1 Y125.79 E551.3527
G1 X17.747 Y55.124 E557.0423
G1 Y55.691 E557.0745
G1 X88.413 Y126.356 E562.7642
G1 Y126.922 E562.7964
G1 X17.747 Y56.257 E568.486
G1 Y56.823 E568.5183
G1 X88.413 Y127.489 E574.2079
G1 Y128.055 E574.2402
G1 X17.747 Y57.389 E579.9298
G1 Y57.956 E579.962
G1 X88.413 Y128.621 E585.6517
G1 Y129.187 E585.6839
G1 X17.747 Y58.522 E591.3735
G1 Y59.088 E591.4058
G1 X88.413 Y129.754 E597.0954
G1 Y130.32 E597.1276
G1 X17.747 Y59.654 E602.8173
G1 Y60.221 E602.8495
G1 X88.413 Y130.886 E608.5391
G1 Y131.453 E608.5714
G1 X17.747 Y60.787 E614.261
G1 Y61.353 E614.2933
G1 X88.413 Y132.019 E619.9829
G1 Y132.585 E620.0151
G1 X17.747 Y61.919 E625.7048
G1 Y62.486 E625.737
G1 X88.413 Y133.151 E631.4266
G1 Y133.718 E631.4589
G1 X17.747 Y63.052 E637.1485
G1 Y63.618 E637.1807
G1 X88.413 Y134.284 E642.8704
G1 Y134.85 E642.9026
G1 X17.747 Y64.184 E648.5922
G1 Y64.751 E648.6245
G1 X88.413 Y135.416 E654.3141
G1 Y135.983 E654.3464
G1 X17.747 Y65.317 E660.036
G1 Y65.883 E660.0682
G1 X88.413 Y136.549 E665.7579
G1 Y137.115 E665.7901
G1 X17.747 Y66.449 E671.4797
G1 Y67.016 E671.512
G1 X88.413 Y137.681 E677.2016
G1 Y138.248 E677.2338
G1 X17.747 Y67.582 E682.9235
G1 Y68.148 E682.9557
G1 X88.413 Y138.814 E688.6453
G1 Y139.38 E688.6776
G1 X17.747 Y68.714 E694.3672
G1 Y69.281 E694.3995
G1 X88.413 Y139.946 E700.0891
G1 Y140.513 E700.1213
G1 X17.747 Y69.847 E705.811
G1 Y70.413 E705.8432
G1 X88.413 Y141.079 E711.5328
G1 Y141.645 E711.5651
G1 X17.747 Y70.979 E717.2547
G1 Y71.546 E717.2869
G1 X88.413 Y142.211 E722.9766
G1 Y142.778 E723.0088
G1 X17.747 Y72.112 E728.6984
G1 Y72.678 E728.7307
G1 X88.413 Y143.344 E734.4203
G1 Y143.91 E734.4526
G1 X17.747 Y73.245 E740.1422
G1 Y73.811 E740.1744
G1 X88.413 Y144.476 E745.8641
G1 Y145.043 E745.8963
G1 X17.747 Y74.377 E751.5859
G1 Y74.943 E751.6182
G1 X88.413 Y145.609 E757.3078
G1 Y146.175 E757.34
G1 X17.747 Y75.51 E763.0297
G1 Y76.076 E763.0619
G1 X88.413 Y146.742 E768.7515
G1 Y147.308 E768.7838
G1 X17.747 Y76.642 E774.4734
G1 Y77.208 E774.5057
G1 X88.413 Y147.874 E780.1953
G1 Y148.44 E780.2275
G1 X17.747 Y77.775 E785.9172
G1 Y78.341 E785.9494
G1 X88.413 Y149.007 E791.639
G1 Y149.573 E791.6713
G1 X17.747 Y78.907 E797.3609
G1 Y79.473 E797.3931
G1 X147.432 Y209.158 E807.8347
G1 X146.865 E807.8669
G1 X17.747 Y80.04 E818.2628
G1 Y80.606 E818.2951
G1 X146.299 Y209.158 E828.6454
G1 X145.733 E828.6777
G1 X17.747 Y81.172 E838.9824
G1 Y81.738 E839.0147
G1 X145.167 Y209.158 E849.2738
G1 X144.6 E849.3061
G1 X17.747 Y82.305 E859.5196
G1 Y82.871 E859.5519
G1 X144.034 Y209.158 E869.7198
G1 X143.468 E869.7521
G1 X17.747 Y83.437 E879.8745
G1 Y84.003 E879.9067
G1 X142.902 Y209.158 E889.9835
G1 X142.335 E890.0157
G1 X17.747 Y84.57 E900.0469
G1 Y85.136 E900.0792
G1 X141.769 Y209.158 E910.0648
G1 X141.203 E910.097
G1 X17.747 Y85.702 E920.037
G1 Y86.268 E920.0693
G1 X140.637 Y209.158 E929.9637
G1 X140.07 E929.9959
G1 X17.747 Y86.835 E939.8448
G1 Y87.401 E939.877
G1 X139.504 Y209.158 E949.6802
G1 X138.938 E949.7125
G1 X17.747 Y87.967 E959.4701
G1 Y88.534 E959.5024
G1 X138.371 Y209.158 E969.2144
G1 X137.805 E969.2467
G1 X17.747 Y89.1 E978.9131
G1 Y89.666 E978.9454
G1 X137.239 Y209.158 E988.5662
G1 X136.673 E988.5985
G1 X17.747 Y90.232 E998.1738
G1 Y90.799 E998.206
G1 X136.106 Y209.158 E1007.7357
G1 X135.54 E1007.7679
G1 X17.747 Y91.365 E1017.252
G1 Y91.931 E1017.2842
G1 X134.974 Y209.158 E1026.7227
G1 X134.408 E1026.755
G1 X17.747 Y92.497 E1036.1479
G1 Y93.064 E1036.1801
G1 X133.841 Y209.158 E1045.5274
G1 X133.275 E1045.5597
G1 X17.747 Y93.63 E1054.8614
G1 Y94.196 E1054.8937
G1 X132.709 Y209.158 E1064.1498
G1 X132.143 E1064.182
G1 X17.747 Y94.762 E1073.3926
G1 Y95.329 E1073.4248
G1 X131.576 Y209.158 E1082.5897
G1 X131.01 E1082.622
G1 X17.747 Y95.895 E1091.7413
G1 Y96.461 E1091.7736
G1 X130.444 Y209.158 E1100.8473
G1 X129.878 E1100.8796
G1 X17.747 Y97.027 E1109.9078
G1 Y97.594 E1109.94
G1 X129.311 Y209.158 E1118.9226
G1 X128.745 E1118.9548
G1 X17.747 Y98.16 E1127.8918
G1 Y98.726 E1127.924
G1 X128.179 Y209.158 E1136.8154
G1 X127.613 E1136.8477
G1 X17.747 Y99.292 E1145.6935
G1 Y99.859 E1145.7257
G1 X127.046 Y209.158 E1154.5259
G1 X126.48 E1154.5582
G1 X17.747 Y100.425 E1163.3128
G1 Y100.991 E1163.345
G1 X125.914 Y209.158 E1172.054
G1 X125.348 E1172.0863
G1 X17.747 Y101.557 E1180.7497
G1 Y102.124 E1180.7819
G1 X124.781 Y209.158 E1189.3998
G1 X124.215 E1189.432
G1 X17.747 Y102.69 E1198.0043
G1 Y103.256 E1198.0365
G1 X123.649 Y209.158 E1206.5632
G1 X123.082 E1206.5954
G1 X17.747 Y103.823 E1215.0765
G1 Y104.389 E1215.1087
G1 X122.516 Y209.158 E1223.5442
G1 X121.95 E1223.5764
G1 X17.747 Y104.955 E1231.9663
G1 Y105.521 E1231.9985
G1 X121.384 Y209.158 E1240.3428
G1 X120.817 E1240.3751
G1 X17.747 Y106.088 E1248.6738
G1 Y106.654 E1248.706
G1 X120.251 Y209.158 E1256.9591
G1 X119.685 E1256.9913
G1 X17.747 Y107.22 E1265.1989
G1 Y107.786 E1265.2311
G1 X119.119 Y209.158 E1273.393
G1 X118.552 E1273.4253
G1 X17.747 Y108.353 E1281.5416
G1 Y108.919 E1281.5738
G1 X117.986 Y209.158 E1289.6446
G1 X117.42 E1289.6768
G1 X17.747 Y109.485 E1297.7019
G1 Y110.051 E1297.7342
G1 X116.854 Y209.158 E1305.7137
G1 X116.287 E1305.746
G1 X17.747 Y110.618 E1313.6799
G1 Y111.184 E1313.7122
G1 X115.721 Y209.158 E1321.6005
G1 X115.155 E1321.6328
G1 X17.747 Y111.75 E1329.4755
G1 Y112.316 E1329.5078
G1 X114.589 Y209.158 E1337.305
G1 X114.022 E1337.3372
G1 X17.747 Y112.883 E1345.0888
G1 Y113.449 E1345.121
G1 X113.456 Y209.158 E1352.827
G1 X112.89 E1352.8593
G1 X17.747 Y114.015 E1360.5197
G1 Y114.581 E1360.5519
G1 X112.324 Y209.158 E1368.1667
G1 X111.757 E1368.1989
G1 X17.747 Y115.148 E1375.7682
G1 Y115.714 E1375.8004
G1 X111.191 Y209.158 E1383.324
G1 X110.625 E1383.3563
G1 X17.747 Y116.28 E1390.8343
G1 Y116.846 E1390.8665
G1 X110.059 Y209.158 E1398.299
G1 X109.492 E1398.3312
G1 X17.747 Y117.413 E1405.7181
G1 Y117.979 E1405.7503
G1 X108.926 Y209.158 E1413.0916
G1 X108.36 E1413.1238
G1 X17.747 Y118.545 E1420.4195
G1 Y119.112 E1420.4517
G1 X107.793 Y209.158 E1427.7018
G1 X107.227 E1427.734
G1 X17.747 Y119.678 E1434.9385
G1 Y120.244 E1434.9708
G1 X106.661 Y209.158 E1442.1296
G1 X106.095 E1442.1619
G1 X17.747 Y120.81 E1449.2752
G1 Y121.377 E1449.3074
G1 X105.528 Y209.158 E1456.3751
G1 X104.962 E1456.4074
G1 X17.747 Y121.943 E1463.4295
G1 Y122.509 E1463.4617
G1 X104.396 Y209.158 E1470.4382
G1 X103.83 E1470.4705
G1 X17.747 Y123.075 E1477.4014
G1 Y123.642 E1477.4336
G1 X103.263 Y209.158 E1484.319
G1 X102.697 E1484.3512
G1 X17.747 Y124.208 E1491.191
G1 Y124.774 E1491.2232
G1 X102.131 Y209.158 E1498.0174
G1 X101.565 E1498.0496
G1 X17.747 Y125.34 E1504.7981
G1 Y125.907 E1504.8304
G1 X100.998 Y209.158 E1511.5334
G1 X100.432 E1511.5656
G1 X17.747 Y126.473 E1518.223
G1 Y127.039 E1518.2552
G1 X99.866 Y209.158 E1524.867
G1 X99.3 E1524.8992
G1 X17.747 Y127.605 E1531.4654
G1 Y128.172 E1531.4977
G1 X98.733 Y209.158 E1538.0183
G1 X98.167 E1538.0505
G1 X17.747 Y128.738 E1544.5255
G1 Y129.304 E1544.5577
G1 X97.601 Y209.158 E1550.9872
G1 X97.035 E1551.0194
G1 X17.747 Y129.87 E1557.4032
G1 Y130.437 E1557.4355
G1 X96.468 Y209.158 E1563.7737
G1 X95.902 E1563.8059
G1 X17.747 Y131.003 E1570.0986
G1 Y131.569 E1570.1308
G1 X95.336 Y209.158 E1576.3778
G1 X94.77 E1576.4101
G1 X17.747 Y132.135 E1582.6115
G1 Y132.702 E1582.6438
G1 X94.203 Y209.158 E1588.7996
G1 X93.637 E1588.8319
G1 X17.747 Y133.268 E1594.9421
G1 Y133.834 E1594.9744
G1 X93.071 Y209.158 E1601.0391
G1 X92.504 E1601.0713
G1 X17.747 Y134.401 E1607.0904
G1 Y134.967 E1607.1226
G1 X91.938 Y209.158 E1613.0961
G1 X91.372 E1613.1284
G1 X17.747 Y135.533 E1619.0563
G1 Y136.099 E1619.0885
G1 X90.806 Y209.158 E1624.9708
G1 X90.239 E1625.003
G1 X17.747 Y136.666 E1630.8398
G1 Y137.232 E1630.872
G1 X89.673 Y209.158 E1636.6631
G1 X89.107 E1636.6954
G1 X17.747 Y137.798 E1642.4409
G1 Y138.364 E1642.4731
G1 X88.541 Y209.158 E1648.1731
G1 X87.974 E1648.2053
G1 X17.747 Y138.931 E1653.8596
G1 Y139.497 E1653.8919
G1 X87.408 Y209.158 E1659.5006
G1 X86.842 E1659.5329
G1 X17.747 Y140.063 E1665.096
G1 Y140.629 E1665.1283
G1 X86.276 Y209.158 E1670.6458
G1 X85.709 E1670.6781
G1 X17.747 Y141.196 E1676.1501
G1 Y141.762 E1676.1823
G1 X85.143 Y209.158 E1681.6087
G1 X84.577 E1681.6409
G1 X17.747 Y142.328 E1687.0217
G1 Y142.894 E1687.054
G1 X84.011 Y209.158 E1692.3892
G1 X83.444 E1692.4214
G1 X17.747 Y143.461 E1697.711
G1 Y144.027 E1697.7432
G1 X82.878 Y209.158 E1702.9873
G1 X82.312 E1703.0195
G1 X17.747 Y144.593 E1708.2179
G1 Y145.159 E1708.2502
G1 X81.746 Y209.158 E1713.403
G1 X81.179 E1713.4352
G1 X17.747 Y145.726 E1718.5425
G1 Y146.292 E1718.5747
G1 X80.613 Y209.158 E1723.6364
G1 X80.047 E1723.6686
G1 X17.747 Y146.858 E1728.6847
G1 Y147.424 E1728.7169
G1 X79.481 Y209.158 E1733.6874
G1 X78.914 E1733.7196
G1 X17.747 Y147.991 E1738.6445
G1 Y148.557 E1738.6767
G1 X78.348 Y209.158 E1743.556
G1 X77.782 E1743.5882
G1 X17.747 Y149.123 E1748.4219
G1 Y149.689 E1748.4541
G1 X77.216 Y209.158 E1753.2422
G1 X76.649 E1753.2745
G1 X17.747 Y150.256 E1758.017
G1 Y150.822 E1758.0492
G1 X76.083 Y209.158 E1762.7461
G1 X75.517 E1762.7784
G1 X17.747 Y151.388 E1767.4297
G1 Y151.955 E1767.4619
G1 X74.95 Y209.158 E1772.0676
G1 X74.384 E1772.0999
G1 X17.747 Y152.521 E1776.66
G1 Y153.087 E1776.6923
G1 X73.818 Y209.158 E1781.2068
G1 X73.252 E1781.239
G1 X17.747 Y153.653 E1785.708
G1 Y154.22 E1785.7402
G1 X72.685 Y209.158 E1790.1636
G1 X72.119 E1790.1958
G1 X17.747 Y154.786 E1794.5736
G1 Y155.352 E1794.6058
G1 X71.553 Y209.158 E1798.938
G1 X70.987 E1798.9702
G1 X17.747 Y155.918 E1803.2568
G1 Y156.485 E1803.2891
G1 X70.42 Y209.158 E1807.53
G1 X69.854 E1807.5623
G1 X17.747 Y157.051 E1811.7577
G1 Y157.617 E1811.7899
G1 X69.288 Y209.158 E1815.9397
G1 X68.722 E1815.972
G1 X17.747 Y158.183 E1820.0762
G1 Y158.75 E1820.1084
G1 X68.155 Y209.158 E1824.167
G1 X67.589 E1824.1993
G1 X17.747 Y159.316 E1828.2123
G1 Y159.882 E1828.2445
G1 X67.023 Y209.158 E1832.212
G1 X66.457 E1832.2442
G1 X17.747 Y160.448 E1836.166
G1 Y161.015 E1836.1983
G1 X65.89 Y209.158 E1840.0745
G1 X65.324 E1840.1068
G1 X17.747 Y161.581 E1843.9374
G1 Y162.147 E1843.9697
G1 X64.758 Y209.158 E1847.7547
G1 X64.192 E1847.787
G1 X17.747 Y162.713 E1851.5264
G1 Y163.28 E1851.5587
G1 X63.625 Y209.158 E1855.2526
G1 X63.059 E1855.2848
G1 X17.747 Y163.846 E1858.9331
G1 Y164.412 E1858.9653
G1 X62.493 Y209.158 E1862.568
G1 X61.927 E1862.6003
G1 X17.747 Y164.978 E1866.1574
G1 Y165.545 E1866.1896
G1 X61.36 Y209.158 E1869.7011
G1 X60.794 E1869.7334
G1 X17.747 Y166.111 E1873.1993
G1 Y166.677 E1873.2315
G1 X60.228 Y209.158 E1876.6518
G1 X59.661 E1876.6841
G1 X17.747 Y167.244 E1880.0588
G1 Y167.81 E1880.0911
G1 X59.095 Y209.158 E1883.4202
G1 X58.529 E1883.4524
G1 X17.747 Y168.376 E1886.736
G1 Y168.942 E1886.7682
G1 X57.963 Y209.158 E1890.0062
G1 X57.396 E1890.0384
G1 X17.747 Y169.509 E1893.2308
G1 Y170.075 E1893.263
G1 X56.83 Y209.158 E1896.4098
G1 X56.264 E1896.442
G1 X17.747 Y170.641 E1899.5432
G1 Y171.207 E1899.5755
G1 X55.698 Y209.158 E1902.6311
G1 X55.131 E1902.6633
G1 X17.747 Y171.774 E1905.6733
G1 Y172.34 E1905.7055
G1 X54.565 Y209.158 E1908.6699
G1 X53.999 E1908.7022
G1 X17.747 Y172.906 E1911.621
G1 Y173.472 E1911.6532
G1 X53.433 Y209.158 E1914.5264
G1 X52.866 E1914.5587
G1 X17.747 Y174.039 E1917.3863
G1 Y174.605 E1917.4185
G1 X52.3 Y209.158 E1920.2006
G1 X51.734 E1920.2328
G1 X17.747 Y175.171 E1922.9693
G1 Y175.737 E1923.0015
G1 X51.168 Y209.158 E1925.6924
G1 X50.601 E1925.7246
G1 X17.747 Y176.304 E1928.3699
G1 Y176.87 E1928.4021
G1 X50.035 Y209.158 E1931.0018
G1 X49.469 E1931.034
G1 X17.747 Y177.436 E1933.5881
G1 Y178.002 E1933.6203
G1 X48.903 Y209.158 E1936.1288
G1 X48.336 E1936.161
G1 X17.747 Y178.569 E1938.6239
G1 Y179.135 E1938.6562
G1 X47.77 Y209.158 E1941.0735
G1 X47.204 E1941.1057
G1 X17.747 Y179.701 E1943.4774
G1 Y180.267 E1943.5097
G1 X46.638 Y209.158 E1945.8358
G1 X46.071 E1945.868
G1 X17.747 Y180.834 E1948.1485
G1 Y181.4 E1948.1808
G1 X45.505 Y209.158 E1950.4157
G1 X44.939 E1950.4479
G1 X17.747 Y181.966 E1952.6373
G1 Y182.533 E1952.6695
G1 X44.372 Y209.158 E1954.8133
G1 X43.806 E1954.8455
G1 X17.747 Y183.099 E1956.9436
G1 Y183.665 E1956.9759
G1 X43.24 Y209.158 E1959.0284
G1 X42.674 E1959.0607
G1 X17.747 Y184.231 E1961.0677
G1 Y184.798 E1961.0999
G1 X42.107 Y209.158 E1963.0613
G1 X41.541 E1963.0935
G1 X17.747 Y185.364 E1965.0093
G1 Y185.93 E1965.0415
G1 X40.975 Y209.158 E1966.9117
G1 X40.409 E1966.944
G1 X17.747 Y186.496 E1968.7686
G1 Y187.063 E1968.8008
G1 X39.842 Y209.158 E1970.5798
G1 X39.276 E1970.612
G1 X17.747 Y187.629 E1972.3455
G1 Y188.195 E1972.3777
G1 X38.71 Y209.158 E1974.0655
G1 X38.144 E1974.0978
G1 X17.747 Y188.761 E1975.74
G1 Y189.328 E1975.7722
G1 X37.577 Y209.158 E1977.3689
G1 X37.011 E1977.4011
G1 X17.747 Y189.894 E1978.9522
G1 Y190.46 E1978.9844
G1 X36.445 Y209.158 E1980.4898
G1 X35.879 E1980.5221
G1 X17.747 Y191.026 E1981.9819
G1 Y191.593 E1982.0142
G1 X35.312 Y209.158 E1983.4285
G1 X34.746 E1983.4607
G1 X17.747 Y192.159 E1984.8294
G1 Y192.725 E1984.8616
G1 X34.18 Y209.158 E1986.1847
G1 X33.614 E1986.2169
G1 X17.747 Y193.291 E1987.4944
G1 Y193.858 E1987.5267
G1 X33.047 Y209.158 E1988.7586
G1 X32.481 E1988.7908
G1 X17.747 Y194.424 E1989.9771
G1 Y194.99 E1990.0094
G1 X31.915 Y209.158 E1991.1501
G1 X31.349 E1991.1823
G1 X17.747 Y195.556 E1992.2774
G1 Y196.123 E1992.3097
G1 X30.782 Y209.158 E1993.3592
G1 X30.216 E1993.3914
G1 X17.747 Y196.689 E1994.3954
G1 Y197.255 E1994.4276
G1 X29.65 Y209.158 E1995.386
G1 X29.083 E1995.4182
G1 X17.747 Y197.822 E1996.331
G1 Y198.388 E1996.3632
G1 X28.517 Y209.158 E1997.2304
G1 X27.951 E1997.2626
G1 X17.747 Y198.954 E1998.0842
G1 Y199.52 E1998.1164
G1 X27.385 Y209.158 E1998.8924
G1 X26.818 E1998.9246
G1 X17.747 Y200.087 E1999.655
G1 Y200.653 E1999.6873
G1 X26.252 Y209.158 E2000.372
G1 X25.686 E2000.4043
G1 X17.747 Y201.219 E2001.0435
G1 Y201.785 E2001.0757
G1 X25.12 Y209.158 E2001.6693
G1 X24.553 E2001.7016
G1 X17.747 Y202.352 E2002.2496
G1 Y202.918 E2002.2818
G1 X23.987 Y209.158 E2002.7843
G1 X23.421 E2002.8165
G1 X17.747 Y203.484 E2003.2733
G1 Y204.05 E2003.3056
G1 X22.855 Y209.158 E2003.7168
G1 X22.288 E2003.749
G1 X17.747 Y204.617 E2004.1147
G1 Y205.183 E2004.1469
G1 X21.722 Y209.158 E2004.467
G1 X21.156 E2004.4992
G1 X17.747 Y205.749 E2004.7737
G1 Y206.315 E2004.8059
G1 X20.59 Y209.158 E2005.0348
G1 X20.023 E2005.067
G1 X17.747 Y206.882 E2005.2503
G1 Y207.448 E2005.2826
G1 X19.457 Y209.158 E2005.4202
G1 X18.891 E2005.4525
G1 X17.747 Y208.014 E2005.5446
G1 Y208.58 E2005.5768
G1 X18.325 Y209.158 E2005.6233
G1 X17.753 Y209.152 E2005.6559
G92 E0
    ; New Layer
; layer 1, Z = 0.439
; Repositioning
M106 P0 S0
G0 Z0.439 F1800
G1 X17.475 Y209.43 F27000
; Contour
G1 X215.896 E6.2695 F14210.526
G1 Y10.57 E12.5529
G1 X17.475 E18.8225
G1 Y209.43 E25.1059
G92 E0
; Repositioning
G1 X17.105 Y209.8 F27000
; Contour
G1 X216.266 E6.2929 F12000
G1 Y10.2 E12.5997
G1 X17.105 E18.8926
G1 Y209.8 E25.1994
G1 E24.3994 F2400
G92 E0
; Repositioning with retraction
G1 X88.537 Y149.755 F27000
G1 E0.8 F2400
G92 E0
; Contour
G1 X165.763 Y165.445 E2.49 F14210.526
G1 Y54.555 E5.9938
G1 X88.537 Y70.245 E8.4838
G1 Y149.755 E10.9961
G92 E0
; Repositioning
G1 X88.907 Y149.452 F27000
; Contour
G1 X165.393 Y164.993 E2.4661 F12000
G1 Y55.007 E5.9414
G1 X88.907 Y70.548 E8.4075
G1 Y149.452 E10.9007
G1 E10.1007 F2400
G92 E0
; Repositioning with retraction
G1 X88.188 Y150.061 F27000
G1 X88.543 Y150.034
G1 E0.8 F2400
G92 E0
; Infill
G1 X29.418 Y209.158 E2.6433 F14203.285
G1 X29.984 E2.6612
G1 X89.013 Y150.129 E5.3003
G1 X89.484 Y150.225 E5.3154
G1 X30.55 Y209.158 E7.9502
G1 X31.116 E7.9681
G1 X89.954 Y150.32 E10.5986
G1 X90.424 Y150.416 E10.6138
G1 X31.682 Y209.158 E13.24
G1 X32.248 E13.2579
G1 X90.895 Y150.511 E15.8799
G1 X91.365 Y150.607 E15.8951
G1 X32.814 Y209.158 E18.5127
G1 X33.38 E18.5306
G1 X91.836 Y150.703 E21.1441
G1 X92.306 Y150.798 E21.1592
G1 X33.946 Y209.158 E23.7684
G1 X34.512 E23.7863
G1 X92.776 Y150.894 E26.3911
G1 X93.247 Y150.989 E26.4063
G1 X35.078 Y209.158 E29.0069
G1 X35.644 E29.0248
G1 X93.717 Y151.085 E31.6211
G1 X94.188 Y151.181 E31.6363
G1 X36.21 Y209.158 E34.2283
G1 X36.776 E34.2462
G1 X94.658 Y151.276 E36.834
G1 X95.128 Y151.372 E36.8492
G1 X37.342 Y209.158 E39.4327
G1 X37.908 E39.4506
G1 X95.599 Y151.467 E42.0298
G1 X96.069 Y151.563 E42.045
G1 X38.474 Y209.158 E44.6199
G1 X39.04 E44.6378
G1 X96.54 Y151.658 E47.2085
G1 X97.01 Y151.754 E47.2237
G1 X39.606 Y209.158 E49.7901
G1 X40.172 E49.808
G1 X97.48 Y151.85 E52.3701
G1 X97.951 Y151.945 E52.3853
G1 X40.738 Y209.158 E54.9432
G1 X41.304 E54.9611
G1 X98.421 Y152.041 E57.5147
G1 X98.892 Y152.136 E57.5298
G1 X41.87 Y209.158 E60.0792
G1 X42.436 E60.0971
G1 X99.362 Y152.232 E62.6421
G1 X99.832 Y152.327 E62.6573
G1 X43.002 Y209.158 E65.1981
G1 X43.568 E65.2159
G1 X100.303 Y152.423 E67.7525
G1 X100.773 Y152.519 E67.7676
G1 X44.134 Y209.158 E70.2999
G1 X44.7 E70.3177
G1 X101.244 Y152.614 E72.8457
G1 X101.714 Y152.71 E72.8609
G1 X45.266 Y209.158 E75.3846
G1 X45.832 E75.4025
G1 X102.184 Y152.805 E77.9219
G1 X102.655 Y152.901 E77.937
G1 X46.398 Y209.158 E80.4522
G1 X46.964 E80.4701
G1 X103.125 Y152.996 E82.9809
G1 X103.596 Y153.092 E82.9961
G1 X47.53 Y209.158 E85.5027
G1 X48.096 E85.5206
G1 X104.066 Y153.188 E88.0229
G1 X104.536 Y153.283 E88.0381
G1 X48.661 Y209.158 E90.5361
G1 X49.227 E90.554
G1 X105.007 Y153.379 E93.0478
G1 X105.477 Y153.474 E93.063
G1 X49.793 Y209.158 E95.5525
G1 X50.359 E95.5704
G1 X105.948 Y153.57 E98.0556
G1 X106.418 Y153.665 E98.0708
G1 X50.925 Y209.158 E100.5517
G1 X51.491 E100.5696
G1 X106.888 Y153.761 E103.0463
G1 X107.359 Y153.857 E103.0615
G1 X52.057 Y209.158 E105.5339
G1 X52.623 E105.5518
G1 X107.829 Y153.952 E108.0199
G1 X108.3 Y154.048 E108.0351
G1 X53.189 Y209.158 E110.4989
G1 X53.755 E110.5168
G1 X108.77 Y154.143 E112.9764
G1 X109.24 Y154.239 E112.9916
G1 X54.321 Y209.158 E115.4469
G1 X54.887 E115.4648
G1 X109.711 Y154.334 E117.9159
G1 X110.181 Y154.43 E117.931
G1 X55.453 Y209.158 E120.3778
G1 X56.019 E120.3957
G1 X110.652 Y154.526 E122.8382
G1 X111.122 Y154.621 E122.8534
G1 X56.585 Y209.158 E125.2916
G1 X57.151 E125.3095
G1 X111.592 Y154.717 E127.7434
G1 X112.063 Y154.812 E127.7586
G1 X57.717 Y209.158 E130.1883
G1 X58.283 E130.2062
G1 X112.533 Y154.908 E132.6316
G1 X113.004 Y155.003 E132.6468
G1 X58.849 Y209.158 E135.0679
G1 X59.415 E135.0858
G1 X113.474 Y155.099 E137.5026
G1 X113.944 Y155.195 E137.5178
G1 X59.981 Y209.158 E139.9304
G1 X60.547 E139.9483
G1 X114.415 Y155.29 E142.3566
G1 X114.885 Y155.386 E142.3718
G1 X61.113 Y209.158 E144.7758
G1 X61.679 E144.7937
G1 X115.356 Y155.481 E147.1935
G1 X115.826 Y155.577 E147.2087
G1 X62.245 Y209.158 E149.6042
G1 X62.811 E149.6221
G1 X116.296 Y155.672 E152.0133
G1 X116.767 Y155.768 E152.0285
G1 X63.377 Y209.158 E154.4154
G1 X63.943 E154.4333
G1 X117.237 Y155.864 E156.816
G1 X117.708 Y155.959 E156.8311
G1 X64.509 Y209.158 E159.2096
G1 X65.075 E159.2274
G1 X118.178 Y156.055 E161.6016
G1 X118.648 Y156.15 E161.6167
G1 X65.641 Y209.158 E163.9866
G1 X66.207 E164.0045
G1 X119.119 Y156.246 E166.3701
G1 X119.589 Y156.342 E166.3853
G1 X66.773 Y209.158 E168.7466
G1 X67.339 E168.7645
G1 X120.06 Y156.437 E171.1215
G1 X120.53 Y156.533 E171.1367
G1 X67.905 Y209.158 E173.4894
G1 X68.471 E173.5073
G1 X121 Y156.628 E175.8558
G1 X121.471 Y156.724 E175.871
G1 X69.037 Y209.158 E178.2152
G1 X69.603 E178.2331
G1 X121.941 Y156.819 E180.5731
G1 X122.412 Y156.915 E180.5882
G1 X70.168 Y209.158 E182.9239
G1 X70.734 E182.9418
G1 X122.882 Y157.011 E185.2732
G1 X123.352 Y157.106 E185.2884
G1 X71.3 Y209.158 E187.6155
G1 X71.866 E187.6334
G1 X123.823 Y157.202 E189.9563
G1 X124.293 Y157.297 E189.9714
G1 X72.432 Y209.158 E192.29
G1 X72.998 E192.3079
G1 X124.764 Y157.393 E194.6222
G1 X125.234 Y157.488 E194.6374
G1 X73.564 Y209.158 E196.9474
G1 X74.13 E196.9653
G1 X125.704 Y157.584 E199.2711
G1 X126.175 Y157.68 E199.2863
G1 X74.696 Y209.158 E201.5878
G1 X75.262 E201.6057
G1 X126.645 Y157.775 E203.9029
G1 X127.116 Y157.871 E203.918
G1 X75.828 Y209.158 E206.211
G1 X76.394 E206.2289
G1 X127.586 Y157.966 E208.5176
G1 X128.056 Y158.062 E208.5327
G1 X76.96 Y209.158 E210.8171
G1 X77.526 E210.835
G1 X128.527 Y158.157 E213.1152
G1 X128.997 Y158.253 E213.1303
G1 X78.092 Y209.158 E215.4062
G1 X78.658 E215.4241
G1 X129.468 Y158.349 E217.6957
G1 X129.938 Y158.444 E217.7108
G1 X79.224 Y209.158 E219.9781
G1 X79.79 E219.996
G1 X130.408 Y158.54 E222.2591
G1 X130.879 Y158.635 E222.2742
G1 X80.356 Y209.158 E224.533
G1 X80.922 E224.5509
G1 X131.349 Y158.731 E226.8054
G1 X131.819 Y158.826 E226.8206
G1 X81.488 Y209.158 E229.0708
G1 X82.054 E229.0887
G1 X132.29 Y158.922 E231.3346
G1 X132.76 Y159.018 E231.3498
G1 X82.62 Y209.158 E233.5915
G1 X83.186 E233.6094
G1 X133.231 Y159.113 E235.8467
G1 X133.701 Y159.209 E235.8619
G1 X83.752 Y209.158 E238.095
G1 X84.318 E238.1129
G1 X134.171 Y159.304 E240.3418
G1 X134.642 Y159.4 E240.357
G1 X84.884 Y209.158 E242.5815
G1 X85.45 E242.5994
G1 X135.112 Y159.495 E244.8197
G1 X135.583 Y159.591 E244.8349
G1 X86.016 Y209.158 E247.051
G1 X86.582 E247.0688
G1 X136.053 Y159.687 E249.2806
G1 X136.523 Y159.782 E249.2958
G1 X87.148 Y209.158 E251.5033
G1 X87.714 E251.5212
G1 X136.994 Y159.878 E253.7244
G1 X137.464 Y159.973 E253.7395
G1 X88.28 Y209.158 E255.9385
G1 X88.846 E255.9564
G1 X137.935 Y160.069 E258.1511
G1 X138.405 Y160.164 E258.1662
G1 X89.412 Y209.158 E260.3566
G1 X89.978 E260.3745
G1 X138.875 Y160.26 E262.5606
G1 X139.346 Y160.356 E262.5758
G1 X90.544 Y209.158 E264.7577
G1 X91.109 E264.7756
G1 X139.816 Y160.451 E266.9531
G1 X140.287 Y160.547 E266.9683
G1 X91.675 Y209.158 E269.1416
G1 X92.241 E269.1595
G1 X140.757 Y160.642 E271.3285
G1 X141.227 Y160.738 E271.3437
G1 X92.807 Y209.158 E273.5085
G1 X93.373 E273.5264
G1 X141.698 Y160.833 E275.6868
G1 X142.168 Y160.929 E275.702
G1 X93.939 Y209.158 E277.8582
G1 X94.505 E277.8761
G1 X142.639 Y161.025 E280.0281
G1 X143.109 Y161.12 E280.0432
G1 X95.071 Y209.158 E282.1909
G1 X95.637 E282.2088
G1 X143.579 Y161.216 E284.3522
G1 X144.05 Y161.311 E284.3674
G1 X96.203 Y209.158 E286.5065
G1 X96.769 E286.5244
G1 X144.52 Y161.407 E288.6592
G1 X144.991 Y161.503 E288.6744
G1 X97.335 Y209.158 E290.805
G1 X97.901 E290.8229
G1 X145.461 Y161.598 E292.9492
G1 X145.931 Y161.694 E292.9643
G1 X98.467 Y209.158 E295.0864
G1 X99.033 E295.1043
G1 X146.402 Y161.789 E297.222
G1 X146.872 Y161.885 E297.2372
G1 X99.599 Y209.158 E299.3507
G1 X100.165 E299.3686
G1 X147.343 Y161.98 E301.4778
G1 X147.813 Y162.076 E301.493
G1 X100.731 Y209.158 E303.5979
G1 X101.297 E303.6158
G1 X148.283 Y162.172 E305.7165
G1 X148.754 Y162.267 E305.7316
G1 X101.863 Y209.158 E307.828
G1 X102.429 E307.8459
G1 X149.224 Y162.363 E309.938
G1 X149.695 Y162.458 E309.9532
G1 X102.995 Y209.158 E312.0411
G1 X103.561 E312.0589
G1 X150.165 Y162.554 E314.1425
G1 X150.635 Y162.649 E314.1577
G1 X104.127 Y209.158 E316.237
G1 X104.693 E316.2549
G1 X151.106 Y162.745 E318.3299
G1 X151.576 Y162.841 E318.3451
G1 X105.259 Y209.158 E320.4158
G1 X105.825 E320.4337
G1 X152.047 Y162.936 E322.5002
G1 X152.517 Y163.032 E322.5154
G1 X106.391 Y209.158 E324.5776
G1 X106.957 E324.5955
G1 X152.987 Y163.127 E326.6534
G1 X153.458 Y163.223 E326.6686
G1 X107.523 Y209.158 E328.7223
G1 X108.089 E328.7402
G1 X153.928 Y163.318 E330.7895
G1 X154.399 Y163.414 E330.8047
G1 X108.655 Y209.158 E332.8498
G1 X109.221 E332.8677
G1 X154.869 Y163.51 E334.9086
G1 X155.339 Y163.605 E334.9237
G1 X109.787 Y209.158 E336.9603
G1 X110.353 E336.9782
G1 X155.81 Y163.701 E339.0105
G1 X156.28 Y163.796 E339.0257
G1 X110.919 Y209.158 E341.0537
G1 X111.485 E341.0716
G1 X156.751 Y163.892 E343.0954
G1 X157.221 Y163.987 E343.1105
G1 X112.05 Y209.158 E345.13
G1 X112.616 E345.1479
G1 X157.691 Y164.083 E347.1631
G1 X158.162 Y164.179 E347.1783
G1 X113.182 Y209.158 E349.1892
G1 X113.748 E349.2071
G1 X158.632 Y164.274 E351.2138
G1 X159.103 Y164.37 E351.2289
G1 X114.314 Y209.158 E353.2313
G1 X114.88 E353.2492
G1 X159.573 Y164.465 E355.2473
G1 X160.043 Y164.561 E355.2625
G1 X115.446 Y209.158 E357.2563
G1 X116.012 E357.2742
G1 X160.514 Y164.656 E359.2638
G1 X160.984 Y164.752 E359.279
G1 X116.578 Y209.158 E361.2643
G1 X117.144 E361.2822
G1 X161.455 Y164.848 E363.2632
G1 X161.925 Y164.943 E363.2784
G1 X117.71 Y209.158 E365.2551
G1 X118.276 E365.273
G1 X162.395 Y165.039 E367.2455
G1 X162.866 Y165.134 E367.2607
G1 X118.842 Y209.158 E369.2289
G1 X119.408 E369.2468
G1 X163.336 Y165.23 E371.2107
G1 X163.807 Y165.325 E371.2259
G1 X119.974 Y209.158 E373.1855
G1 X120.54 E373.2034
G1 X164.277 Y165.421 E375.1588
G1 X164.747 Y165.517 E375.174
G1 X121.106 Y209.158 E377.1251
G1 X121.672 E377.143
G1 X165.218 Y165.612 E379.0898
G1 X165.688 Y165.708 E379.105
G1 X122.238 Y209.158 E381.0476
G1 X122.804 E381.0655
G1 X215.624 Y116.338 E385.2152
G1 Y116.904 E385.2331
G1 X123.37 Y209.158 E389.3576
G1 X123.936 E389.3755
G1 X215.624 Y117.47 E393.4747
G1 Y118.036 E393.4926
G1 X124.502 Y209.158 E397.5665
G1 X125.068 E397.5843
G1 X215.624 Y118.602 E401.6329
G1 Y119.168 E401.6508
G1 X125.634 Y209.158 E405.6741
G1 X126.2 E405.692
G1 X215.624 Y119.734 E409.6899
G1 Y120.3 E409.7078
G1 X126.766 Y209.158 E413.6805
G1 X127.332 E413.6984
G1 X215.624 Y120.866 E417.6457
G1 Y121.432 E417.6636
G1 X127.898 Y209.158 E421.5857
G1 X128.464 E421.6036
G1 X215.624 Y121.998 E425.5003
G1 Y122.564 E425.5182
G1 X129.03 Y209.158 E429.3897
G1 X129.596 E429.4076
G1 X215.624 Y123.13 E433.2537
G1 Y123.696 E433.2716
G1 X130.162 Y209.158 E437.0924
G1 X130.728 E437.1103
G1 X215.624 Y124.262 E440.9059
G1 Y124.828 E440.9237
G1 X131.294 Y209.158 E444.694
G1 X131.86 E444.7119
G1 X215.624 Y125.394 E448.4568
G1 Y125.96 E448.4747
G1 X132.426 Y209.158 E452.1943
G1 X132.992 E452.2122
G1 X215.624 Y126.526 E455.9065
G1 Y127.091 E455.9244
G1 X133.557 Y209.158 E459.5934
G1 X134.123 E459.6113
G1 X215.624 Y127.657 E463.2551
G1 Y128.223 E463.2729
G1 X134.689 Y209.158 E466.8914
G1 X135.255 E466.9093
G1 X215.624 Y128.789 E470.5024
G1 Y129.355 E470.5203
G1 X135.821 Y209.158 E474.0881
G1 X136.387 E474.106
G1 X215.624 Y129.921 E477.6485
G1 Y130.487 E477.6663
G1 X136.953 Y209.158 E481.1835
G1 X137.519 E481.2014
G1 X215.624 Y131.053 E484.6933
G1 Y131.619 E484.7112
G1 X138.085 Y209.158 E488.1778
G1 X138.651 E488.1957
G1 X215.624 Y132.185 E491.637
G1 Y132.751 E491.6549
G1 X139.217 Y209.158 E495.0709
G1 X139.783 E495.0888
G1 X215.624 Y133.317 E498.4794
G1 Y133.883 E498.4973
G1 X140.349 Y209.158 E501.8627
G1 X140.915 E501.8806
G1 X215.624 Y134.449 E505.2207
G1 Y135.015 E505.2386
G1 X141.481 Y209.158 E508.5533
G1 X142.047 E508.5712
G1 X215.624 Y135.581 E511.8607
G1 Y136.147 E511.8786
G1 X142.613 Y209.158 E515.1428
G1 X143.179 E515.1607
G1 X215.624 Y136.713 E518.3995
G1 Y137.279 E518.4174
G1 X143.745 Y209.158 E521.631
G1 X144.311 E521.6489
G1 X215.624 Y137.845 E524.8371
G1 Y138.411 E524.855
G1 X144.877 Y209.158 E528.018
G1 X145.443 E528.0358
G1 X215.624 Y138.977 E531.1735
G1 Y139.543 E531.1914
G1 X146.009 Y209.158 E534.3037
G1 X146.575 E534.3216
G1 X215.624 Y140.109 E537.4087
G1 Y140.675 E537.4266
G1 X147.141 Y209.158 E540.4883
G1 X147.707 E540.5062
G1 X215.624 Y141.241 E543.5426
G1 Y141.807 E543.5605
G1 X148.273 Y209.158 E546.5716
G1 X148.839 E546.5895
G1 X215.624 Y142.373 E549.5754
G1 Y142.939 E549.5932
G1 X149.405 Y209.158 E552.5538
G1 X149.971 E552.5717
G1 X215.624 Y143.505 E555.5069
G1 Y144.071 E555.5248
G1 X150.537 Y209.158 E558.4347
G1 X151.103 E558.4526
G1 X215.624 Y144.637 E561.3372
G1 Y145.203 E561.3551
G1 X151.669 Y209.158 E564.2144
G1 X152.235 E564.2323
G1 X215.624 Y145.769 E567.0663
G1 Y146.335 E567.0842
G1 X152.801 Y209.158 E569.8929
G1 X153.367 E569.9108
G1 X215.624 Y146.901 E572.6942
G1 Y147.467 E572.7121
G1 X153.933 Y209.158 E575.4702
G1 X154.498 E575.4881
G1 X215.624 Y148.032 E578.2208
G1 Y148.598 E578.2387
G1 X155.064 Y209.158 E580.9462
G1 X155.63 E580.9641
G1 X215.624 Y149.164 E583.6463
G1 Y149.73 E583.6642
G1 X156.196 Y209.158 E586.3211
G1 X156.762 E586.339
G1 X215.624 Y150.296 E588.9705
G1 Y150.862 E588.9884
G1 X157.328 Y209.158 E591.5947
G1 X157.894 E591.6126
G1 X215.624 Y151.428 E594.1936
G1 Y151.994 E594.2115
G1 X158.46 Y209.158 E596.7671
G1 X159.026 E596.785
G1 X215.624 Y152.56 E599.3154
G1 Y153.126 E599.3333
G1 X159.592 Y209.158 E601.8383
G1 X160.158 E601.8562
G1 X215.624 Y153.692 E604.336
G1 Y154.258 E604.3539
G1 X160.724 Y209.158 E606.8083
G1 X161.29 E606.8262
G1 X215.624 Y154.824 E609.2554
G1 Y155.39 E609.2733
G1 X161.856 Y209.158 E611.6771
G1 X162.422 E611.695
G1 X215.624 Y155.956 E614.0735
G1 Y156.522 E614.0914
G1 X162.988 Y209.158 E616.4447
G1 X163.554 E616.4626
G1 X215.624 Y157.088 E618.7905
G1 Y157.654 E618.8084
G1 X164.12 Y209.158 E621.111
G1 X164.686 E621.1289
G1 X215.624 Y158.22 E623.4063
G1 Y158.786 E623.4241
G1 X165.252 Y209.158 E625.6762
G1 X165.818 E625.6941
G1 X215.624 Y159.352 E627.9208
G1 Y159.918 E627.9387
G1 X166.384 Y209.158 E630.1401
G1 X166.95 E630.158
G1 X215.624 Y160.484 E632.3341
G1 Y161.05 E632.352
G1 X167.516 Y209.158 E634.5028
G1 X168.082 E634.5207
G1 X215.624 Y161.616 E636.6462
G1 Y162.182 E636.6641
G1 X168.648 Y209.158 E638.7643
G1 X169.214 E638.7822
G1 X215.624 Y162.748 E640.8571
G1 Y163.314 E640.875
G1 X169.78 Y209.158 E642.9246
G1 X170.346 E642.9425
G1 X215.624 Y163.88 E644.9668
G1 Y164.446 E644.9847
G1 X170.912 Y209.158 E646.9837
G1 X171.478 E647.0016
G1 X215.624 Y165.012 E648.9752
G1 Y165.578 E648.9931
G1 X172.044 Y209.158 E650.9415
G1 X172.61 E650.9594
G1 X215.624 Y166.144 E652.8825
G1 Y166.71 E652.9004
G1 X173.176 Y209.158 E654.7982
G1 X173.742 E654.8161
G1 X215.624 Y167.276 E656.6885
G1 Y167.842 E656.7064
G1 X174.308 Y209.158 E658.5536
G1 X174.874 E658.5715
G1 X215.624 Y168.408 E660.3933
G1 Y168.974 E660.4112
G1 X175.44 Y209.158 E662.2078
G1 X176.005 E662.2257
G1 X215.624 Y169.539 E663.997
G1 Y170.105 E664.0148
G1 X176.571 Y209.158 E665.7608
G1 X177.137 E665.7787
G1 X215.624 Y170.671 E667.4993
G1 Y171.237 E667.5172
G1 X177.703 Y209.158 E669.2126
G1 X178.269 E669.2305
G1 X215.624 Y171.803 E670.9005
G1 Y172.369 E670.9184
G1 X178.835 Y209.158 E672.5632
G1 X179.401 E672.5811
G1 X215.624 Y172.935 E674.2005
G1 Y173.501 E674.2184
G1 X179.967 Y209.158 E675.8125
G1 X180.533 E675.8304
G1 X215.624 Y174.067 E677.3992
G1 Y174.633 E677.4171
G1 X181.099 Y209.158 E678.9607
G1 X181.665 E678.9786
G1 X215.624 Y175.199 E680.4968
G1 Y175.765 E680.5147
G1 X182.231 Y209.158 E682.0076
G1 X182.797 E682.0255
G1 X215.624 Y176.331 E683.4931
G1 Y176.897 E683.511
G1 X183.363 Y209.158 E684.9533
G1 X183.929 E684.9712
G1 X215.624 Y177.463 E686.3882
G1 Y178.029 E686.4061
G1 X184.495 Y209.158 E687.7978
G1 X185.061 E687.8157
G1 X215.624 Y178.595 E689.1821
G1 Y179.161 E689.2
G1 X185.627 Y209.158 E690.5411
G1 X186.193 E690.559
G1 X215.624 Y179.727 E691.8748
G1 Y180.293 E691.8927
G1 X186.759 Y209.158 E693.1832
G1 X187.325 E693.2011
G1 X215.624 Y180.859 E694.4663
G1 Y181.425 E694.4842
G1 X187.891 Y209.158 E695.724
G1 X188.457 E695.7419
G1 X215.624 Y181.991 E696.9565
G1 Y182.557 E696.9744
G1 X189.023 Y209.158 E698.1637
G1 X189.589 E698.1816
G1 X215.624 Y183.123 E699.3456
G1 Y183.689 E699.3635
G1 X190.155 Y209.158 E700.5021
G1 X190.721 E700.52
G1 X215.624 Y184.255 E701.6334
G1 Y184.821 E701.6513
G1 X191.287 Y209.158 E702.7394
G1 X191.853 E702.7572
G1 X215.624 Y185.387 E703.82
G1 Y185.953 E703.8379
G1 X192.419 Y209.158 E704.8754
G1 X192.985 E704.8933
G1 X215.624 Y186.519 E705.9054
G1 Y187.085 E705.9233
G1 X193.551 Y209.158 E706.9102
G1 X194.117 E706.928
G1 X215.624 Y187.651 E707.8896
G1 Y188.217 E707.9075
G1 X194.683 Y209.158 E708.8437
G1 X195.249 E708.8616
G1 X215.624 Y188.783 E709.7726
G1 Y189.349 E709.7905
G1 X195.815 Y209.158 E710.6761
G1 X196.381 E710.694
G1 X215.624 Y189.915 E711.5543
G1 Y190.48 E711.5722
G1 X196.946 Y209.158 E712.4072
G1 X197.512 E712.4251
G1 X215.624 Y191.046 E713.2349
G1 Y191.612 E713.2528
G1 X198.078 Y209.158 E714.0372
G1 X198.644 E714.0551
G1 X215.624 Y192.178 E714.8142
G1 Y192.744 E714.8321
G1 X199.21 Y209.158 E715.5659
G1 X199.776 E715.5838
G1 X215.624 Y193.31 E716.2923
G1 Y193.876 E716.3102
G1 X200.342 Y209.158 E716.9934
G1 X200.908 E717.0113
G1 X215.624 Y194.442 E717.6692
G1 Y195.008 E717.6871
G1 X201.474 Y209.158 E718.3197
G1 X202.04 E718.3376
G1 X215.624 Y195.574 E718.9449
G1 Y196.14 E718.9628
G1 X202.606 Y209.158 E719.5448
G1 X203.172 E719.5627
G1 X215.624 Y196.706 E720.1194
G1 Y197.272 E720.1373
G1 X203.738 Y209.158 E720.6687
G1 X204.304 E720.6866
G1 X215.624 Y197.838 E721.1926
G1 Y198.404 E721.2105
G1 X204.87 Y209.158 E721.6913
G1 X205.436 E721.7092
G1 X215.624 Y198.97 E722.1647
G1 Y199.536 E722.1826
G1 X206.002 Y209.158 E722.6128
G1 X206.568 E722.6307
G1 X215.624 Y200.102 E723.0355
G1 Y200.668 E723.0534
G1 X207.134 Y209.158 E723.433
G1 X207.7 E723.4509
G1 X215.624 Y201.234 E723.8052
G1 Y201.8 E723.823
G1 X208.266 Y209.158 E724.152
G1 X208.832 E724.1699
G1 X215.624 Y202.366 E724.4736
G1 Y202.932 E724.4914
G1 X209.398 Y209.158 E724.7698
G1 X209.964 E724.7877
G1 X215.624 Y203.498 E725.0407
G1 Y204.064 E725.0586
G1 X210.53 Y209.158 E725.2864
G1 X211.096 E725.3043
G1 X215.624 Y204.63 E725.5067
G1 Y205.196 E725.5246
G1 X211.662 Y209.158 E725.7018
G1 X212.228 E725.7197
G1 X215.624 Y205.762 E725.8715
G1 Y206.328 E725.8894
G1 X212.794 Y209.158 E726.0159
G1 X213.36 E726.0338
G1 X215.624 Y206.894 E726.135
G1 Y207.46 E726.1529
G1 X213.926 Y209.158 E726.2289
G1 X214.492 E726.2468
G1 X215.624 Y208.026 E726.2974
G1 Y208.592 E726.3153
G1 X215.058 Y209.158 E726.3406
G1 X215.624 E726.3585
G1 E725.5585 F2400
G92 E0
; Repositioning with retraction
G1 X166.035 Y165.361 F27000
G1 E0.8 F2400
G92 E0
; Infill
G1 X215.624 Y115.772 E2.217 F14203.285
G1 Y115.206 E2.2349
G1 X166.035 Y164.795 E4.4519
G1 Y164.229 E4.4698
G1 X215.624 Y114.64 E6.6868
G1 Y114.074 E6.7047
G1 X166.035 Y163.663 E8.9217
G1 Y163.097 E8.9396
G1 X215.624 Y113.508 E11.1566
G1 Y112.942 E11.1745
G1 X166.035 Y162.531 E13.3915
G1 Y161.965 E13.4094
G1 X215.624 Y112.376 E15.6264
G1 Y111.81 E15.6443
G1 X166.035 Y161.399 E17.8613
G1 Y160.833 E17.8792
G1 X215.624 Y111.244 E20.0962
G1 Y110.678 E20.1141
G1 X166.035 Y160.267 E22.3311
G1 Y159.701 E22.349
G1 X215.624 Y110.112 E24.566
G1 Y109.546 E24.5839
G1 X166.035 Y159.135 E26.8009
G1 Y158.569 E26.8188
G1 X215.624 Y108.98 E29.0358
G1 Y108.414 E29.0537
G1 X166.035 Y158.003 E31.2707
G1 Y157.437 E31.2886
G1 X215.624 Y107.848 E33.5056
G1 Y107.282 E33.5235
G1 X166.035 Y156.871 E35.7405
G1 Y156.305 E35.7584
G1 X215.624 Y106.716 E37.9754
G1 Y106.15 E37.9933
G1 X166.035 Y155.739 E40.2103
G1 Y155.173 E40.2282
G1 X215.624 Y105.584 E42.4452
G1 Y105.019 E42.4631
G1 X166.035 Y154.607 E44.6801
G1 Y154.041 E44.698
G1 X215.624 Y104.453 E46.915
G1 Y103.887 E46.9329
G1 X166.035 Y153.475 E49.1499
G1 Y152.909 E49.1678
G1 X215.624 Y103.321 E51.3848
G1 Y102.755 E51.4027
G1 X166.035 Y152.343 E53.6197
G1 Y151.777 E53.6376
G1 X215.624 Y102.189 E55.8546
G1 Y101.623 E55.8725
G1 X166.035 Y151.211 E58.0895
G1 Y150.645 E58.1074
G1 X215.624 Y101.057 E60.3244
G1 Y100.491 E60.3423
G1 X166.035 Y150.079 E62.5593
G1 Y149.514 E62.5772
G1 X215.624 Y99.925 E64.7942
G1 Y99.359 E64.8121
G1 X166.035 Y148.948 E67.0291
G1 Y148.382 E67.047
G1 X215.624 Y98.793 E69.264
G1 Y98.227 E69.2819
G1 X166.035 Y147.816 E71.4989
G1 Y147.25 E71.5168
G1 X215.624 Y97.661 E73.7338
G1 Y97.095 E73.7517
G1 X166.035 Y146.684 E75.9687
G1 Y146.118 E75.9866
G1 X215.624 Y96.529 E78.2036
G1 Y95.963 E78.2215
G1 X166.035 Y145.552 E80.4385
G1 Y144.986 E80.4564
G1 X215.624 Y95.397 E82.6734
G1 Y94.831 E82.6913
G1 X166.035 Y144.42 E84.9083
G1 Y143.854 E84.9262
G1 X215.624 Y94.265 E87.1432
G1 Y93.699 E87.1611
G1 X166.035 Y143.288 E89.3781
G1 Y142.722 E89.396
G1 X215.624 Y93.133 E91.613
G1 Y92.567 E91.6309
G1 X166.035 Y142.156 E93.8479
G1 Y141.59 E93.8658
G1 X215.624 Y92.001 E96.0828
G1 Y91.435 E96.1007
G1 X166.035 Y141.024 E98.3177
G1 Y140.458 E98.3356
G1 X215.624 Y90.869 E100.5526
G1 Y90.303 E100.5705
G1 X166.035 Y139.892 E102.7875
G1 Y139.326 E102.8054
G1 X215.624 Y89.737 E105.0224
G1 Y89.171 E105.0403
G1 X166.035 Y138.76 E107.2573
G1 Y138.194 E107.2752
G1 X215.624 Y88.605 E109.4922
G1 Y88.039 E109.5101
G1 X166.035 Y137.628 E111.7271
G1 Y137.062 E111.745
G1 X215.624 Y87.473 E113.962
G1 Y86.907 E113.9799
G1 X166.035 Y136.496 E116.1969
G1 Y135.93 E116.2148
G1 X215.624 Y86.341 E118.4318
G1 Y85.775 E118.4497
G1 X166.035 Y135.364 E120.6667
G1 Y134.798 E120.6846
G1 X215.624 Y85.209 E122.9016
G1 Y84.643 E122.9195
G1 X166.035 Y134.232 E125.1365
G1 Y133.666 E125.1544
G1 X215.624 Y84.078 E127.3714
G1 Y83.512 E127.3893
G1 X166.035 Y133.1 E129.6063
G1 Y132.534 E129.6241
G1 X215.624 Y82.946 E131.8412
G1 Y82.38 E131.859
G1 X166.035 Y131.968 E134.0761
G1 Y131.402 E134.0939
G1 X215.624 Y81.814 E136.311
G1 Y81.248 E136.3288
G1 X166.035 Y130.836 E138.5459
G1 Y130.27 E138.5637
G1 X215.624 Y80.682 E140.7808
G1 Y80.116 E140.7986
G1 X166.035 Y129.704 E143.0157
G1 Y129.138 E143.0335
G1 X215.624 Y79.55 E145.2506
G1 Y78.984 E145.2684
G1 X166.035 Y128.572 E147.4854
G1 Y128.007 E147.5033
G1 X215.624 Y78.418 E149.7203
G1 Y77.852 E149.7382
G1 X166.035 Y127.441 E151.9552
G1 Y126.875 E151.9731
G1 X215.624 Y77.286 E154.1901
G1 Y76.72 E154.208
G1 X166.035 Y126.309 E156.425
G1 Y125.743 E156.4429
G1 X215.624 Y76.154 E158.6599
G1 Y75.588 E158.6778
G1 X166.035 Y125.177 E160.8948
G1 Y124.611 E160.9127
G1 X215.624 Y75.022 E163.1297
G1 Y74.456 E163.1476
G1 X166.035 Y124.045 E165.3646
G1 Y123.479 E165.3825
G1 X215.624 Y73.89 E167.5995
G1 Y73.324 E167.6174
G1 X166.035 Y122.913 E169.8344
G1 Y122.347 E169.8523
G1 X215.624 Y72.758 E172.0693
G1 Y72.192 E172.0872
G1 X166.035 Y121.781 E174.3042
G1 Y121.215 E174.3221
G1 X215.624 Y71.626 E176.5391
G1 Y71.06 E176.557
G1 X166.035 Y120.649 E178.774
G1 Y120.083 E178.7919
G1 X215.624 Y70.494 E181.0089
G1 Y69.928 E181.0268
G1 X166.035 Y119.517 E183.2438
G1 Y118.951 E183.2617
G1 X215.624 Y69.362 E185.4787
G1 Y68.796 E185.4966
G1 X166.035 Y118.385 E187.7136
G1 Y117.819 E187.7315
G1 X215.624 Y68.23 E189.9485
G1 Y67.664 E189.9664
G1 X166.035 Y117.253 E192.1834
G1 Y116.687 E192.2013
G1 X215.624 Y67.098 E194.4183
G1 Y66.532 E194.4362
G1 X166.035 Y116.121 E196.6532
G1 Y115.555 E196.6711
G1 X215.624 Y65.966 E198.8881
G1 Y65.4 E198.906
G1 X166.035 Y114.989 E201.123
G1 Y114.423 E201.1409
G1 X215.624 Y64.834 E203.3579
G1 Y64.268 E203.3758
G1 X166.035 Y113.857 E205.5928
G1 Y113.291 E205.6107
G1 X215.624 Y63.702 E207.8277
G1 Y63.137 E207.8456
G1 X166.035 Y112.725 E210.0626
G1 Y112.159 E210.0805
G1 X215.624 Y62.571 E212.2975
G1 Y62.005 E212.3154
G1 X166.035 Y111.593 E214.5324
G1 Y111.027 E214.5503
G1 X215.624 Y61.439 E216.7673
G1 Y60.873 E216.7852
G1 X166.035 Y110.461 E219.0022
G1 Y109.895 E219.0201
G1 X215.624 Y60.307 E221.2371
G1 Y59.741 E221.255
G1 X166.035 Y109.329 E223.472
G1 Y108.763 E223.4899
G1 X215.624 Y59.175 E225.7069
G1 Y58.609 E225.7248
G1 X166.035 Y108.197 E227.9418
G1 Y107.631 E227.9597
G1 X215.624 Y58.043 E230.1767
G1 Y57.477 E230.1946
G1 X166.035 Y107.066 E232.4116
G1 Y106.5 E232.4295
G1 X215.624 Y56.911 E234.6465
G1 Y56.345 E234.6644
G1 X166.035 Y105.934 E236.8814
G1 Y105.368 E236.8993
G1 X215.624 Y55.779 E239.1163
G1 Y55.213 E239.1342
G1 X166.035 Y104.802 E241.3512
G1 Y104.236 E241.3691
G1 X215.624 Y54.647 E243.5861
G1 Y54.081 E243.604
G1 X166.035 Y103.67 E245.821
G1 Y103.104 E245.8389
G1 X215.624 Y53.515 E248.0559
G1 Y52.949 E248.0738
G1 X166.035 Y102.538 E250.2908
G1 Y101.972 E250.3087
G1 X215.624 Y52.383 E252.5257
G1 Y51.817 E252.5436
G1 X166.035 Y101.406 E254.7606
G1 Y100.84 E254.7785
G1 X215.624 Y51.251 E256.9955
G1 Y50.685 E257.0134
G1 X166.035 Y100.274 E259.2304
G1 Y99.708 E259.2483
G1 X215.624 Y50.119 E261.4653
G1 Y49.553 E261.4832
G1 X166.035 Y99.142 E263.7002
G1 Y98.576 E263.7181
G1 X215.624 Y48.987 E265.9351
G1 Y48.421 E265.953
G1 X166.035 Y98.01 E268.17
G1 Y97.444 E268.1879
G1 X215.624 Y47.855 E270.4049
G1 Y47.289 E270.4228
G1 X166.035 Y96.878 E272.6398
G1 Y96.312 E272.6577
G1 X215.624 Y46.723 E274.8747
G1 Y46.157 E274.8926
G1 X166.035 Y95.746 E277.1096
G1 Y95.18 E277.1275
G1 X215.624 Y45.591 E279.3445
G1 Y45.025 E279.3624
G1 X166.035 Y94.614 E281.5794
G1 Y94.048 E281.5973
G1 X215.624 Y44.459 E283.8143
G1 Y43.893 E283.8322
G1 X166.035 Y93.482 E286.0492
G1 Y92.916 E286.0671
G1 X215.624 Y43.327 E288.2841
G1 Y42.761 E288.302
G1 X166.035 Y92.35 E290.519
G1 Y91.784 E290.5369
G1 X215.624 Y42.195 E292.7539
G1 Y41.63 E292.7718
G1 X166.035 Y91.218 E294.9888
G1 Y90.652 E295.0067
G1 X215.624 Y41.064 E297.2237
G1 Y40.498 E297.2416
G1 X166.035 Y90.086 E299.4586
G1 Y89.52 E299.4765
G1 X215.624 Y39.932 E301.6935
G1 Y39.366 E301.7114
G1 X166.035 Y88.954 E303.9284
G1 Y88.388 E303.9463
G1 X215.624 Y38.8 E306.1633
G1 Y38.234 E306.1812
G1 X166.035 Y87.822 E308.3982
G1 Y87.256 E308.4161
G1 X215.624 Y37.668 E310.6331
G1 Y37.102 E310.651
G1 X166.035 Y86.69 E312.868
G1 Y86.124 E312.8859
G1 X215.624 Y36.536 E315.1029
G1 Y35.97 E315.1208
G1 X166.035 Y85.559 E317.3378
G1 Y84.993 E317.3557
G1 X215.624 Y35.404 E319.5727
G1 Y34.838 E319.5906
G1 X166.035 Y84.427 E321.8076
G1 Y83.861 E321.8255
G1 X215.624 Y34.272 E324.0425
G1 Y33.706 E324.0604
G1 X166.035 Y83.295 E326.2774
G1 Y82.729 E326.2953
G1 X215.624 Y33.14 E328.5123
G1 Y32.574 E328.5302
G1 X166.035 Y82.163 E330.7472
G1 Y81.597 E330.7651
G1 X215.624 Y32.008 E332.9821
G1 Y31.442 E333
G1 X166.035 Y81.031 E335.217
G1 Y80.465 E335.2349
G1 X215.624 Y30.876 E337.4519
G1 Y30.31 E337.4698
G1 X166.035 Y79.899 E339.6868
G1 Y79.333 E339.7047
G1 X215.624 Y29.744 E341.9217
G1 Y29.178 E341.9396
G1 X166.035 Y78.767 E344.1566
G1 Y78.201 E344.1745
G1 X215.624 Y28.612 E346.3915
G1 Y28.046 E346.4094
G1 X166.035 Y77.635 E348.6264
G1 Y77.069 E348.6443
G1 X215.624 Y27.48 E350.8613
G1 Y26.914 E350.8792
G1 X166.035 Y76.503 E353.0962
G1 Y75.937 E353.1141
G1 X215.624 Y26.348 E355.3311
G1 Y25.782 E355.349
G1 X166.035 Y75.371 E357.566
G1 Y74.805 E357.5839
G1 X215.624 Y25.216 E359.8009
G1 Y24.65 E359.8188
G1 X166.035 Y74.239 E362.0358
G1 Y73.673 E362.0537
G1 X215.624 Y24.084 E364.2707
G1 Y23.518 E364.2886
G1 X166.035 Y73.107 E366.5056
G1 Y72.541 E366.5235
G1 X215.624 Y22.952 E368.7405
G1 Y22.386 E368.7584
G1 X166.035 Y71.975 E370.9754
G1 Y71.409 E370.9933
G1 X215.624 Y21.82 E373.2103
G1 Y21.254 E373.2282
G1 X166.035 Y70.843 E375.4452
G1 Y70.277 E375.4631
G1 X215.624 Y20.689 E377.6801
G1 Y20.123 E377.698
G1 X166.035 Y69.711 E379.915
G1 Y69.145 E379.9329
G1 X215.624 Y19.557 E382.1499
G1 Y18.991 E382.1678
G1 X166.035 Y68.579 E384.3848
G1 Y68.013 E384.4026
G1 X215.624 Y18.425 E386.6197
G1 Y17.859 E386.6375
G1 X166.035 Y67.447 E388.8546
G1 Y66.881 E388.8724
G1 X215.624 Y17.293 E391.0895
G1 Y16.727 E391.1073
G1 X166.035 Y66.315 E393.3244
G1 Y65.749 E393.3422
G1 X215.624 Y16.161 E395.5593
G1 Y15.595 E395.5771
G1 X166.035 Y65.183 E397.7942
G1 Y64.618 E397.812
G1 X215.624 Y15.029 E400.0291
G1 Y14.463 E400.0469
G1 X166.035 Y64.052 E402.264
G1 Y63.486 E402.2818
G1 X215.624 Y13.897 E404.4988
G1 Y13.331 E404.5167
G1 X166.035 Y62.92 E406.7337
G1 Y62.354 E406.7516
G1 X215.624 Y12.765 E408.9686
G1 Y12.199 E408.9865
G1 X166.035 Y61.788 E411.2035
G1 Y61.222 E411.2214
G1 X215.624 Y11.633 E413.4384
G1 Y11.067 E413.4563
G1 X166.035 Y60.656 E415.6733
G1 Y60.09 E415.6912
G1 X215.283 Y10.842 E417.893
G1 X214.717 E417.9109
G1 X166.035 Y59.524 E420.0873
G1 Y58.958 E420.1052
G1 X214.151 Y10.842 E422.2564
G1 X213.585 E422.2743
G1 X166.035 Y58.392 E424.4001
G1 Y57.826 E424.418
G1 X213.019 Y10.842 E426.5186
G1 X212.453 E426.5365
G1 X166.035 Y57.26 E428.6117
G1 Y56.694 E428.6296
G1 X211.887 Y10.842 E430.6795
G1 X211.321 E430.6974
G1 X166.035 Y56.128 E432.7221
G1 Y55.562 E432.74
G1 X210.755 Y10.842 E434.7393
G1 X210.189 E434.7572
G1 X166.035 Y54.996 E436.7312
G1 Y54.43 E436.7491
G1 X209.623 Y10.842 E438.6978
G1 X209.057 E438.7157
G1 X165.586 Y54.313 E440.6592
G1 X164.876 Y54.457 E440.6821
G1 X208.491 Y10.842 E442.6321
G1 X207.925 E442.65
G1 X164.166 Y54.602 E444.6064
G1 X163.456 Y54.746 E444.6293
G1 X207.359 Y10.842 E446.5921
G1 X206.793 E446.61
G1 X162.745 Y54.89 E448.5793
G1 X162.035 Y55.034 E448.6022
G1 X206.227 Y10.842 E450.578
G1 X205.661 E450.5959
G1 X161.325 Y55.179 E452.5781
G1 X160.614 Y55.323 E452.601
G1 X205.095 Y10.842 E454.5897
G1 X204.529 E454.6075
G1 X159.904 Y55.467 E456.6027
G1 X159.194 Y55.612 E456.6256
G1 X203.964 Y10.842 E458.6271
G1 X203.398 E458.645
G1 X158.483 Y55.756 E460.653
G1 X157.773 Y55.9 E460.6759
G1 X202.832 Y10.842 E462.6904
G1 X202.266 E462.7083
G1 X157.063 Y56.045 E464.7292
G1 X156.353 Y56.189 E464.7521
G1 X201.7 Y10.842 E466.7795
G1 X201.134 E466.7974
G1 X155.642 Y56.333 E468.8312
G1 X154.932 Y56.478 E468.8541
G1 X200.568 Y10.842 E470.8944
G1 X200.002 E470.9123
G1 X154.222 Y56.622 E472.959
G1 X153.511 Y56.766 E472.9819
G1 X199.436 Y10.842 E475.0351
G1 X198.87 E475.053
G1 X152.801 Y56.911 E477.1126
G1 X152.091 Y57.055 E477.1355
G1 X198.304 Y10.842 E479.2016
G1 X197.738 E479.2195
G1 X151.381 Y57.199 E481.292
G1 X150.67 Y57.344 E481.3149
G1 X197.172 Y10.842 E483.3939
G1 X196.606 E483.4118
G1 X149.96 Y57.488 E485.4973
G1 X149.25 Y57.632 E485.5202
G1 X196.04 Y10.842 E487.6121
G1 X195.474 E487.6299
G1 X148.539 Y57.776 E489.7283
G1 X147.829 Y57.921 E489.7512
G1 X194.908 Y10.842 E491.856
G1 X194.342 E491.8739
G1 X147.119 Y58.065 E493.9851
G1 X146.409 Y58.209 E494.008
G1 X193.776 Y10.842 E496.1257
G1 X193.21 E496.1436
G1 X145.698 Y58.354 E498.2678
G1 X144.988 Y58.498 E498.2907
G1 X192.644 Y10.842 E500.4213
G1 X192.078 E500.4392
G1 X144.278 Y58.642 E502.5762
G1 X143.567 Y58.787 E502.5991
G1 X191.512 Y10.842 E504.7426
G1 X190.946 E504.7605
G1 X142.857 Y58.931 E506.9105
G1 X142.147 Y59.075 E506.9334
G1 X190.38 Y10.842 E509.0898
G1 X189.814 E509.1077
G1 X141.437 Y59.22 E511.2706
G1 X140.726 Y59.364 E511.2935
G1 X189.248 Y10.842 E513.4628
G1 X188.682 E513.4807
G1 X140.016 Y59.508 E515.6564
G1 X139.306 Y59.653 E515.6794
G1 X188.116 Y10.842 E517.8616
G1 X187.55 E517.8795
G1 X138.595 Y59.797 E520.0681
G1 X137.885 Y59.941 E520.091
G1 X186.984 Y10.842 E522.2862
G1 X186.418 E522.3041
G1 X137.175 Y60.085 E524.5056
G1 X136.465 Y60.23 E524.5285
G1 X185.852 Y10.842 E526.7366
G1 X185.286 E526.7545
G1 X135.754 Y60.374 E528.9689
G1 X135.044 Y60.518 E528.9918
G1 X184.72 Y10.842 E531.2128
G1 X184.154 E531.2307
G1 X134.334 Y60.663 E533.458
G1 X133.623 Y60.807 E533.4809
G1 X183.588 Y10.842 E535.7148
G1 X183.023 E535.7327
G1 X132.913 Y60.951 E537.973
G1 X132.203 Y61.096 E537.9959
G1 X182.457 Y10.842 E540.2426
G1 X181.891 E540.2605
G1 X131.493 Y61.24 E542.5137
G1 X130.782 Y61.384 E542.5366
G1 X181.325 Y10.842 E544.7962
G1 X180.759 E544.8141
G1 X130.072 Y61.529 E547.0802
G1 X129.362 Y61.673 E547.1031
G1 X180.193 Y10.842 E549.3757
G1 X179.627 E549.3936
G1 X128.651 Y61.817 E551.6726
G1 X127.941 Y61.962 E551.6955
G1 X179.061 Y10.842 E553.9809
G1 X178.495 E553.9988
G1 X127.231 Y62.106 E556.2907
G1 X126.521 Y62.25 E556.3136
G1 X177.929 Y10.842 E558.612
G1 X177.363 E558.6299
G1 X125.81 Y62.394 E560.9347
G1 X125.1 Y62.539 E560.9576
G1 X176.797 Y10.842 E563.2688
G1 X176.231 E563.2867
G1 X124.39 Y62.683 E565.6044
G1 X123.679 Y62.827 E565.6273
G1 X175.665 Y10.842 E567.9515
G1 X175.099 E567.9694
G1 X122.969 Y62.972 E570.3
G1 X122.259 Y63.116 E570.3229
G1 X174.533 Y10.842 E572.66
G1 X173.967 E572.6779
G1 X121.549 Y63.26 E575.0214
G1 X120.838 Y63.405 E575.0443
G1 X173.401 Y10.842 E577.3943
G1 X172.835 E577.4122
G1 X120.128 Y63.549 E579.7686
G1 X119.418 Y63.693 E579.7915
G1 X172.269 Y10.842 E582.1544
G1 X171.703 E582.1722
G1 X118.707 Y63.838 E584.5416
G1 X117.997 Y63.982 E584.5645
G1 X171.137 Y10.842 E586.9403
G1 X170.571 E586.9581
G1 X117.287 Y64.126 E589.3404
G1 X116.577 Y64.271 E589.3633
G1 X170.005 Y10.842 E591.752
G1 X169.439 E591.7699
G1 X115.866 Y64.415 E594.165
G1 X115.156 Y64.559 E594.1879
G1 X168.873 Y10.842 E596.5895
G1 X168.307 E596.6074
G1 X114.446 Y64.704 E599.0154
G1 X113.735 Y64.848 E599.0383
G1 X167.741 Y10.842 E601.4528
G1 X167.175 E601.4707
G1 X113.025 Y64.992 E603.8916
G1 X112.315 Y65.136 E603.9145
G1 X166.609 Y10.842 E606.3419
G1 X166.043 E606.3598
G1 X111.605 Y65.281 E608.7937
G1 X110.894 Y65.425 E608.8166
G1 X165.477 Y10.842 E611.2569
G1 X164.911 E611.2748
G1 X110.184 Y65.569 E613.7215
G1 X109.474 Y65.714 E613.7444
G1 X164.345 Y10.842 E616.1976
G1 X163.779 E616.2155
G1 X108.763 Y65.858 E618.6752
G1 X108.053 Y66.002 E618.6981
G1 X163.213 Y10.842 E621.1642
G1 X162.647 E621.1821
G1 X107.343 Y66.147 E623.6546
G1 X106.633 Y66.291 E623.6775
G1 X162.081 Y10.842 E626.1565
G1 X161.516 E626.1744
G1 X105.922 Y66.435 E628.6599
G1 X105.212 Y66.58 E628.6828
G1 X160.95 Y10.842 E631.1747
G1 X160.384 E631.1926
G1 X104.502 Y66.724 E633.691
G1 X103.791 Y66.868 E633.7139
G1 X159.818 Y10.842 E636.2187
G1 X159.252 E636.2366
G1 X103.081 Y67.013 E638.7479
G1 X102.371 Y67.157 E638.7708
G1 X158.686 Y10.842 E641.2885
G1 X158.12 E641.3064
G1 X101.661 Y67.301 E643.8305
G1 X100.95 Y67.445 E643.8535
G1 X157.554 Y10.842 E646.3841
G1 X156.988 E646.402
G1 X100.24 Y67.59 E648.939
G1 X99.53 Y67.734 E648.962
G1 X156.422 Y10.842 E651.5055
G1 X155.856 E651.5234
G1 X98.819 Y67.878 E654.0734
G1 X98.109 Y68.023 E654.0963
G1 X155.29 Y10.842 E656.6527
G1 X154.724 E656.6706
G1 X97.399 Y68.167 E659.2335
G1 X96.689 Y68.311 E659.2564
G1 X154.158 Y10.842 E661.8257
G1 X153.592 E661.8436
G1 X95.978 Y68.456 E664.4194
G1 X95.268 Y68.6 E664.4423
G1 X153.026 Y10.842 E667.0245
G1 X152.46 E667.0424
G1 X94.558 Y68.744 E669.6311
G1 X93.847 Y68.889 E669.654
G1 X151.894 Y10.842 E672.2492
G1 X151.328 E672.2671
G1 X93.137 Y69.033 E674.8687
G1 X92.427 Y69.177 E674.8916
G1 X150.762 Y10.842 E677.4996
G1 X150.196 E677.5175
G1 X91.717 Y69.322 E680.132
G1 X91.006 Y69.466 E680.1549
G1 X149.63 Y10.842 E682.7759
G1 X149.064 E682.7938
G1 X90.296 Y69.61 E685.4212
G1 X89.586 Y69.754 E685.4441
G1 X148.498 Y10.842 E688.0779
G1 X147.932 E688.0958
G1 X88.875 Y69.899 E690.7361
G1 E689.9361 F2400
G92 E0
; Repositioning with retraction
G1 X88.188 Y69.939 F27000
G1 X88.265 Y149.746
G1 E0.8 F2400
G92 E0
; Infill
G1 X28.852 Y209.158 E2.6562 F14203.285
G1 X28.286 E2.6741
G1 X88.265 Y149.18 E5.3556
G1 Y148.614 E5.3735
G1 X27.72 Y209.158 E8.0803
G1 X27.155 E8.0982
G1 X88.265 Y148.048 E10.8303
G1 Y147.482 E10.8482
G1 X26.589 Y209.158 E13.6056
G1 X26.023 E13.6235
G1 X88.265 Y146.916 E16.4062
G1 Y146.35 E16.4241
G1 X25.457 Y209.158 E19.2321
G1 X24.891 E19.25
G1 X88.265 Y145.784 E22.0833
G1 Y145.218 E22.1012
G1 X24.325 Y209.158 E24.9598
G1 X23.759 E24.9777
G1 X88.265 Y144.652 E27.8616
G1 Y144.086 E27.8795
G1 X23.193 Y209.158 E30.7887
G1 X22.627 E30.8066
G1 X88.265 Y143.52 E33.7412
G1 Y142.954 E33.7591
G1 X22.061 Y209.158 E36.7189
G1 X21.495 E36.7368
G1 X88.265 Y142.388 E39.7219
G1 Y141.822 E39.7398
G1 X20.929 Y209.158 E42.7503
G1 X20.363 E42.7682
G1 X88.265 Y141.256 E45.8039
G1 Y140.69 E45.8218
G1 X19.797 Y209.158 E48.8828
G1 X19.231 E48.9007
G1 X88.265 Y140.124 E51.9871
G1 Y139.558 E52.005
G1 X18.665 Y209.158 E55.1166
G1 X18.099 E55.1345
G1 X88.265 Y138.992 E58.2715
G1 Y138.426 E58.2894
G1 X17.747 Y208.944 E61.4421
G1 Y208.378 E61.46
G1 X88.265 Y137.86 E64.6127
G1 Y137.294 E64.6305
G1 X17.747 Y207.812 E67.7832
G1 Y207.246 E67.8011
G1 X88.265 Y136.728 E70.9538
G1 Y136.162 E70.9717
G1 X17.747 Y206.68 E74.1244
G1 Y206.114 E74.1423
G1 X88.265 Y135.596 E77.295
G1 Y135.03 E77.3129
G1 X17.747 Y205.548 E80.4656
G1 Y204.982 E80.4835
G1 X88.265 Y134.465 E83.6362
G1 Y133.899 E83.6541
G1 X17.747 Y204.416 E86.8068
G1 Y203.85 E86.8246
G1 X88.265 Y133.333 E89.9773
G1 Y132.767 E89.9952
G1 X17.747 Y203.284 E93.1479
G1 Y202.718 E93.1658
G1 X88.265 Y132.201 E96.3185
G1 Y131.635 E96.3364
G1 X17.747 Y202.152 E99.4891
G1 Y201.586 E99.507
G1 X88.265 Y131.069 E102.6597
G1 Y130.503 E102.6776
G1 X17.747 Y201.02 E105.8303
G1 Y200.454 E105.8482
G1 X88.265 Y129.937 E109.0009
G1 Y129.371 E109.0187
G1 X17.747 Y199.888 E112.1714
G1 Y199.322 E112.1893
G1 X88.265 Y128.805 E115.342
G1 Y128.239 E115.3599
G1 X17.747 Y198.756 E118.5126
G1 Y198.19 E118.5305
G1 X88.265 Y127.673 E121.6832
G1 Y127.107 E121.7011
G1 X17.747 Y197.624 E124.8538
G1 Y197.059 E124.8717
G1 X88.265 Y126.541 E128.0244
G1 Y125.975 E128.0423
G1 X17.747 Y196.493 E131.195
G1 Y195.927 E131.2128
G1 X88.265 Y125.409 E134.3655
G1 Y124.843 E134.3834
G1 X17.747 Y195.361 E137.5361
G1 Y194.795 E137.554
G1 X88.265 Y124.277 E140.7067
G1 Y123.711 E140.7246
G1 X17.747 Y194.229 E143.8773
G1 Y193.663 E143.8952
G1 X88.265 Y123.145 E147.0479
G1 Y122.579 E147.0658
G1 X17.747 Y193.097 E150.2185
G1 Y192.531 E150.2364
G1 X88.265 Y122.013 E153.3891
G1 Y121.447 E153.4069
G1 X17.747 Y191.965 E156.5596
G1 Y191.399 E156.5775
G1 X88.265 Y120.881 E159.7302
G1 Y120.315 E159.7481
G1 X17.747 Y190.833 E162.9008
G1 Y190.267 E162.9187
G1 X88.265 Y119.749 E166.0714
G1 Y119.183 E166.0893
G1 X17.747 Y189.701 E169.242
G1 Y189.135 E169.2599
G1 X88.265 Y118.617 E172.4126
G1 Y118.051 E172.4305
G1 X17.747 Y188.569 E175.5832
G1 Y188.003 E175.601
G1 X88.265 Y117.485 E178.7537
G1 Y116.919 E178.7716
G1 X17.747 Y187.437 E181.9243
G1 Y186.871 E181.9422
G1 X88.265 Y116.353 E185.0949
G1 Y115.787 E185.1128
G1 X17.747 Y186.305 E188.2655
G1 Y185.739 E188.2834
G1 X88.265 Y115.221 E191.4361
G1 Y114.655 E191.454
G1 X17.747 Y185.173 E194.6067
G1 Y184.607 E194.6246
G1 X88.265 Y114.089 E197.7773
G1 Y113.523 E197.7951
G1 X17.747 Y184.041 E200.9478
G1 Y183.475 E200.9657
G1 X88.265 Y112.958 E204.1184
G1 Y112.392 E204.1363
G1 X17.747 Y182.909 E207.289
G1 Y182.343 E207.3069
G1 X88.265 Y111.826 E210.4596
G1 Y111.26 E210.4775
G1 X17.747 Y181.777 E213.6302
G1 Y181.211 E213.6481
G1 X88.265 Y110.694 E216.8008
G1 Y110.128 E216.8187
G1 X17.747 Y180.645 E219.9714
G1 Y180.079 E219.9893
G1 X88.265 Y109.562 E223.1419
G1 Y108.996 E223.1598
G1 X17.747 Y179.513 E226.3125
G1 Y178.947 E226.3304
G1 X88.265 Y108.43 E229.4831
G1 Y107.864 E229.501
G1 X17.747 Y178.381 E232.6537
G1 Y177.815 E232.6716
G1 X88.265 Y107.298 E235.8243
G1 Y106.732 E235.8422
G1 X17.747 Y177.249 E238.9949
G1 Y176.683 E239.0128
G1 X88.265 Y106.166 E242.1655
G1 Y105.6 E242.1834
G1 X17.747 Y176.118 E245.336
G1 Y175.552 E245.3539
G1 X88.265 Y105.034 E248.5066
G1 Y104.468 E248.5245
G1 X17.747 Y174.986 E251.6772
G1 Y174.42 E251.6951
G1 X88.265 Y103.902 E254.8478
G1 Y103.336 E254.8657
G1 X17.747 Y173.854 E258.0184
G1 Y173.288 E258.0363
G1 X88.265 Y102.77 E261.189
G1 Y102.204 E261.2069
G1 X17.747 Y172.722 E264.3596
G1 Y172.156 E264.3775
G1 X88.265 Y101.638 E267.5301
G1 Y101.072 E267.548
G1 X17.747 Y171.59 E270.7007
G1 Y171.024 E270.7186
G1 X88.265 Y100.506 E273.8713
G1 Y99.94 E273.8892
G1 X17.747 Y170.458 E277.0419
G1 Y169.892 E277.0598
G1 X88.265 Y99.374 E280.2125
G1 Y98.808 E280.2304
G1 X17.747 Y169.326 E283.3831
G1 Y168.76 E283.401
G1 X88.265 Y98.242 E286.5537
G1 Y97.676 E286.5716
G1 X17.747 Y168.194 E289.7242
G1 Y167.628 E289.7421
G1 X88.265 Y97.11 E292.8948
G1 Y96.544 E292.9127
G1 X17.747 Y167.062 E296.0654
G1 Y166.496 E296.0833
G1 X88.265 Y95.978 E299.236
G1 Y95.412 E299.2539
G1 X17.747 Y165.93 E302.4066
G1 Y165.364 E302.4245
G1 X88.265 Y94.846 E305.5772
G1 Y94.28 E305.5951
G1 X17.747 Y164.798 E308.7478
G1 Y164.232 E308.7657
G1 X88.265 Y93.714 E311.9183
G1 Y93.148 E311.9362
G1 X17.747 Y163.666 E315.0889
G1 Y163.1 E315.1068
G1 X88.265 Y92.582 E318.2595
G1 Y92.017 E318.2774
G1 X17.747 Y162.534 E321.4301
G1 Y161.968 E321.448
G1 X88.265 Y91.451 E324.6007
G1 Y90.885 E324.6186
G1 X17.747 Y161.402 E327.7713
G1 Y160.836 E327.7892
G1 X88.265 Y90.319 E330.9419
G1 Y89.753 E330.9598
G1 X17.747 Y160.27 E334.1124
G1 Y159.704 E334.1303
G1 X88.265 Y89.187 E337.283
G1 Y88.621 E337.3009
G1 X17.747 Y159.138 E340.4536
G1 Y158.572 E340.4715
G1 X88.265 Y88.055 E343.6242
G1 Y87.489 E343.6421
G1 X17.747 Y158.006 E346.7948
G1 Y157.44 E346.8127
G1 X88.265 Y86.923 E349.9654
G1 Y86.357 E349.9833
G1 X17.747 Y156.874 E353.136
G1 Y156.308 E353.1539
G1 X88.265 Y85.791 E356.3065
G1 Y85.225 E356.3244
G1 X17.747 Y155.742 E359.4771
G1 Y155.176 E359.495
G1 X88.265 Y84.659 E362.6477
G1 Y84.093 E362.6656
G1 X17.747 Y154.611 E365.8183
G1 Y154.045 E365.8362
G1 X88.265 Y83.527 E368.9889
G1 Y82.961 E369.0068
G1 X17.747 Y153.479 E372.1595
G1 Y152.913 E372.1774
G1 X88.265 Y82.395 E375.3301
G1 Y81.829 E375.348
G1 X17.747 Y152.347 E378.5006
G1 Y151.781 E378.5185
G1 X88.265 Y81.263 E381.6712
G1 Y80.697 E381.6891
G1 X17.747 Y151.215 E384.8418
G1 Y150.649 E384.8597
G1 X88.265 Y80.131 E388.0124
G1 Y79.565 E388.0303
G1 X17.747 Y150.083 E391.183
G1 Y149.517 E391.2009
G1 X88.265 Y78.999 E394.3536
G1 Y78.433 E394.3715
G1 X17.747 Y148.951 E397.5242
G1 Y148.385 E397.5421
G1 X88.265 Y77.867 E400.6947
G1 Y77.301 E400.7126
G1 X17.747 Y147.819 E403.8653
G1 Y147.253 E403.8832
G1 X88.265 Y76.735 E407.0359
G1 Y76.169 E407.0538
G1 X17.747 Y146.687 E410.2065
G1 Y146.121 E410.2244
G1 X88.265 Y75.603 E413.3771
G1 Y75.037 E413.395
G1 X17.747 Y145.555 E416.5477
G1 Y144.989 E416.5656
G1 X88.265 Y74.471 E419.7183
G1 Y73.905 E419.7362
G1 X17.747 Y144.423 E422.8888
G1 Y143.857 E422.9067
G1 X88.265 Y73.339 E426.0594
G1 Y72.773 E426.0773
G1 X17.747 Y143.291 E429.23
G1 Y142.725 E429.2479
G1 X88.265 Y72.207 E432.4006
G1 Y71.641 E432.4185
G1 X17.747 Y142.159 E435.5712
G1 Y141.593 E435.5891
G1 X88.265 Y71.075 E438.7418
G1 Y70.51 E438.7597
G1 X17.747 Y141.027 E441.9124
G1 Y140.461 E441.9303
G1 X147.366 Y10.842 E447.7253
G1 X146.8 E447.7431
G1 X17.747 Y139.895 E453.5128
G1 Y139.329 E453.5307
G1 X146.234 Y10.842 E459.2751
G1 X145.668 E459.293
G1 X17.747 Y138.763 E465.0121
G1 Y138.197 E465.03
G1 X145.102 Y10.842 E470.7238
G1 X144.536 E470.7417
G1 X17.747 Y137.631 E476.4102
G1 Y137.065 E476.428
G1 X143.97 Y10.842 E482.0712
G1 X143.404 E482.0891
G1 X17.747 Y136.499 E487.707
G1 Y135.933 E487.7249
G1 X142.838 Y10.842 E493.3174
G1 X142.272 E493.3353
G1 X17.747 Y135.367 E498.9026
G1 Y134.801 E498.9205
G1 X141.706 Y10.842 E504.4625
G1 X141.14 E504.4804
G1 X17.747 Y134.235 E509.997
G1 Y133.67 E510.0149
G1 X140.575 Y10.842 E515.5063
G1 X140.009 E515.5242
G1 X17.747 Y133.104 E520.9902
G1 Y132.538 E521.0081
G1 X139.443 Y10.842 E526.4489
G1 X138.877 E526.4667
G1 X17.747 Y131.972 E531.8822
G1 Y131.406 E531.9001
G1 X138.311 Y10.842 E537.2902
G1 X137.745 E537.3081
G1 X17.747 Y130.84 E542.673
G1 Y130.274 E542.6908
G1 X137.179 Y10.842 E548.0304
G1 X136.613 E548.0483
G1 X17.747 Y129.708 E553.3625
G1 Y129.142 E553.3804
G1 X136.047 Y10.842 E558.6693
G1 X135.481 E558.6872
G1 X17.747 Y128.576 E563.9508
G1 Y128.01 E563.9687
G1 X134.915 Y10.842 E569.2071
G1 X134.349 E569.225
G1 X17.747 Y127.444 E574.438
G1 Y126.878 E574.4559
G1 X133.783 Y10.842 E579.6436
G1 X133.217 E579.6615
G1 X17.747 Y126.312 E584.8239
G1 Y125.746 E584.8418
G1 X132.651 Y10.842 E589.9789
G1 X132.085 E589.9968
G1 X17.747 Y125.18 E595.1086
G1 Y124.614 E595.1265
G1 X131.519 Y10.842 E600.213
G1 X130.953 E600.2309
G1 X17.747 Y124.048 E605.2921
G1 Y123.482 E605.31
G1 X130.387 Y10.842 E610.3458
G1 X129.821 E610.3637
G1 X17.747 Y122.916 E615.3743
G1 Y122.35 E615.3922
G1 X129.255 Y10.842 E620.3775
G1 X128.689 E620.3954
G1 X17.747 Y121.784 E625.3554
G1 Y121.218 E625.3733
G1 X128.123 Y10.842 E630.308
G1 X127.557 E630.3259
G1 X17.747 Y120.652 E635.2352
G1 Y120.086 E635.2531
G1 X126.991 Y10.842 E640.1372
G1 X126.425 E640.1551
G1 X17.747 Y119.52 E645.0139
G1 Y118.954 E645.0317
G1 X125.859 Y10.842 E649.8652
G1 X125.293 E649.8831
G1 X17.747 Y118.388 E654.6913
G1 Y117.822 E654.7092
G1 X124.727 Y10.842 E659.492
G1 X124.161 E659.5099
G1 X17.747 Y117.256 E664.2675
G1 Y116.69 E664.2854
G1 X123.595 Y10.842 E669.0176
G1 X123.029 E669.0355
G1 X17.747 Y116.124 E673.7425
G1 Y115.558 E673.7603
G1 X122.463 Y10.842 E678.442
G1 X121.897 E678.4599
G1 X17.747 Y114.992 E683.1162
G1 Y114.426 E683.1341
G1 X121.331 Y10.842 E687.7652
G1 X120.765 E687.7831
G1 X17.747 Y113.86 E692.3888
G1 Y113.294 E692.4067
G1 X120.199 Y10.842 E696.9871
G1 X119.634 E697.005
G1 X17.747 Y112.729 E701.5601
G1 Y112.163 E701.578
G1 X119.068 Y10.842 E706.1078
G1 X118.502 E706.1257
G1 X17.747 Y111.597 E710.6303
G1 Y111.031 E710.6482
G1 X117.936 Y10.842 E715.1274
G1 X117.37 E715.1453
G1 X17.747 Y110.465 E719.5992
G1 Y109.899 E719.6171
G1 X116.804 Y10.842 E724.0457
G1 X116.238 E724.0636
G1 X17.747 Y109.333 E728.4669
G1 Y108.767 E728.4848
G1 X115.672 Y10.842 E732.8628
G1 X115.106 E732.8807
G1 X17.747 Y108.201 E737.2334
G1 Y107.635 E737.2513
G1 X114.54 Y10.842 E741.5787
G1 X113.974 E741.5966
