; G-Code flavour: Marlin
; ID: 65bb79da0656922038ea3c08
; Print time: 3:06:19
; Filament used: 42.3 meter(s)
; Estimated weight: 127 gram(s)
; Generated with: REALvisionCore 26.1.5
; Printer name: Creality K1
; Material Profile: CreaTECH_PLA 
; Layer height: 0.2
M140 S0
M104 S0 
START_PRINT EXTRUDER_TEMP=230 BED_TEMP=45
G92 E0
G92 E0
G1 F2400 E-0.5
; Print start
          ; Repositioning
G1 X0 Y0 F27000
G1 X108.397 Y52.31
G1 Z0 F1800
G1 Z0.03
        ; New Layer
; layer 0, Z = 0.239
M140 S45
; Repositioning
G1 Z0.239
; Contour
G1 X59.473 E2.7825 F3600
G1 X44.873 Y56.287 E3.6432
G1 X44.503 Y56.396 E3.6651
G1 X44.5 Y145.603 E8.7388
G1 X44.873 Y145.713 E8.7609
G1 X59.473 Y149.69 E9.6215
G1 X108.397 E12.4041
G1 Y199.227 E15.2215
G1 X126.569 E16.255
G1 Y153.553 E18.8527
G1 X126.78 Y150.617 E19.0201
G1 X127.9 Y148.603 E19.1511
G1 X129.178 Y148.681 E19.224
G1 X135.925 Y145.254 E19.6544
G1 X173.588 Y124.784 E22.0924
G1 Y77.216 E24.7978
G1 X135.925 Y56.746 E27.2358
G1 X129.178 Y53.319 E27.6662
G1 X127.9 Y53.397 E27.7391
G1 X126.78 Y51.383 E27.8701
G1 X126.569 Y48.447 E28.0375
G1 Y2.773 E30.6352
G1 X108.397 E31.6687
G1 Y52.31 E34.4861
G92 E0
; Repositioning
G1 X107.998 Y52.335
G1 X108.027 Y51.94
; Contour
G1 X59.424 E2.7643
G1 X44.772 Y55.931 E3.628
G1 X44.133 Y56.119 E3.6659
G1 X44.13 Y145.88 E8.771
G1 X44.772 Y146.069 E8.8091
G1 X59.424 Y150.06 E9.6727
G1 X108.027 E12.4371
G1 Y199.597 E15.2545
G1 X126.939 E16.3301
G1 Y153.566 E18.948
G1 X127.143 Y150.725 E19.11
G1 X128.11 Y148.987 E19.2232
G1 X129.256 Y149.056 E19.2885
G1 X136.096 Y145.582 E19.7248
G1 X173.958 Y125.004 E22.1757
G1 Y76.996 E24.9062
G1 X136.096 Y56.418 E27.3571
G1 X129.256 Y52.944 E27.7934
G1 X128.11 Y53.013 E27.8587
G1 X127.143 Y51.275 E27.9718
G1 X126.939 Y48.434 E28.1338
G1 Y2.403 E30.7518
G1 X108.027 E31.8274
G1 Y51.94 E34.6448
G92 E0
; Repositioning
G1 X107.657 Y51.57
; Contour
G1 X59.374 E2.7461
G1 X44.671 Y55.575 E3.6128
G1 X43.763 Y55.843 E3.6667
G1 X43.76 Y146.157 E8.8033
G1 X44.671 Y146.425 E8.8572
G1 X59.374 Y150.43 E9.724
G1 X107.657 E12.47
G1 Y199.967 E15.2874
G1 X127.309 E16.4051
G1 Y153.579 E19.0434
G1 X127.506 Y150.833 E19.2
G1 X128.32 Y149.37 E19.2952
G1 X129.334 Y149.432 E19.353
G1 X136.267 Y145.91 E19.7953
G1 X174.328 Y125.224 E22.259
G1 Y76.776 E25.0145
G1 X136.267 Y56.09 E27.4783
G1 X129.334 Y52.568 E27.9206
G1 X128.32 Y52.63 E27.9783
G1 X127.506 Y51.167 E28.0735
G1 X127.309 Y48.421 E28.2301
G1 Y2.033 E30.8684
G1 X107.657 E31.9861
G1 Y51.57 E34.8035
G92 E0
; Repositioning
G1 X107.287 Y51.2
; Contour
G1 X59.325 E2.7279
G1 X44.57 Y55.219 E3.5976
G1 X43.555 Y55.518 E3.6578
G1 X43.393 Y55.56 E3.6673
G1 X43.39 Y146.439 E8.8361
G1 X43.555 Y146.482 E8.8458
G1 X44.57 Y146.781 E8.9059
G1 X59.325 Y150.8 E9.7757
G1 X107.287 E12.5035
G1 Y200.337 E15.3209
G1 X127.679 E16.4807
G1 Y153.593 E19.1393
G1 X127.87 Y150.941 E19.2904
G1 X128.53 Y149.754 E19.3677
G1 X129.411 Y149.807 E19.4179
G1 X136.439 Y146.238 E19.8662
G1 X174.698 Y125.444 E22.3428
G1 Y76.556 E25.1233
G1 X136.439 Y55.762 E27.5999
G1 X129.411 Y52.193 E28.0482
G1 X128.53 Y52.246 E28.0984
G1 X127.87 Y51.059 E28.1757
G1 X127.679 Y48.407 E28.3269
G1 Y1.663 E30.9855
G1 X107.287 E32.1452
G1 Y51.2 E34.9626
G1 E34.1626 F2400
G92 E0
; Repositioning with retraction
G1 X127.189 Y52.678 F3600
G1 E0.8 F2400
G92 E0
; Infill
G1 X108.669 Y34.159 E1.4924 F3600
G1 Y33.592 E1.5247
G1 X126.511 Y51.434 E2.9625
G1 X126.467 Y50.823 E2.9974
G1 X108.669 Y33.025 E4.4316
G1 Y32.458 E4.4639
G1 X126.423 Y50.212 E5.8946
G1 X126.379 Y49.602 E5.9295
G1 X108.669 Y31.892 E7.3567
G1 Y31.325 E7.3889
G1 X126.335 Y48.991 E8.8126
G1 X126.297 Y48.386 E8.8471
G1 X108.669 Y30.758 E10.2676
G1 Y30.191 E10.2999
G1 X126.297 Y47.819 E11.7204
G1 Y47.252 E11.7527
G1 X108.669 Y29.625 E13.1732
G1 Y29.058 E13.2055
G1 X126.297 Y46.685 E14.6261
G1 Y46.119 E14.6584
G1 X108.669 Y28.491 E16.0789
G1 Y27.924 E16.1112
G1 X126.297 Y45.552 E17.5317
G1 Y44.985 E17.564
G1 X108.669 Y27.358 E18.9845
G1 Y26.791 E19.0168
G1 X126.297 Y44.418 E20.4373
G1 Y43.852 E20.4696
G1 X108.669 Y26.224 E21.8901
G1 Y25.657 E21.9224
G1 X126.297 Y43.285 E23.3429
G1 Y42.718 E23.3752
G1 X108.669 Y25.091 E24.7957
G1 Y24.524 E24.828
G1 X126.297 Y42.151 E26.2485
G1 Y41.585 E26.2808
G1 X108.669 Y23.957 E27.7014
G1 Y23.39 E27.7337
G1 X126.297 Y41.018 E29.1542
G1 Y40.451 E29.1865
G1 X108.669 Y22.824 E30.607
G1 Y22.257 E30.6393
G1 X126.297 Y39.884 E32.0598
G1 Y39.318 E32.0921
G1 X108.669 Y21.69 E33.5126
G1 Y21.123 E33.5449
G1 X126.297 Y38.751 E34.9654
G1 Y38.184 E34.9977
G1 X108.669 Y20.557 E36.4182
G1 Y19.99 E36.4505
G1 X126.297 Y37.617 E37.871
G1 Y37.051 E37.9033
G1 X108.669 Y19.423 E39.3238
G1 Y18.856 E39.3561
G1 X126.297 Y36.484 E40.7767
G1 Y35.917 E40.8089
G1 X108.669 Y18.29 E42.2295
G1 Y17.723 E42.2618
G1 X126.297 Y35.35 E43.6823
G1 Y34.784 E43.7146
G1 X108.669 Y17.156 E45.1351
G1 Y16.589 E45.1674
G1 X126.297 Y34.217 E46.5879
G1 Y33.65 E46.6202
G1 X108.669 Y16.023 E48.0407
G1 Y15.456 E48.073
G1 X126.297 Y33.083 E49.4935
G1 Y32.517 E49.5258
G1 X108.669 Y14.889 E50.9463
G1 Y14.322 E50.9786
G1 X126.297 Y31.95 E52.3991
G1 Y31.383 E52.4314
G1 X108.669 Y13.756 E53.852
G1 Y13.189 E53.8842
G1 X126.297 Y30.816 E55.3048
G1 Y30.25 E55.3371
G1 X108.669 Y12.622 E56.7576
G1 Y12.055 E56.7899
G1 X126.297 Y29.683 E58.2104
G1 Y29.116 E58.2427
G1 X108.669 Y11.489 E59.6632
G1 Y10.922 E59.6955
G1 X126.297 Y28.549 E61.116
G1 Y27.983 E61.1483
G1 X108.669 Y10.355 E62.5688
G1 Y9.788 E62.6011
G1 X126.297 Y27.416 E64.0216
G1 Y26.849 E64.0539
G1 X108.669 Y9.222 E65.4744
G1 Y8.655 E65.5067
G1 X126.297 Y26.282 E66.9272
G1 Y25.716 E66.9595
G1 X108.669 Y8.088 E68.3801
G1 Y7.521 E68.4124
G1 X126.297 Y25.149 E69.8329
G1 Y24.582 E69.8652
G1 X108.669 Y6.954 E71.2857
G1 Y6.388 E71.318
G1 X126.297 Y24.015 E72.7385
G1 Y23.449 E72.7708
G1 X108.669 Y5.821 E74.1913
G1 Y5.254 E74.2236
G1 X126.297 Y22.882 E75.6441
G1 Y22.315 E75.6764
G1 X108.669 Y4.687 E77.0969
G1 Y4.121 E77.1292
G1 X126.297 Y21.748 E78.5497
G1 Y21.181 E78.582
G1 X108.669 Y3.554 E80.0025
G1 X108.727 Y3.045 E80.0317
G1 X126.297 Y20.615 E81.4476
G1 Y20.048 E81.4799
G1 X109.294 Y3.045 E82.85
G1 X109.861 E82.8823
G1 X126.297 Y19.481 E84.2068
G1 Y18.914 E84.2391
G1 X110.427 Y3.045 E85.518
G1 X110.994 E85.5503
G1 X126.297 Y18.348 E86.7834
G1 Y17.781 E86.8157
G1 X111.561 Y3.045 E88.0032
G1 X112.128 E88.0355
G1 X126.297 Y17.214 E89.1773
G1 Y16.647 E89.2096
G1 X112.694 Y3.045 E90.3058
G1 X113.261 E90.3381
G1 X126.297 Y16.081 E91.3885
G1 Y15.514 E91.4208
G1 X113.828 Y3.045 E92.4256
G1 X114.395 E92.4579
G1 X126.297 Y14.947 E93.417
G1 Y14.38 E93.4493
G1 X114.961 Y3.045 E94.3628
G1 X115.528 E94.3951
G1 X126.297 Y13.814 E95.2629
G1 Y13.247 E95.2952
G1 X116.095 Y3.045 E96.1173
G1 X116.662 E96.1496
G1 X126.297 Y12.68 E96.926
G1 Y12.113 E96.9583
G1 X117.228 Y3.045 E97.6891
G1 X117.795 E97.7214
G1 X126.297 Y11.547 E98.4065
G1 Y10.98 E98.4388
G1 X118.362 Y3.045 E99.0782
G1 X118.929 E99.1105
G1 X126.297 Y10.413 E99.7042
G1 Y9.846 E99.7365
G1 X119.495 Y3.045 E100.2846
G1 X120.062 E100.3169
G1 X126.297 Y9.28 E100.8193
G1 Y8.713 E100.8516
G1 X120.629 Y3.045 E101.3084
G1 X121.196 E101.3406
G1 X126.297 Y8.146 E101.7517
G1 Y7.579 E101.784
G1 X121.762 Y3.045 E102.1494
G1 X122.329 E102.1817
G1 X126.297 Y7.013 E102.5014
G1 Y6.446 E102.5337
G1 X122.896 Y3.045 E102.8078
G1 X123.463 E102.8401
G1 X126.297 Y5.879 E103.0684
G1 Y5.312 E103.1007
G1 X124.03 Y3.045 E103.2834
G1 X124.596 E103.3157
G1 X126.297 Y4.746 E103.4528
G1 Y4.179 E103.4851
G1 X125.163 Y3.045 E103.5764
G1 X125.73 E103.6087
G1 X126.297 Y3.612 E103.6544
G1 Y3.045 E103.6867
G1 E102.8867 F2400
G92 E0
; Repositioning with retraction
G1 X125.894 Y48.648 F3600
G1 X126.068 Y51.096
G1 X126.645 Y52.11
G1 X135.099 Y56.98
G1 X173.316 Y77.835
G1 E0.8 F2400
G92 E0
; Infill
G1 X172.31 Y76.829 E0.0811 F3600
G1 X171.065 Y76.151 E0.1618
G1 X173.316 Y78.402 E0.3432
G1 Y78.969 E0.3755
G1 X169.82 Y75.474 E0.6572
G1 X168.576 Y74.796 E0.738
G1 X173.316 Y79.536 E1.1199
G1 Y80.102 E1.1522
G1 X167.331 Y74.118 E1.6345
G1 X166.087 Y73.44 E1.7153
G1 X173.316 Y80.669 E2.2978
G1 Y81.236 E2.3301
G1 X164.842 Y72.762 E3.013
G1 X163.597 Y72.084 E3.0937
G1 X173.316 Y81.803 E3.8769
G1 Y82.369 E3.9092
G1 X162.353 Y71.406 E4.7926
G1 X161.108 Y70.729 E4.8734
G1 X173.316 Y82.936 E5.8572
G1 Y83.503 E5.8894
G1 X159.864 Y70.051 E6.9735
G1 X158.619 Y69.373 E7.0542
G1 X173.316 Y84.07 E8.2386
G1 Y84.636 E8.2709
G1 X157.375 Y68.695 E9.5555
G1 X156.13 Y68.017 E9.6363
G1 X173.316 Y85.203 E11.0212
G1 Y85.77 E11.0535
G1 X154.885 Y67.339 E12.5387
G1 X153.641 Y66.662 E12.6195
G1 X173.316 Y86.337 E14.205
G1 Y86.903 E14.2373
G1 X152.396 Y65.984 E15.9231
G1 X151.152 Y65.306 E16.0039
G1 X173.316 Y87.47 E17.79
G1 Y88.037 E17.8223
G1 X149.907 Y64.628 E19.7087
G1 X148.662 Y63.95 E19.7894
G1 X173.316 Y88.604 E21.7761
G1 Y89.171 E21.8084
G1 X147.418 Y63.272 E23.8954
G1 X146.173 Y62.595 E23.9762
G1 X173.316 Y89.737 E26.1635
G1 Y90.304 E26.1958
G1 X144.929 Y61.917 E28.4834
G1 X143.684 Y61.239 E28.5641
G1 X173.316 Y90.871 E30.952
G1 Y91.438 E30.9843
G1 X142.439 Y60.561 E33.4725
G1 X141.195 Y59.883 E33.5532
G1 X173.316 Y92.004 E36.1417
G1 Y92.571 E36.174
G1 X139.964 Y59.219 E38.8617
G1 X138.742 Y58.564 E38.9407
G1 X173.316 Y93.138 E41.7268
G1 Y93.705 E41.7591
G1 X137.521 Y57.91 E44.6436
G1 X136.3 Y57.255 E44.7226
G1 X173.316 Y94.271 E47.7055
G1 Y94.838 E47.7378
G1 X135.119 Y56.642 E50.8159
G1 X133.968 Y56.057 E50.8895
G1 X173.316 Y95.405 E54.0603
G1 Y95.972 E54.0926
G1 X132.816 Y55.472 E57.3563
G1 X131.665 Y54.887 E57.4299
G1 X173.316 Y96.538 E60.7864
G1 Y97.105 E60.8187
G1 X130.513 Y54.302 E64.2679
G1 X129.361 Y53.717 E64.3415
G1 X173.316 Y97.672 E67.8836
G1 Y98.239 E67.9159
G1 X128.698 Y53.621 E71.5114
G1 X128.164 Y53.653 E71.5419
G1 X173.316 Y98.805 E75.1805
G1 Y99.372 E75.2128
G1 X108.669 Y34.725 E80.4224
G1 Y35.292 E80.4547
G1 X173.316 Y99.939 E85.6642
G1 Y100.506 E85.6965
G1 X108.669 Y35.859 E90.9061
G1 Y36.426 E90.9384
G1 X173.316 Y101.072 E96.1479
G1 Y101.639 E96.1802
G1 X108.669 Y36.992 E101.3898
G1 Y37.559 E101.4221
G1 X173.316 Y102.206 E106.6317
G1 Y102.773 E106.664
G1 X108.669 Y38.126 E111.8735
G1 Y38.693 E111.9058
G1 X173.316 Y103.339 E117.1154
G1 Y103.906 E117.1477
G1 X108.669 Y39.259 E122.3572
G1 Y39.826 E122.3895
G1 X173.316 Y104.473 E127.5991
G1 Y105.04 E127.6314
G1 X108.669 Y40.393 E132.8409
G1 Y40.96 E132.8732
G1 X173.316 Y105.606 E138.0828
G1 Y106.173 E138.1151
G1 X108.669 Y41.526 E143.3246
G1 Y42.093 E143.3569
G1 X173.316 Y106.74 E148.5665
G1 Y107.307 E148.5988
G1 X108.669 Y42.66 E153.8083
G1 Y43.227 E153.8406
G1 X173.316 Y107.873 E159.0502
G1 Y108.44 E159.0825
G1 X108.669 Y43.793 E164.292
G1 Y44.36 E164.3243
G1 X173.316 Y109.007 E169.5339
G1 Y109.574 E169.5662
G1 X108.669 Y44.927 E174.7758
G1 Y45.494 E174.8081
G1 X173.316 Y110.14 E180.0176
G1 Y110.707 E180.0499
G1 X108.669 Y46.06 E185.2595
G1 Y46.627 E185.2918
G1 X173.316 Y111.274 E190.5013
G1 Y111.841 E190.5336
G1 X108.669 Y47.194 E195.7432
G1 Y47.761 E195.7755
G1 X173.316 Y112.407 E200.985
G1 Y112.974 E201.0173
G1 X108.669 Y48.328 E206.2269
G1 Y48.894 E206.2592
G1 X173.316 Y113.541 E211.4687
G1 Y114.108 E211.501
G1 X108.669 Y49.461 E216.7106
G1 Y50.028 E216.7429
G1 X173.316 Y114.674 E221.9524
G1 Y115.241 E221.9847
G1 X108.669 Y50.595 E227.1943
G1 Y51.161 E227.2266
G1 X173.316 Y115.808 E232.4362
G1 Y116.375 E232.4684
G1 X108.669 Y51.728 E237.678
G1 Y52.295 E237.7103
G1 X173.316 Y116.941 E242.9199
G1 Y117.508 E242.9522
G1 X108.39 Y52.582 E248.1842
G1 X107.823 E248.2165
G1 X173.316 Y118.075 E253.4943
G1 Y118.642 E253.5266
G1 X107.256 Y52.582 E258.85
G1 X106.689 E258.8823
G1 X173.316 Y119.208 E264.2514
G1 Y119.775 E264.2837
G1 X106.123 Y52.582 E269.6985
G1 X105.556 E269.7308
G1 X173.316 Y120.342 E275.1912
G1 Y120.909 E275.2235
G1 X104.989 Y52.582 E280.7296
G1 X104.422 E280.7619
G1 X173.316 Y121.475 E286.3137
G1 Y122.042 E286.346
G1 X103.856 Y52.582 E291.9435
G1 X103.289 E291.9758
G1 X173.316 Y122.609 E297.6189
G1 Y123.176 E297.6512
G1 X102.722 Y52.582 E303.34
G1 X102.155 E303.3723
G1 X173.316 Y123.742 E309.1068
G1 Y124.309 E309.1391
G1 X101.589 Y52.582 E314.9192
G1 X101.022 E314.9515
G1 X173.152 Y124.712 E320.7641
G1 X172.785 Y124.912 E320.7879
G1 X100.455 Y52.582 E326.6166
G1 X99.888 E326.6489
G1 X172.418 Y125.112 E332.4938
G1 X172.051 Y125.312 E332.5176
G1 X99.322 Y52.582 E338.3785
G1 X98.755 E338.4108
G1 X171.684 Y125.511 E344.2878
G1 X171.317 Y125.711 E344.3116
G1 X98.188 Y52.582 E350.2047
G1 X97.621 E350.237
G1 X170.95 Y125.911 E356.1463
G1 X170.584 Y126.111 E356.1701
G1 X97.055 Y52.582 E362.0954
G1 X96.488 E362.1277
G1 X170.217 Y126.311 E368.0692
G1 X169.85 Y126.511 E368.093
G1 X95.921 Y52.582 E374.0505
G1 X95.354 E374.0828
G1 X169.483 Y126.71 E380.0564
G1 X169.116 Y126.91 E380.0803
G1 X94.788 Y52.582 E386.07
G1 X94.221 E386.1023
G1 X168.749 Y127.11 E392.1082
G1 X168.382 Y127.31 E392.132
G1 X93.654 Y52.582 E398.1539
G1 X93.087 E398.1862
G1 X168.015 Y127.51 E404.2243
G1 X167.648 Y127.71 E404.2481
G1 X92.521 Y52.582 E410.3022
G1 X91.954 E410.3345
G1 X167.281 Y127.909 E416.4048
G1 X166.914 Y128.109 E416.4286
G1 X91.387 Y52.582 E422.515
G1 X90.82 E422.5473
G1 X166.547 Y128.309 E428.6498
G1 X166.18 Y128.509 E428.6736
G1 X90.254 Y52.582 E434.7922
G1 X89.687 E434.8244
G1 X165.814 Y128.709 E440.9591
G1 X165.447 Y128.909 E440.9829
G1 X89.12 Y52.582 E447.1337
G1 X88.553 E447.166
G1 X165.08 Y129.108 E453.3329
G1 X164.713 Y129.308 E453.3567
G1 X87.987 Y52.582 E459.5397
G1 X87.42 E459.572
G1 X164.346 Y129.508 E465.7711
G1 X163.979 Y129.708 E465.7949
G1 X86.853 Y52.582 E472.0101
G1 X86.286 E472.0424
G1 X163.612 Y129.908 E478.2737
G1 X163.245 Y130.108 E478.2975
G1 X85.72 Y52.582 E484.5449
G1 X85.153 E484.5772
G1 X162.878 Y130.307 E490.8407
G1 X162.511 Y130.507 E490.8645
G1 X84.586 Y52.582 E497.1442
G1 X84.019 E497.1765
G1 X162.144 Y130.707 E503.4722
G1 X161.777 Y130.907 E503.496
G1 X83.453 Y52.582 E509.8078
G1 X82.886 E509.8401
G1 X161.411 Y131.107 E516.168
G1 X161.044 Y131.307 E516.1918
G1 X82.319 Y52.582 E522.5359
G1 X81.752 E522.5682
G1 X160.677 Y131.506 E528.9283
G1 X160.31 Y131.706 E528.9521
G1 X81.186 Y52.582 E535.3283
G1 X80.619 E535.3606
G1 X159.943 Y131.906 E541.753
G1 X159.576 Y132.106 E541.7768
G1 X80.052 Y52.582 E548.1852
G1 X79.485 E548.2175
G1 X159.209 Y132.306 E554.6421
G1 X158.842 Y132.506 E554.6659
G1 X78.918 Y52.582 E561.1065
G1 X78.352 E561.1388
G1 X158.475 Y132.705 E567.5956
G1 X158.108 Y132.905 E567.6194
G1 X77.785 Y52.582 E574.0923
G1 X77.218 E574.1246
G1 X157.741 Y133.105 E580.6135
G1 X157.374 Y133.305 E580.6373
G1 X76.651 Y52.582 E587.1424
G1 X76.085 E587.1747
G1 X157.007 Y133.505 E593.6959
G1 X156.641 Y133.705 E593.7197
G1 X75.518 Y52.582 E600.2569
G1 X74.951 E600.2892
G1 X156.274 Y133.904 E606.8426
G1 X155.907 Y134.104 E606.8664
G1 X74.384 Y52.582 E613.4359
G1 X73.818 E613.4682
G1 X155.54 Y134.304 E620.0538
G1 X155.173 Y134.504 E620.0776
G1 X73.251 Y52.582 E626.6793
G1 X72.684 E626.7116
G1 X154.806 Y134.704 E633.3294
G1 X154.439 Y134.904 E633.3532
G1 X72.117 Y52.582 E639.9871
G1 X71.551 E640.0194
G1 X154.072 Y135.103 E646.6694
G1 X153.705 Y135.303 E646.6932
G1 X70.984 Y52.582 E653.3593
G1 X70.417 E653.3916
G1 X153.338 Y135.503 E660.0738
G1 X152.971 Y135.703 E660.0976
G1 X69.85 Y52.582 E666.7959
G1 X69.284 E666.8282
G1 X152.604 Y135.903 E673.5426
G1 X152.238 Y136.103 E673.5664
G1 X68.717 Y52.582 E680.2969
G1 X68.15 E680.3292
G1 X151.871 Y136.302 E687.0759
G1 X151.504 Y136.502 E687.0997
G1 X67.583 Y52.582 E693.8624
G1 X67.017 E693.8947
G1 X151.137 Y136.702 E700.6735
G1 X150.77 Y136.902 E700.6973
G1 X66.45 Y52.582 E707.4923
G1 X65.883 E707.5245
G1 X150.403 Y137.102 E714.3356
G1 X150.036 Y137.302 E714.3594
G1 X65.316 Y52.582 E721.1865
G1 X64.75 E721.2188
G1 X149.669 Y137.501 E728.0621
G1 X149.302 Y137.701 E728.0859
G1 X64.183 Y52.582 E734.9452
G1 X63.616 E734.9775
G1 X148.935 Y137.901 E741.853
G1 X148.568 Y138.101 E741.8768
G1 X63.049 Y52.582 E748.7683
G1 X62.483 E748.8006
G1 X148.201 Y138.301 E755.7083
G1 X147.834 Y138.501 E755.7321
G1 X61.916 Y52.582 E762.6559
G1 X61.349 E762.6882
G1 X147.468 Y138.7 E769.628
G1 X147.101 Y138.9 E769.6518
G1 X60.782 Y52.582 E776.6078
G1 X60.216 E776.6401
G1 X146.734 Y139.1 E783.6122
G1 X146.367 Y139.3 E783.636
G1 X59.649 Y52.582 E790.6241
G1 X59.174 Y52.674 E790.6517
G1 X146 Y139.5 E797.6486
G1 X145.633 Y139.7 E797.6724
G1 X58.728 Y52.795 E804.6757
G1 X58.283 Y52.916 E804.702
G1 X145.266 Y139.899 E811.7115
G1 X144.899 Y140.099 E811.7353
G1 X57.837 Y53.037 E818.7512
G1 X57.392 Y53.159 E818.7775
G1 X144.532 Y140.299 E825.7998
G1 X144.165 Y140.499 E825.8236
G1 X56.946 Y53.28 E832.8521
G1 X56.501 Y53.401 E832.8784
G1 X143.798 Y140.699 E839.9133
G1 X143.431 Y140.899 E839.9371
G1 X56.056 Y53.523 E846.9783
G1 X55.61 Y53.644 E847.0046
G1 X143.065 Y141.098 E854.0521
G1 X142.698 Y141.298 E854.0759
G1 X55.165 Y53.765 E861.1298
G1 X54.719 Y53.887 E861.1561
G1 X142.331 Y141.498 E868.2162
G1 X141.964 Y141.698 E868.24
G1 X54.274 Y54.008 E875.3065
G1 X53.828 Y54.129 E875.3329
G1 X141.597 Y141.898 E882.4057
G1 X141.23 Y142.098 E882.4295
G1 X53.383 Y54.251 E889.5086
G1 X52.938 Y54.372 E889.5349
G1 X140.863 Y142.297 E896.6204
G1 X140.495 Y142.496 E896.6443
G1 X52.492 Y54.493 E903.736
G1 X52.047 Y54.615 E903.7623
G1 X140.126 Y142.694 E910.8602
G1 X139.757 Y142.892 E910.884
G1 X51.601 Y54.736 E917.9881
G1 X51.156 Y54.857 E918.0144
G1 X139.388 Y143.09 E925.1246
G1 X139.019 Y143.287 E925.1485
G1 X50.71 Y54.979 E932.2648
G1 X50.265 Y55.1 E932.2912
G1 X138.65 Y143.485 E939.4137
G1 X138.281 Y143.683 E939.4375
G1 X49.82 Y55.221 E946.5662
G1 X49.374 Y55.343 E946.5925
G1 X137.912 Y143.881 E953.7274
G1 X137.543 Y144.078 E953.7512
G1 X48.929 Y55.464 E960.8923
G1 X48.483 Y55.585 E960.9186
G1 X137.174 Y144.276 E968.0657
G1 X136.805 Y144.474 E968.0896
G1 X48.038 Y55.707 E975.2429
G1 X47.592 Y55.828 E975.2692
G1 X136.436 Y144.672 E982.4287
G1 X136.067 Y144.869 E982.4526
G1 X47.147 Y55.949 E989.6182
G1 X46.702 Y56.071 E989.6445
G1 X135.696 Y145.065 E996.8162
G1 X135.321 Y145.256 E996.8402
G1 X46.256 Y56.192 E1004.0175
G1 X45.811 Y56.313 E1004.0438
G1 X134.945 Y145.447 E1011.2266
G1 X134.569 Y145.638 E1011.2507
G1 X45.365 Y56.435 E1018.4391
G1 X44.92 Y56.556 E1018.4654
G1 X134.193 Y145.829 E1025.6595
G1 X133.817 Y146.02 E1025.6835
G1 X44.775 Y56.977 E1032.859
G1 Y57.544 E1032.8913
G1 X133.441 Y146.211 E1040.0365
G1 X133.065 Y146.402 E1040.0605
G1 X44.775 Y58.111 E1047.1754
G1 Y58.678 E1047.2077
G1 X132.689 Y146.592 E1054.2923
G1 X132.314 Y146.783 E1054.3164
G1 X44.775 Y59.244 E1061.3707
G1 Y59.811 E1061.403
G1 X131.938 Y146.974 E1068.4271
G1 X131.562 Y147.165 E1068.4511
G1 X44.775 Y60.378 E1075.4448
G1 Y60.945 E1075.4771
G1 X131.186 Y147.356 E1082.4406
G1 X130.81 Y147.547 E1082.4646
G1 X44.775 Y61.511 E1089.3978
G1 Y62.078 E1089.4301
G1 X130.434 Y147.738 E1096.333
G1 X130.058 Y147.929 E1096.357
G1 X44.775 Y62.645 E1103.2297
G1 X44.774 Y63.212 E1103.2619
G1 X129.683 Y148.12 E1110.1043
G1 X129.307 Y148.31 E1110.1283
G1 X44.774 Y63.778 E1116.9403
G1 Y64.345 E1116.9726
G1 X128.816 Y148.386 E1123.7451
G1 X128.212 Y148.35 E1123.7796
G1 X44.774 Y64.912 E1130.5034
G1 Y65.479 E1130.5357
G1 X127.699 Y148.404 E1137.2182
G1 X127.497 Y148.768 E1137.242
G1 X44.774 Y66.045 E1143.9082
G1 Y66.612 E1143.9405
G1 X127.294 Y149.132 E1150.5904
G1 X127.092 Y149.496 E1150.6141
G1 X44.774 Y67.179 E1157.2477
G1 Y67.745 E1157.28
G1 X126.889 Y149.86 E1163.8972
G1 X126.687 Y150.225 E1163.921
G1 X44.774 Y68.312 E1170.5219
G1 Y68.879 E1170.5542
G1 X126.508 Y150.612 E1177.1407
G1 X126.47 Y151.141 E1177.1709
G1 X44.774 Y69.446 E1183.7543
G1 Y70.012 E1183.7866
G1 X126.432 Y151.67 E1190.367
G1 X126.394 Y152.198 E1190.3972
G1 X44.774 Y70.579 E1196.9745
G1 Y71.146 E1197.0068
G1 X126.355 Y152.727 E1203.581
G1 X126.317 Y153.256 E1203.6112
G1 X44.774 Y71.713 E1210.1824
G1 Y72.279 E1210.2146
G1 X126.297 Y153.802 E1216.7841
G1 Y154.369 E1216.8164
G1 X44.774 Y72.846 E1223.3859
G1 Y73.413 E1223.4182
G1 X126.297 Y154.935 E1229.9877
G1 Y155.502 E1230.02
G1 X44.774 Y73.98 E1236.5895
G1 Y74.546 E1236.6218
G1 X126.297 Y156.069 E1243.1913
G1 Y156.636 E1243.2236
G1 X44.774 Y75.113 E1249.7931
G1 Y75.68 E1249.8254
G1 X126.297 Y157.202 E1256.3949
G1 Y157.769 E1256.4272
G1 X44.774 Y76.247 E1262.9967
G1 Y76.813 E1263.029
G1 X126.297 Y158.336 E1269.5985
G1 Y158.903 E1269.6308
G1 X44.774 Y77.38 E1276.2003
G1 Y77.947 E1276.2326
G1 X126.297 Y159.469 E1282.8022
G1 Y160.036 E1282.8344
G1 X44.774 Y78.514 E1289.404
G1 Y79.08 E1289.4363
G1 X126.297 Y160.603 E1296.0058
G1 Y161.17 E1296.0381
G1 X44.774 Y79.647 E1302.6076
G1 Y80.214 E1302.6399
G1 X126.297 Y161.736 E1309.2094
G1 Y162.303 E1309.2417
G1 X44.774 Y80.78 E1315.8112
G1 Y81.347 E1315.8435
G1 X126.297 Y162.87 E1322.413
G1 Y163.437 E1322.4453
G1 X44.774 Y81.914 E1329.0148
G1 Y82.481 E1329.0471
G1 X126.297 Y164.003 E1335.6166
G1 Y164.57 E1335.6489
G1 X44.774 Y83.047 E1342.2185
G1 Y83.614 E1342.2507
G1 X126.297 Y165.137 E1348.8203
G1 Y165.704 E1348.8526
G1 X44.774 Y84.181 E1355.4221
G1 Y84.748 E1355.4544
G1 X126.297 Y166.27 E1362.0239
G1 Y166.837 E1362.0562
G1 X44.774 Y85.314 E1368.6257
G1 Y85.881 E1368.658
G1 X108.311 Y149.418 E1373.7781
G1 X107.744 E1373.8104
G1 X44.774 Y86.448 E1378.8849
G1 Y87.015 E1378.9172
G1 X107.177 Y149.418 E1383.946
G1 X106.611 E1383.9783
G1 X44.774 Y87.581 E1388.9614
G1 Y88.148 E1388.9937
G1 X106.044 Y149.418 E1393.9311
G1 X105.477 E1393.9634
G1 X44.774 Y88.715 E1398.8552
G1 Y89.282 E1398.8875
G1 X104.91 Y149.418 E1403.7336
G1 X104.344 E1403.7659
G1 X44.774 Y89.848 E1408.5663
G1 Y90.415 E1408.5986
G1 X103.777 Y149.418 E1413.3534
G1 X103.21 E1413.3857
G1 X44.774 Y90.982 E1418.0948
G1 Y91.549 E1418.1271
G1 X102.643 Y149.418 E1422.7905
G1 X102.077 E1422.8228
G1 X44.774 Y92.115 E1427.4405
G1 Y92.682 E1427.4728
G1 X101.51 Y149.418 E1432.0449
G1 X100.943 E1432.0772
G1 X44.774 Y93.249 E1436.6036
G1 Y93.815 E1436.6359
G1 X100.376 Y149.418 E1441.1166
G1 X99.81 E1441.1489
G1 X44.774 Y94.382 E1445.584
G1 Y94.949 E1445.6163
G1 X99.243 Y149.418 E1450.0057
G1 X98.676 E1450.038
G1 X44.774 Y95.516 E1454.3817
G1 Y96.082 E1454.414
G1 X98.109 Y149.418 E1458.712
G1 X97.542 E1458.7443
G1 X44.774 Y96.649 E1462.9967
G1 Y97.216 E1463.029
G1 X96.976 Y149.418 E1467.2357
G1 X96.409 E1467.268
G1 X44.774 Y97.783 E1471.4291
G1 Y98.349 E1471.4614
G1 X95.842 Y149.418 E1475.5767
G1 X95.275 E1475.609
G1 X44.774 Y98.916 E1479.6787
G1 Y99.483 E1479.711
G1 X94.709 Y149.418 E1483.7351
G1 X94.142 E1483.7673
G1 X44.774 Y100.05 E1487.7457
G1 Y100.616 E1487.778
G1 X93.575 Y149.418 E1491.7107
G1 X93.008 E1491.743
G1 X44.774 Y101.183 E1495.63
G1 Y101.75 E1495.6623
G1 X92.442 Y149.418 E1499.5036
G1 X91.875 E1499.5359
G1 X44.774 Y102.317 E1503.3316
G1 X44.773 Y102.883 E1503.3639
G1 X91.308 Y149.418 E1507.1139
G1 X90.741 E1507.1462
G1 X44.773 Y103.45 E1510.8505
G1 Y104.017 E1510.8828
G1 X90.175 Y149.418 E1514.5415
G1 X89.608 E1514.5738
G1 X44.773 Y104.584 E1518.1868
G1 Y105.15 E1518.2191
G1 X89.041 Y149.418 E1521.7864
G1 X88.474 E1521.8187
G1 X44.773 Y105.717 E1525.3403
G1 Y106.284 E1525.3726
G1 X87.908 Y149.418 E1528.8486
G1 X87.341 E1528.8809
G1 X44.773 Y106.85 E1532.3112
G1 Y107.417 E1532.3435
G1 X86.774 Y149.418 E1535.7282
G1 X86.207 E1535.7605
G1 X44.773 Y107.984 E1539.0994
G1 Y108.551 E1539.1317
G1 X85.641 Y149.418 E1542.425
G1 X85.074 E1542.4573
G1 X44.773 Y109.117 E1545.7049
G1 Y109.684 E1545.7372
G1 X84.507 Y149.418 E1548.9392
G1 X83.94 E1548.9715
G1 X44.773 Y110.251 E1552.1278
G1 Y110.818 E1552.1601
G1 X83.374 Y149.418 E1555.2707
G1 X82.807 E1555.303
G1 X44.773 Y111.384 E1558.3679
G1 Y111.951 E1558.4002
G1 X82.24 Y149.418 E1561.4195
G1 X81.673 E1561.4518
G1 X44.773 Y112.518 E1564.4254
G1 Y113.085 E1564.4577
G1 X81.107 Y149.418 E1567.3856
G1 X80.54 E1567.4179
G1 X44.773 Y113.651 E1570.3002
G1 Y114.218 E1570.3324
G1 X79.973 Y149.418 E1573.169
G1 X79.406 E1573.2013
G1 X44.773 Y114.785 E1575.9922
G1 Y115.352 E1576.0245
G1 X78.84 Y149.418 E1578.7698
G1 X78.273 E1578.8021
G1 X44.773 Y115.918 E1581.5017
G1 Y116.485 E1581.534
G1 X77.706 Y149.418 E1584.1879
G1 X77.139 E1584.2202
G1 X44.773 Y117.052 E1586.8284
G1 Y117.619 E1586.8607
G1 X76.573 Y149.418 E1589.4233
G1 X76.006 E1589.4555
G1 X44.773 Y118.185 E1591.9724
G1 Y118.752 E1592.0047
G1 X75.439 Y149.418 E1594.476
G1 X74.872 E1594.5083
G1 X44.773 Y119.319 E1596.9338
G1 Y119.885 E1596.9661
G1 X74.306 Y149.418 E1599.346
G1 X73.739 E1599.3783
G1 X44.773 Y120.452 E1601.7125
G1 Y121.019 E1601.7448
G1 X73.172 Y149.418 E1604.0333
G1 X72.605 E1604.0656
G1 X44.773 Y121.586 E1606.3085
G1 Y122.152 E1606.3408
G1 X72.039 Y149.418 E1608.538
G1 X71.472 E1608.5703
G1 X44.773 Y122.719 E1610.7218
G1 Y123.286 E1610.7541
G1 X70.905 Y149.418 E1612.86
G1 X70.338 E1612.8922
G1 X44.773 Y123.853 E1614.9524
G1 Y124.419 E1614.9847
G1 X69.772 Y149.418 E1616.9992
G1 X69.205 E1617.0315
G1 X44.773 Y124.986 E1619.0004
G1 Y125.553 E1619.0327
G1 X68.638 Y149.418 E1620.9559
G1 X68.071 E1620.9881
G1 X44.773 Y126.12 E1622.8656
G1 Y126.686 E1622.8979
G1 X67.505 Y149.418 E1624.7298
G1 X66.938 E1624.7621
G1 X44.773 Y127.253 E1626.5482
G1 Y127.82 E1626.5805
G1 X66.371 Y149.418 E1628.321
G1 X65.804 E1628.3533
G1 X44.773 Y128.387 E1630.0481
G1 Y128.953 E1630.0804
G1 X65.238 Y149.418 E1631.7296
G1 X64.671 E1631.7619
G1 X44.773 Y129.52 E1633.3654
G1 Y130.087 E1633.3976
G1 X64.104 Y149.418 E1634.9555
G1 X63.537 E1634.9877
G1 X44.773 Y130.654 E1636.4999
G1 Y131.22 E1636.5322
G1 X62.971 Y149.418 E1637.9986
G1 X62.404 E1638.0309
G1 X44.773 Y131.787 E1639.4517
G1 Y132.354 E1639.484
G1 X61.837 Y149.418 E1640.8592
G1 X61.27 E1640.8914
G1 X44.773 Y132.92 E1642.2209
G1 Y133.487 E1642.2532
G1 X60.704 Y149.418 E1643.537
G1 X60.137 E1643.5693
G1 X44.773 Y134.054 E1644.8074
G1 Y134.621 E1644.8397
G1 X59.57 Y149.418 E1646.0321
G1 X58.814 Y149.228 E1646.0766
G1 X44.773 Y135.187 E1647.208
G1 Y135.754 E1647.2403
G1 X58.035 Y149.016 E1648.3091
G1 X57.256 Y148.804 E1648.3551
G1 X44.773 Y136.321 E1649.361
G1 Y136.888 E1649.3933
G1 X56.477 Y148.592 E1650.3365
G1 X55.698 Y148.38 E1650.3825
G1 X44.773 Y137.454 E1651.263
G1 Y138.021 E1651.2952
G1 X54.919 Y148.168 E1652.1129
G1 X54.14 Y147.956 E1652.1589
G1 X44.773 Y138.588 E1652.9138
G1 Y139.155 E1652.9461
G1 X53.361 Y147.743 E1653.6382
G1 X52.582 Y147.531 E1653.6842
G1 X44.773 Y139.721 E1654.3136
G1 Y140.288 E1654.3459
G1 X51.804 Y147.319 E1654.9125
G1 X51.025 Y147.107 E1654.9585
G1 X44.773 Y140.855 E1655.4623
G1 Y141.422 E1655.4946
G1 X50.246 Y146.895 E1655.9356
G1 X49.467 Y146.683 E1655.9816
G1 X44.773 Y141.988 E1656.3599
G1 X44.772 Y142.555 E1656.3922
G1 X48.688 Y146.47 E1656.7078
G1 X47.909 Y146.258 E1656.7538
G1 X44.772 Y143.122 E1657.0065
G1 Y143.689 E1657.0388
G1 X47.13 Y146.046 E1657.2288
G1 X46.351 Y145.834 E1657.2748
G1 X44.772 Y144.255 E1657.402
G1 Y144.822 E1657.4343
G1 X45.572 Y145.622 E1657.4988
G1 X44.78 Y145.397 E1657.5457
G1 E1656.7457 F2400
G92 E0
; Repositioning with retraction
G1 X108.669 Y149.776 F3600
G1 E0.8 F2400
G92 E0
; Infill
G1 X126.297 Y167.404 E1.4205 F3600
G1 Y167.971 E1.4528
G1 X108.669 Y150.343 E2.8733
G1 Y150.91 E2.9056
G1 X126.297 Y168.537 E4.3261
G1 Y169.104 E4.3584
G1 X108.669 Y151.477 E5.7789
G1 Y152.043 E5.8112
G1 X126.297 Y169.671 E7.2318
G1 Y170.238 E7.2641
G1 X108.669 Y152.61 E8.6846
G1 Y153.177 E8.7169
G1 X126.297 Y170.804 E10.1374
G1 Y171.371 E10.1697
G1 X108.669 Y153.744 E11.5902
G1 Y154.31 E11.6225
G1 X126.297 Y171.938 E13.043
G1 Y172.505 E13.0753
G1 X108.669 Y154.877 E14.4958
G1 Y155.444 E14.5281
G1 X126.297 Y173.071 E15.9486
G1 Y173.638 E15.9809
G1 X108.669 Y156.011 E17.4014
G1 Y156.577 E17.4337
G1 X126.297 Y174.205 E18.8542
G1 Y174.772 E18.8865
G1 X108.669 Y157.144 E20.3071
G1 Y157.711 E20.3394
G1 X126.297 Y175.338 E21.7599
G1 Y175.905 E21.7922
G1 X108.669 Y158.278 E23.2127
G1 Y158.844 E23.245
G1 X126.297 Y176.472 E24.6655
G1 Y177.039 E24.6978
G1 X108.669 Y159.411 E26.1183
G1 Y159.978 E26.1506
G1 X126.297 Y177.606 E27.5711
G1 Y178.172 E27.6034
G1 X108.669 Y160.545 E29.0239
G1 Y161.111 E29.0562
G1 X126.297 Y178.739 E30.4767
G1 Y179.306 E30.509
G1 X108.669 Y161.678 E31.9295
G1 Y162.245 E31.9618
G1 X126.297 Y179.873 E33.3824
G1 Y180.439 E33.4146
G1 X108.669 Y162.812 E34.8352
G1 Y163.379 E34.8675
G1 X126.297 Y181.006 E36.288
G1 Y181.573 E36.3203
G1 X108.669 Y163.945 E37.7408
G1 Y164.512 E37.7731
G1 X126.297 Y182.14 E39.1936
G1 Y182.706 E39.2259
G1 X108.669 Y165.079 E40.6464
G1 Y165.646 E40.6787
G1 X126.297 Y183.273 E42.0992
G1 Y183.84 E42.1315
G1 X108.669 Y166.212 E43.552
G1 Y166.779 E43.5843
G1 X126.297 Y184.407 E45.0048
G1 Y184.973 E45.0371
G1 X108.669 Y167.346 E46.4577
G1 Y167.913 E46.4899
G1 X126.297 Y185.54 E47.9105
G1 Y186.107 E47.9428
G1 X108.669 Y168.479 E49.3633
G1 Y169.046 E49.3956
G1 X126.297 Y186.674 E50.8161
G1 Y187.24 E50.8484
G1 X108.669 Y169.613 E52.2689
G1 Y170.18 E52.3012
G1 X126.297 Y187.807 E53.7217
G1 Y188.374 E53.754
G1 X108.669 Y170.746 E55.1745
G1 Y171.313 E55.2068
G1 X126.297 Y188.941 E56.6273
G1 Y189.507 E56.6596
G1 X108.669 Y171.88 E58.0801
G1 Y172.447 E58.1124
G1 X126.297 Y190.074 E59.5329
G1 Y190.641 E59.5652
G1 X108.669 Y173.013 E60.9858
G1 Y173.58 E61.0181
G1 X126.297 Y191.208 E62.4386
G1 Y191.774 E62.4709
G1 X108.669 Y174.147 E63.8914
G1 Y174.714 E63.9237
G1 X126.297 Y192.341 E65.3442
G1 Y192.908 E65.3765
G1 X108.669 Y175.28 E66.797
G1 Y175.847 E66.8293
G1 X126.297 Y193.475 E68.2498
G1 Y194.041 E68.2821
G1 X108.669 Y176.414 E69.7026
G1 Y176.981 E69.7349
G1 X126.297 Y194.608 E71.1554
G1 Y195.175 E71.1877
G1 X108.669 Y177.547 E72.6082
G1 Y178.114 E72.6405
G1 X126.297 Y195.742 E74.0611
G1 Y196.308 E74.0934
G1 X108.669 Y178.681 E75.5139
G1 Y179.248 E75.5462
G1 X126.297 Y196.875 E76.9667
G1 Y197.442 E76.999
G1 X108.669 Y179.814 E78.4195
G1 Y180.381 E78.4518
G1 X126.297 Y198.009 E79.8723
G1 Y198.575 E79.9046
G1 X108.669 Y180.948 E81.3251
G1 Y181.515 E81.3574
G1 X126.109 Y198.955 E82.7628
G1 X125.543 E82.7951
G1 X108.669 Y182.081 E84.1549
G1 Y182.648 E84.1872
G1 X124.976 Y198.955 E85.5012
G1 X124.409 E85.5335
G1 X108.669 Y183.215 E86.8019
G1 Y183.782 E86.8342
G1 X123.842 Y198.955 E88.057
G1 X123.276 E88.0893
G1 X108.669 Y184.348 E89.2663
G1 Y184.915 E89.2986
G1 X122.709 Y198.955 E90.43
G1 X122.142 E90.4623
G1 X108.669 Y185.482 E91.548
G1 Y186.049 E91.5803
G1 X121.575 Y198.955 E92.6204
G1 X121.009 E92.6527
G1 X108.669 Y186.615 E93.647
G1 Y187.182 E93.6793
G1 X120.442 Y198.955 E94.628
G1 X119.875 E94.6603
G1 X108.669 Y187.749 E95.5634
G1 Y188.316 E95.5957
G1 X119.308 Y198.955 E96.453
G1 X118.742 E96.4853
G1 X108.669 Y188.882 E97.297
G1 Y189.449 E97.3293
G1 X118.175 Y198.955 E98.0953
G1 X117.608 E98.1276
G1 X108.669 Y190.016 E98.848
G1 Y190.583 E98.8803
G1 X117.041 Y198.955 E99.5549
G1 X116.475 E99.5872
G1 X108.669 Y191.149 E100.2162
G1 Y191.716 E100.2485
G1 X115.908 Y198.955 E100.8318
G1 X115.341 E100.8641
G1 X108.669 Y192.283 E101.4018
G1 Y192.85 E101.4341
G1 X114.774 Y198.955 E101.9261
G1 X114.208 E101.9584
G1 X108.669 Y193.416 E102.4047
G1 Y193.983 E102.437
G1 X113.641 Y198.955 E102.8376
G1 X113.074 E102.8699
G1 X108.669 Y194.55 E103.2249
G1 Y195.117 E103.2572
G1 X112.507 Y198.955 E103.5665
G1 X111.941 E103.5988
G1 X108.669 Y195.683 E103.8624
G1 Y196.25 E103.8947
G1 X111.374 Y198.955 E104.1126
G1 X110.807 E104.1449
G1 X108.669 Y196.817 E104.3172
G1 Y197.384 E104.3495
G1 X110.24 Y198.955 E104.4761
G1 X109.674 E104.5084
G1 X108.669 Y197.95 E104.5893
G1 Y198.517 E104.6216
G1 X109.107 Y198.955 E104.6569
G1 E103.8569 F2400
G92 E0
              ; New Layer
; layer 1, Z = 0.439
; Repositioning
M106 P0 S0
G0 Z0.439 F1800
; Repositioning with retraction
G1 X108.654 Y52.31 F27000
G1 E0.8 F2400
G92 E0
; Contour
G1 X59.473 E1.554 F14210.526
G1 X45.943 Y55.995 E1.997
G1 X44.467 Y56.431 E2.0457
G1 X44.463 Y145.568 E4.8622
G1 X45.943 Y146.005 E4.911
G1 X59.473 Y149.69 E5.354
G1 X108.654 E6.908
G1 Y198.002 E8.4345
G1 X126.323 E8.9928
G1 Y155.728 E10.3286
G1 X126.691 Y150.617 E10.4905
G1 X128.294 Y147.734 E10.5947
G1 X130.25 Y147.853 E10.6567
G1 X142.92 Y141.418 E11.1057
G1 X173.604 Y124.784 E12.2085
G1 Y77.216 E13.7115
G1 X142.92 Y60.582 E14.8144
G1 X130.25 Y54.147 E15.2634
G1 X128.294 Y54.266 E15.3253
G1 X126.691 Y51.383 E15.4295
G1 X126.323 Y46.272 E15.5914
G1 Y3.998 E16.9272
G1 X108.654 E17.4855
G1 Y52.31 E19.012
G92 E0
; Repositioning
G1 X108.284 Y51.94 F27000
; Contour
G1 X59.424 E1.5438 F12000
G1 X45.842 Y55.639 E1.9886
G1 X44.097 Y56.154 E2.0461
G1 X44.093 Y145.845 E4.8801
G1 X45.842 Y146.361 E4.9377
G1 X59.424 Y150.06 E5.3825
G1 X108.284 E6.9263
G1 Y198.372 E8.4529
G1 X126.693 E9.0345
G1 Y155.742 E10.3816
G1 X127.054 Y150.725 E10.5405
G1 X128.505 Y148.117 E10.6348
G1 X130.328 Y148.228 E10.6925
G1 X143.091 Y141.746 E11.1448
G1 X173.974 Y125.004 E12.2548
G1 Y76.996 E13.7717
G1 X143.091 Y60.254 E14.8817
G1 X130.328 Y53.772 E15.334
G1 X128.505 Y53.883 E15.3917
G1 X127.054 Y51.275 E15.486
G1 X126.693 Y46.258 E15.6449
G1 Y3.628 E16.9919
G1 X108.284 E17.5736
G1 Y51.94 E19.1002
G92 E0
; Repositioning
G1 X107.914 Y51.57 F27000
; Contour
G1 X59.374 E1.5337 F12000
G1 X45.741 Y55.283 E1.9802
G1 X43.877 Y55.833 E2.0416
G1 X43.727 Y55.872 E2.0465
G1 X43.723 Y146.13 E4.8984
G1 X43.872 Y146.166 E4.9032
G1 X45.741 Y146.717 E4.9648
G1 X59.374 Y150.43 E5.4113
G1 X107.914 E6.945
G1 Y198.742 E8.4715
G1 X127.063 E9.0766
G1 Y155.755 E10.4349
G1 X127.418 Y150.833 E10.5908
G1 X128.715 Y148.501 E10.6751
G1 X130.406 Y148.604 E10.7286
G1 X143.262 Y142.074 E11.1843
G1 X174.344 Y125.224 E12.3014
G1 Y76.776 E13.8322
G1 X143.262 Y59.926 E14.9493
G1 X130.406 Y53.396 E15.405
G1 X128.715 Y53.499 E15.4585
G1 X127.418 Y51.167 E15.5428
G1 X127.063 Y46.245 E15.6987
G1 Y3.258 E17.057
G1 X107.914 E17.6621
G1 Y51.57 E19.1886
G92 E0
; Repositioning
G1 X107.544 Y51.2 F27000
; Contour
G1 X59.325 E1.5236 F12000
G1 X45.641 Y54.927 E1.9717
G1 X43.778 Y55.476 E2.0331
G1 X43.357 Y55.585 E2.0468
G1 X43.353 Y146.419 E4.9169
G1 X43.395 Y146.432 E4.9183
G1 X43.776 Y146.523 E4.9307
G1 X45.641 Y147.073 E4.9921
G1 X59.325 Y150.8 E5.4402
G1 X107.544 E6.9638
G1 Y199.112 E8.4903
G1 X127.433 E9.1188
G1 Y155.768 E10.4884
G1 X127.781 Y150.941 E10.6413
G1 X128.925 Y148.884 E10.7157
G1 X130.484 Y148.979 E10.765
G1 X143.434 Y142.402 E11.2239
G1 X174.714 Y125.444 E12.3482
G1 Y76.556 E13.8929
G1 X143.434 Y59.598 E15.0172
G1 X130.484 Y53.021 E15.4761
G1 X128.925 Y53.116 E15.5255
G1 X127.781 Y51.059 E15.5999
G1 X127.433 Y46.232 E15.7528
G1 Y2.888 E17.1223
G1 X107.544 E17.7508
G1 Y51.2 E19.2773
G1 E18.4773 F2400
G92 E0
; Repositioning with retraction
G1 X108.787 Y52.582 F27000
G1 E0.8 F2400
G92 E0
; Infill
G1 X44.736 Y116.633 E2.8632 F14205.192
G1 Y116.067 E2.8811
G1 X108.221 Y52.582 E5.719
G1 X107.655 E5.7369
G1 X44.736 Y115.501 E8.5495
G1 Y114.935 E8.5674
G1 X107.089 Y52.582 E11.3547
G1 X106.524 E11.3726
G1 X44.736 Y114.369 E14.1346
G1 Y113.803 E14.1525
G1 X105.958 Y52.582 E16.8892
G1 X105.392 E16.9071
G1 X44.736 Y113.238 E19.6185
G1 Y112.672 E19.6364
G1 X104.826 Y52.582 E22.3225
G1 X104.26 E22.3404
G1 X44.736 Y112.106 E25.0012
G1 Y111.54 E25.0191
G1 X103.694 Y52.582 E27.6546
G1 X103.128 E27.6725
G1 X44.736 Y110.974 E30.2827
G1 Y110.408 E30.3006
G1 X102.562 Y52.582 E32.8856
G1 X101.996 E32.9034
G1 X44.736 Y109.842 E35.4631
G1 Y109.276 E35.481
G1 X101.43 Y52.582 E38.0153
G1 X100.865 E38.0332
G1 X44.736 Y108.71 E40.5422
G1 Y108.144 E40.5601
G1 X100.299 Y52.582 E43.0438
G1 X99.733 E43.0617
G1 X44.736 Y107.578 E45.5202
G1 Y107.012 E45.5381
G1 X99.167 Y52.582 E47.9712
G1 X98.601 E47.9891
G1 X44.737 Y106.446 E50.3969
G1 Y105.881 E50.4148
G1 X98.035 Y52.582 E52.7974
G1 X97.469 E52.8153
G1 X44.737 Y105.315 E55.1725
G1 Y104.749 E55.1904
G1 X96.903 Y52.582 E57.5223
G1 X96.337 E57.5402
G1 X44.737 Y104.183 E59.8469
G1 Y103.617 E59.8648
G1 X95.772 Y52.582 E62.1461
G1 X95.206 E62.164
G1 X44.737 Y103.051 E64.4201
G1 Y102.485 E64.438
G1 X94.64 Y52.582 E66.6687
G1 X94.074 E66.6866
G1 X44.737 Y101.919 E68.8921
G1 Y101.353 E68.9099
G1 X93.508 Y52.582 E71.0901
G1 X92.942 E71.108
G1 X44.737 Y100.787 E73.2629
G1 Y100.221 E73.2807
G1 X92.376 Y52.582 E75.4103
G1 X91.81 E75.4282
G1 X44.737 Y99.655 E77.5325
G1 Y99.089 E77.5504
G1 X91.244 Y52.582 E79.6293
G1 X90.678 E79.6472
G1 X44.737 Y98.524 E81.7009
G1 Y97.958 E81.7188
G1 X90.113 Y52.582 E83.7472
G1 X89.547 E83.765
G1 X44.737 Y97.392 E85.7681
G1 Y96.826 E85.786
G1 X88.981 Y52.582 E87.7638
G1 X88.415 E87.7817
G1 X44.737 Y96.26 E89.7342
G1 Y95.694 E89.752
G1 X87.849 Y52.582 E91.6792
G1 X87.283 E91.6971
G1 X44.737 Y95.128 E93.599
G1 Y94.562 E93.6169
G1 X86.717 Y52.582 E95.4935
G1 X86.151 E95.5114
G1 X44.737 Y93.996 E97.3627
G1 Y93.43 E97.3805
G1 X85.585 Y52.582 E99.2065
G1 X85.019 E99.2244
G1 X44.737 Y92.864 E101.0251
G1 Y92.298 E101.043
G1 X84.454 Y52.582 E102.8184
G1 X83.888 E102.8363
G1 X44.737 Y91.732 E104.5864
G1 Y91.167 E104.6043
G1 X83.322 Y52.582 E106.3291
G1 X82.756 E106.347
G1 X44.737 Y90.601 E108.0465
G1 Y90.035 E108.0644
G1 X82.19 Y52.582 E109.7386
G1 X81.624 E109.7565
G1 X44.737 Y89.469 E111.4054
G1 Y88.903 E111.4233
G1 X81.058 Y52.582 E113.0469
G1 X80.492 E113.0648
G1 X44.737 Y88.337 E114.6631
G1 Y87.771 E114.681
G1 X79.926 Y52.582 E116.254
G1 X79.36 E116.2719
G1 X44.737 Y87.205 E117.8196
G1 Y86.639 E117.8375
G1 X78.795 Y52.582 E119.3599
G1 X78.229 E119.3778
G1 X44.737 Y86.073 E120.8749
G1 Y85.507 E120.8928
G1 X77.663 Y52.582 E122.3646
G1 X77.097 E122.3825
G1 X44.738 Y84.941 E123.829
G1 Y84.375 E123.8469
G1 X76.531 Y52.582 E125.2681
G1 X75.965 E125.286
G1 X44.738 Y83.81 E126.6819
G1 Y83.244 E126.6998
G1 X75.399 Y52.582 E128.0705
G1 X74.833 E128.0884
G1 X44.738 Y82.678 E129.4337
G1 Y82.112 E129.4516
G1 X74.267 Y52.582 E130.7716
G1 X73.702 E130.7895
G1 X44.738 Y81.546 E132.0842
G1 Y80.98 E132.1021
G1 X73.136 Y52.582 E133.3716
G1 X72.57 E133.3895
G1 X44.738 Y80.414 E134.6336
G1 Y79.848 E134.6515
G1 X72.004 Y52.582 E135.8703
G1 X71.438 E135.8882
G1 X44.738 Y79.282 E137.0818
G1 Y78.716 E137.0996
G1 X70.872 Y52.582 E138.2679
G1 X70.306 E138.2858
G1 X44.738 Y78.15 E139.4287
G1 Y77.584 E139.4466
G1 X69.74 Y52.582 E140.5643
G1 X69.174 E140.5822
G1 X44.738 Y77.018 E141.6745
G1 Y76.453 E141.6924
G1 X68.608 Y52.582 E142.7595
G1 X68.043 E142.7774
G1 X44.738 Y75.887 E143.8191
G1 Y75.321 E143.837
G1 X67.477 Y52.582 E144.8535
G1 X66.911 E144.8714
G1 X44.738 Y74.755 E145.8625
G1 Y74.189 E145.8804
G1 X66.345 Y52.582 E146.8463
G1 X65.779 E146.8642
G1 X44.738 Y73.623 E147.8047
G1 Y73.057 E147.8226
G1 X65.213 Y52.582 E148.7379
G1 X64.647 E148.7558
G1 X44.738 Y72.491 E149.6457
G1 Y71.925 E149.6636
G1 X64.081 Y52.582 E150.5283
G1 X63.515 E150.5462
G1 X44.738 Y71.359 E151.3856
G1 Y70.793 E151.4035
G1 X62.949 Y52.582 E152.2175
G1 X62.384 E152.2354
G1 X44.738 Y70.227 E153.0242
G1 Y69.661 E153.0421
G1 X61.818 Y52.582 E153.8056
G1 X61.252 E153.8235
G1 X44.738 Y69.096 E154.5617
G1 Y68.53 E154.5795
G1 X60.686 Y52.582 E155.2924
G1 X60.12 E155.3103
G1 X44.738 Y67.964 E155.9979
G1 Y67.398 E156.0158
G1 X59.554 Y52.582 E156.6781
G1 X58.793 Y52.777 E156.7029
G1 X44.738 Y66.832 E157.3312
G1 Y66.266 E157.3491
G1 X58.015 Y52.989 E157.9426
G1 X57.238 Y53.201 E157.9681
G1 X44.738 Y65.7 E158.5268
G1 Y65.134 E158.5447
G1 X56.46 Y53.413 E159.0687
G1 X55.682 Y53.625 E159.0941
G1 X44.738 Y64.568 E159.5833
G1 Y64.002 E159.6012
G1 X54.904 Y53.836 E160.0557
G1 X54.127 Y54.048 E160.0811
G1 X44.739 Y63.436 E160.5008
G1 Y62.87 E160.5187
G1 X53.349 Y54.26 E160.9036
G1 X52.571 Y54.472 E160.9291
G1 X44.739 Y62.304 E161.2792
G1 Y61.739 E161.2971
G1 X51.793 Y54.684 E161.6125
G1 X51.016 Y54.896 E161.6379
G1 X44.739 Y61.173 E161.9185
G1 Y60.607 E161.9364
G1 X50.238 Y55.107 E162.1823
G1 X49.46 Y55.319 E162.2077
G1 X44.739 Y60.041 E162.4188
G1 Y59.475 E162.4367
G1 X48.683 Y55.531 E162.613
G1 X47.905 Y55.743 E162.6385
G1 X44.739 Y58.909 E162.78
G1 Y58.343 E162.7979
G1 X47.127 Y55.955 E162.9046
G1 X46.349 Y56.167 E162.9301
G1 X44.739 Y57.777 E163.0021
G1 Y57.211 E163.02
G1 X45.557 Y56.393 E163.0566
G1 X44.747 Y56.637 E163.0834
G1 E162.2834 F2400
G92 E0
; Repositioning with retraction
G1 X109.344 Y51 F27000
G1 X108.962 Y4.306
G1 E0.8 F2400
G92 E0
; Infill
G1 X108.926 Y4.908 E0.0191 F14205.192
G1 X109.564 Y4.27 E0.0476
G1 X110.13 E0.0655
G1 X108.926 Y5.474 E0.1193
G1 Y6.04 E0.1372
G1 X110.696 Y4.27 E0.2164
G1 X111.262 E0.2343
G1 X108.926 Y6.606 E0.3387
G1 Y7.172 E0.3566
G1 X111.828 Y4.27 E0.4863
G1 X112.394 E0.5042
G1 X108.926 Y7.738 E0.6592
G1 Y8.304 E0.6771
G1 X112.96 Y4.27 E0.8574
G1 X113.526 E0.8753
G1 X108.926 Y8.869 E1.081
G1 Y9.435 E1.0988
G1 X114.091 Y4.27 E1.3298
G1 X114.657 E1.3476
G1 X108.926 Y10.001 E1.6039
G1 Y10.567 E1.6218
G1 X115.223 Y4.27 E1.9033
G1 X115.789 E1.9212
G1 X108.926 Y11.133 E2.228
G1 Y11.699 E2.2458
G1 X116.355 Y4.27 E2.578
G1 X116.921 E2.5958
G1 X108.926 Y12.265 E2.9532
G1 Y12.831 E2.9711
G1 X117.487 Y4.27 E3.3538
G1 X118.053 E3.3717
G1 X108.926 Y13.397 E3.7797
G1 Y13.962 E3.7976
G1 X118.619 Y4.27 E4.2309
G1 X119.184 E4.2488
G1 X108.926 Y14.528 E4.7074
G1 Y15.094 E4.7253
G1 X119.75 Y4.27 E5.2091
G1 X120.316 E5.227
G1 X108.926 Y15.66 E5.7362
G1 Y16.226 E5.7541
G1 X120.882 Y4.27 E6.2886
G1 X121.448 E6.3065
G1 X108.926 Y16.792 E6.8662
G1 Y17.358 E6.8841
G1 X122.014 Y4.27 E7.4692
G1 X122.58 E7.4871
G1 X108.926 Y17.924 E8.0975
G1 Y18.49 E8.1153
G1 X123.146 Y4.27 E8.751
G1 X123.712 E8.7689
G1 X108.926 Y19.056 E9.4299
G1 Y19.621 E9.4477
G1 X124.278 Y4.27 E10.134
G1 X124.843 E10.1519
G1 X108.926 Y20.187 E10.8634
G1 Y20.753 E10.8813
G1 X125.409 Y4.27 E11.6182
G1 X125.975 E11.6361
G1 X108.926 Y21.319 E12.3982
G1 Y21.885 E12.4161
G1 X126.051 Y4.759 E13.1817
G1 Y5.325 E13.1996
G1 X108.926 Y22.451 E13.9651
G1 Y23.017 E13.983
G1 X126.051 Y5.891 E14.7486
G1 Y6.457 E14.7664
G1 X108.926 Y23.583 E15.532
G1 Y24.149 E15.5499
G1 X126.051 Y7.023 E16.3154
G1 Y7.589 E16.3333
G1 X108.926 Y24.715 E17.0989
G1 Y25.28 E17.1168
G1 X126.051 Y8.155 E17.8823
G1 Y8.721 E17.9002
G1 X108.926 Y25.846 E18.6658
G1 Y26.412 E18.6836
G1 X126.051 Y9.286 E19.4492
G1 Y9.852 E19.4671
G1 X108.926 Y26.978 E20.2326
G1 Y27.544 E20.2505
G1 X126.051 Y10.418 E21.0161
G1 Y10.984 E21.034
G1 X108.926 Y28.11 E21.7995
G1 Y28.676 E21.8174
G1 X126.051 Y11.55 E22.583
G1 Y12.116 E22.6009
G1 X108.926 Y29.242 E23.3664
G1 Y29.808 E23.3843
G1 X126.051 Y12.682 E24.1499
G1 Y13.248 E24.1677
G1 X108.926 Y30.374 E24.9333
G1 Y30.939 E24.9512
G1 X126.051 Y13.814 E25.7167
G1 Y14.38 E25.7346
G1 X108.926 Y31.505 E26.5002
G1 Y32.071 E26.5181
G1 X126.051 Y14.945 E27.2836
G1 Y15.511 E27.3015
G1 X108.926 Y32.637 E28.0671
G1 Y33.203 E28.0849
G1 X126.051 Y16.077 E28.8505
G1 Y16.643 E28.8684
G1 X108.926 Y33.769 E29.6339
G1 Y34.335 E29.6518
G1 X126.051 Y17.209 E30.4174
G1 Y17.775 E30.4353
G1 X108.926 Y34.901 E31.2008
G1 Y35.467 E31.2187
G1 X126.051 Y18.341 E31.9843
G1 Y18.907 E32.0022
G1 X108.926 Y36.032 E32.7677
G1 Y36.598 E32.7856
G1 X126.051 Y19.473 E33.5512
G1 Y20.038 E33.569
G1 X108.926 Y37.164 E34.3346
G1 Y37.73 E34.3525
G1 X126.051 Y20.604 E35.118
G1 Y21.17 E35.1359
G1 X108.926 Y38.296 E35.9015
G1 Y38.862 E35.9194
G1 X126.051 Y21.736 E36.6849
G1 Y22.302 E36.7028
G1 X108.926 Y39.428 E37.4684
G1 Y39.994 E37.4862
G1 X126.051 Y22.868 E38.2518
G1 Y23.434 E38.2697
G1 X108.926 Y40.56 E39.0352
G1 Y41.126 E39.0531
G1 X126.051 Y24 E39.8187
G1 Y24.566 E39.8366
G1 X108.926 Y41.691 E40.6021
G1 Y42.257 E40.62
G1 X126.051 Y25.132 E41.3856
G1 Y25.697 E41.4035
G1 X108.926 Y42.823 E42.169
G1 Y43.389 E42.1869
G1 X126.051 Y26.263 E42.9525
G1 Y26.829 E42.9703
G1 X108.926 Y43.955 E43.7359
G1 Y44.521 E43.7538
G1 X126.051 Y27.395 E44.5193
G1 Y27.961 E44.5372
G1 X108.926 Y45.087 E45.3028
G1 Y45.653 E45.3207
G1 X126.051 Y28.527 E46.0862
G1 Y29.093 E46.1041
G1 X108.926 Y46.219 E46.8697
G1 Y46.785 E46.8875
G1 X126.051 Y29.659 E47.6531
G1 Y30.225 E47.671
G1 X108.926 Y47.35 E48.4365
G1 Y47.916 E48.4544
G1 X126.051 Y30.791 E49.22
G1 Y31.356 E49.2379
G1 X108.926 Y48.482 E50.0034
G1 Y49.048 E50.0213
G1 X126.051 Y31.922 E50.7869
G1 Y32.488 E50.8048
G1 X108.926 Y49.614 E51.5703
G1 Y50.18 E51.5882
G1 X126.051 Y33.054 E52.3538
G1 Y33.62 E52.3716
G1 X108.926 Y50.746 E53.1372
G1 Y51.312 E53.1551
G1 X126.051 Y34.186 E53.9206
G1 Y34.752 E53.9385
G1 X108.926 Y51.878 E54.7041
G1 Y52.443 E54.722
G1 X126.051 Y35.318 E55.4875
G1 Y35.884 E55.5054
G1 X44.736 Y117.199 E59.1404
G1 Y117.765 E59.1582
G1 X126.051 Y36.45 E62.7932
G1 Y37.015 E62.8111
G1 X44.736 Y118.331 E66.446
G1 Y118.897 E66.4639
G1 X126.051 Y37.581 E70.0989
G1 Y38.147 E70.1168
G1 X44.736 Y119.463 E73.7517
G1 Y120.029 E73.7696
G1 X126.051 Y38.713 E77.4046
G1 Y39.279 E77.4225
G1 X44.736 Y120.595 E81.0574
G1 Y121.16 E81.0753
G1 X126.051 Y39.845 E84.7103
G1 Y40.411 E84.7282
G1 X44.736 Y121.726 E88.3631
G1 Y122.292 E88.381
G1 X126.051 Y40.977 E92.016
G1 Y41.543 E92.0338
G1 X44.736 Y122.858 E95.6688
G1 Y123.424 E95.6867
G1 X126.051 Y42.108 E99.3217
G1 Y42.674 E99.3396
G1 X44.736 Y123.99 E102.9745
G1 Y124.556 E102.9924
G1 X126.051 Y43.24 E106.6274
G1 Y43.806 E106.6453
G1 X44.736 Y125.122 E110.2802
G1 Y125.688 E110.2981
G1 X126.051 Y44.372 E113.9331
G1 Y44.938 E113.951
G1 X44.736 Y126.254 E117.5859
G1 Y126.82 E117.6038
G1 X126.051 Y45.504 E121.2388
G1 Y46.07 E121.2567
G1 X44.736 Y127.386 E124.8917
G1 Y127.952 E124.9095
G1 X126.075 Y46.612 E128.5456
G1 X126.113 Y47.14 E128.5623
G1 X44.735 Y128.518 E132.2001
G1 Y129.083 E132.2179
G1 X126.151 Y47.668 E135.8574
G1 X126.189 Y48.196 E135.8741
G1 X44.735 Y129.649 E139.5152
G1 Y130.215 E139.5331
G1 X126.227 Y48.724 E143.176
G1 X126.265 Y49.251 E143.1927
G1 X44.735 Y130.781 E146.8372
G1 Y131.347 E146.8551
G1 X126.303 Y49.779 E150.5013
G1 X126.341 Y50.307 E150.5181
G1 X44.735 Y131.913 E154.166
G1 Y132.479 E154.1839
G1 X126.379 Y50.835 E157.8335
G1 X126.417 Y51.363 E157.8503
G1 X44.735 Y133.045 E161.5016
G1 Y133.611 E161.5195
G1 X126.588 Y51.758 E165.1785
G1 X126.791 Y52.121 E165.1916
G1 X44.735 Y134.177 E168.8596
G1 Y134.743 E168.8775
G1 X126.993 Y52.485 E172.5546
G1 X127.195 Y52.849 E172.5677
G1 X44.735 Y135.309 E176.2539
G1 Y135.875 E176.2717
G1 X127.397 Y53.212 E179.9669
G1 X127.599 Y53.576 E179.98
G1 X44.735 Y136.44 E183.6842
G1 Y137.006 E183.7021
G1 X127.802 Y53.94 E187.4154
G1 X128.004 Y54.303 E187.4285
G1 X44.735 Y137.572 E191.1508
G1 Y138.138 E191.1687
G1 X128.337 Y54.536 E194.9058
G1 X128.94 Y54.5 E194.9249
G1 X44.735 Y138.704 E198.689
G1 Y139.27 E198.7069
G1 X129.542 Y54.463 E202.4979
G1 X130.145 Y54.426 E202.517
G1 X44.735 Y139.836 E206.335
G1 Y140.402 E206.3529
G1 X130.538 Y54.599 E210.1884
G1 X130.914 Y54.789 E210.2018
G1 X44.735 Y140.968 E214.0541
G1 Y141.534 E214.072
G1 X131.289 Y54.98 E217.9411
G1 X131.664 Y55.17 E217.9544
G1 X44.735 Y142.1 E221.8403
G1 Y142.666 E221.8582
G1 X132.039 Y55.361 E225.7609
G1 X132.415 Y55.552 E225.7742
G1 X44.735 Y143.232 E229.6936
G1 Y143.797 E229.7115
G1 X132.79 Y55.742 E233.6478
G1 X133.165 Y55.933 E233.6611
G1 X44.735 Y144.363 E237.6141
G1 Y144.929 E237.632
G1 X133.541 Y56.123 E241.6017
G1 X133.916 Y56.314 E241.6151
G1 X44.835 Y145.395 E245.5971
G1 X45.272 Y145.523 E245.6115
G1 X134.291 Y56.505 E249.5908
G1 X134.666 Y56.695 E249.6041
G1 X45.709 Y145.652 E253.5807
G1 X46.149 Y145.779 E253.5951
G1 X135.042 Y56.886 E257.5688
G1 X135.417 Y57.076 E257.5821
G1 X46.594 Y145.9 E261.5527
G1 X47.038 Y146.021 E261.5673
G1 X135.792 Y57.267 E265.5347
G1 X136.168 Y57.458 E265.5481
G1 X47.483 Y146.142 E269.5124
G1 X47.928 Y146.263 E269.527
G1 X136.543 Y57.648 E273.4883
G1 X136.918 Y57.839 E273.5016
G1 X48.373 Y146.385 E277.4597
G1 X48.817 Y146.506 E277.4743
G1 X137.294 Y58.029 E281.4293
G1 X137.669 Y58.22 E281.4427
G1 X49.262 Y146.627 E285.3946
G1 X49.707 Y146.748 E285.4092
G1 X138.044 Y58.411 E289.358
G1 X138.419 Y58.601 E289.3713
G1 X50.152 Y146.869 E293.3171
G1 X50.596 Y146.99 E293.3316
G1 X138.795 Y58.792 E297.2743
G1 X139.17 Y58.982 E297.2876
G1 X51.041 Y147.111 E301.2271
G1 X51.486 Y147.233 E301.2417
G1 X139.545 Y59.173 E305.1781
G1 X139.921 Y59.364 E305.1914
G1 X51.931 Y147.354 E309.1247
G1 X52.375 Y147.475 E309.1393
G1 X140.296 Y59.554 E313.0695
G1 X140.671 Y59.745 E313.0828
G1 X52.82 Y147.596 E317.0099
G1 X53.265 Y147.717 E317.0245
G1 X141.047 Y59.935 E320.9485
G1 X141.422 Y60.126 E320.9618
G1 X53.71 Y147.838 E324.8827
G1 X54.154 Y147.959 E324.8973
G1 X141.797 Y60.317 E328.8151
G1 X142.172 Y60.507 E328.8284
G1 X54.599 Y148.081 E332.7431
G1 X55.044 Y148.202 E332.7577
G1 X142.548 Y60.698 E336.6692
G1 X142.921 Y60.891 E336.6825
G1 X55.489 Y148.323 E340.5909
G1 X55.933 Y148.444 E340.6055
G1 X143.289 Y61.088 E344.5104
G1 X143.658 Y61.286 E344.5236
G1 X56.378 Y148.565 E348.4252
G1 X56.823 Y148.686 E348.4398
G1 X144.026 Y61.483 E352.3379
G1 X144.394 Y61.681 E352.3511
G1 X57.268 Y148.807 E356.2459
G1 X57.712 Y148.929 E356.2604
G1 X144.763 Y61.878 E360.1517
G1 X145.131 Y62.076 E360.165
G1 X58.157 Y149.05 E364.0529
G1 X58.602 Y149.171 E364.0674
G1 X145.5 Y62.273 E367.9519
G1 X145.868 Y62.47 E367.9651
G1 X59.047 Y149.292 E371.8462
G1 X59.491 Y149.413 E371.8608
G1 X146.237 Y62.668 E375.7385
G1 X146.605 Y62.865 E375.7517
G1 X60.052 Y149.418 E379.6207
G1 X60.618 E379.6386
G1 X146.974 Y63.063 E383.4989
G1 X147.342 Y63.26 E383.5121
G1 X61.184 Y149.418 E387.3635
G1 X61.75 E387.3814
G1 X147.71 Y63.458 E391.224
G1 X148.079 Y63.655 E391.2372
G1 X62.316 Y149.418 E395.0709
G1 X62.882 E395.0888
G1 X148.447 Y63.853 E398.9137
G1 X148.816 Y64.05 E398.927
G1 X63.448 Y149.418 E402.7431
G1 X64.014 E402.761
G1 X149.184 Y64.248 E406.5682
G1 X149.553 Y64.445 E406.5814
G1 X64.58 Y149.418 E410.3799
G1 X65.145 E410.3978
G1 X149.921 Y64.643 E414.1874
G1 X150.289 Y64.84 E414.2006
G1 X65.711 Y149.418 E417.9814
G1 X66.277 E417.9993
G1 X150.658 Y65.037 E421.7713
G1 X151.026 Y65.235 E421.7845
G1 X66.843 Y149.418 E425.5476
G1 X67.409 E425.5655
G1 X151.395 Y65.432 E429.3198
G1 X151.763 Y65.63 E429.333
G1 X67.975 Y149.418 E433.0785
G1 X68.541 E433.0964
G1 X152.129 Y65.829 E436.833
G1 X152.496 Y66.029 E436.8461
G1 X69.107 Y149.418 E440.5738
G1 X69.673 E440.5917
G1 X152.862 Y66.229 E444.3104
G1 X153.228 Y66.428 E444.3236
G1 X70.239 Y149.418 E448.0334
G1 X70.804 E448.0513
G1 X153.595 Y66.628 E451.7522
G1 X153.961 Y66.827 E451.7654
G1 X71.37 Y149.418 E455.4573
G1 X71.936 E455.4752
G1 X154.328 Y67.027 E459.1583
G1 X154.694 Y67.226 E459.1714
G1 X72.502 Y149.418 E462.8456
G1 X73.068 E462.8635
G1 X155.06 Y67.426 E466.5287
G1 X155.427 Y67.625 E466.5418
G1 X73.634 Y149.418 E470.1981
G1 X74.2 E470.216
G1 X155.793 Y67.825 E473.8634
G1 X156.159 Y68.024 E473.8766
G1 X74.766 Y149.418 E477.515
G1 X75.332 E477.5329
G1 X156.526 Y68.224 E481.1624
G1 X156.892 Y68.423 E481.1756
G1 X75.898 Y149.418 E484.7962
G1 X76.463 E484.8141
G1 X157.259 Y68.623 E488.4258
G1 X157.625 Y68.822 E488.439
G1 X77.029 Y149.418 E492.0418
G1 X77.595 E492.0597
G1 X157.991 Y69.022 E495.6535
G1 X158.358 Y69.222 E495.6667
G1 X78.161 Y149.418 E499.2516
G1 X78.727 E499.2695
G1 X158.724 Y69.421 E502.8455
G1 X159.09 Y69.621 E502.8587
G1 X79.293 Y149.418 E506.4258
G1 X79.859 E506.4437
G1 X159.457 Y69.82 E510.0019
G1 X159.823 Y70.02 E510.0151
G1 X80.425 Y149.418 E513.5643
G1 X80.991 E513.5822
G1 X160.189 Y70.219 E517.1225
G1 X160.556 Y70.419 E517.1357
G1 X81.557 Y149.418 E520.6671
G1 X82.122 E520.685
G1 X160.922 Y70.618 E524.2075
G1 X161.289 Y70.818 E524.2207
G1 X82.688 Y149.418 E527.7343
G1 X83.254 E527.7522
G1 X161.655 Y71.017 E531.2568
G1 X162.021 Y71.217 E531.27
G1 X83.82 Y149.418 E534.7657
G1 X84.386 E534.7836
G1 X162.388 Y71.416 E538.2705
G1 X162.754 Y71.616 E538.2836
G1 X84.952 Y149.418 E541.7615
G1 X85.518 E541.7794
G1 X163.12 Y71.815 E545.2484
G1 X163.487 Y72.015 E545.2616
G1 X86.084 Y149.418 E548.7217
G1 X86.65 E548.7395
G1 X163.853 Y72.215 E552.1907
G1 X164.219 Y72.414 E552.2039
G1 X87.215 Y149.418 E555.6461
G1 X87.781 E555.664
G1 X164.586 Y72.614 E559.0973
G1 X164.952 Y72.813 E559.1105
G1 X88.347 Y149.418 E562.5348
G1 X88.913 E562.5527
G1 X165.319 Y73.013 E565.9682
G1 X165.685 Y73.212 E565.9814
G1 X89.479 Y149.418 E569.3879
G1 X90.045 E569.4058
G1 X166.051 Y73.412 E572.8034
G1 X166.418 Y73.611 E572.8166
G1 X90.611 Y149.418 E576.2053
G1 X91.177 E576.2232
G1 X166.784 Y73.811 E579.603
G1 X167.15 Y74.01 E579.6162
G1 X91.743 Y149.418 E582.987
G1 X92.309 E583.0049
G1 X167.517 Y74.21 E586.3669
G1 X167.883 Y74.409 E586.3801
G1 X92.874 Y149.418 E589.7331
G1 X93.44 E589.751
G1 X168.249 Y74.609 E593.0951
G1 X168.616 Y74.808 E593.1083
G1 X94.006 Y149.418 E596.4435
G1 X94.572 E596.4614
G1 X168.982 Y75.008 E599.7876
G1 X169.349 Y75.207 E599.8008
G1 X95.138 Y149.418 E603.1182
G1 X95.704 E603.136
G1 X169.715 Y75.407 E606.4445
G1 X170.081 Y75.607 E606.4577
G1 X96.27 Y149.418 E609.7572
G1 X96.836 E609.7751
G1 X170.448 Y75.806 E613.0656
G1 X170.814 Y76.006 E613.0788
G1 X97.402 Y149.418 E616.3605
G1 X97.968 E616.3784
G1 X171.18 Y76.205 E619.6511
G1 X171.547 Y76.405 E619.6643
G1 X98.533 Y149.418 E622.9282
G1 X99.099 E622.946
G1 X171.913 Y76.604 E626.201
G1 X172.279 Y76.804 E626.2141
G1 X99.665 Y149.418 E629.4601
G1 X100.231 E629.478
G1 X172.646 Y77.003 E632.7151
G1 X173.012 Y77.203 E632.7283
G1 X100.797 Y149.418 E635.9564
G1 X101.363 E635.9743
G1 X173.332 Y77.448 E639.1915
G1 Y78.014 E639.2094
G1 X101.929 Y149.418 E642.4013
G1 X102.495 E642.4191
G1 X173.332 Y78.58 E645.5857
G1 Y79.146 E645.6036
G1 X103.061 Y149.418 E648.7449
G1 X103.627 E648.7628
G1 X173.332 Y79.712 E651.8788
G1 Y80.278 E651.8967
G1 X104.192 Y149.418 E654.9873
G1 X104.758 E655.0052
G1 X173.332 Y80.844 E658.0706
G1 Y81.41 E658.0885
G1 X105.324 Y149.418 E661.1286
G1 X105.89 E661.1465
G1 X173.332 Y81.976 E664.1613
G1 Y82.542 E664.1792
G1 X106.456 Y149.418 E667.1687
G1 X107.022 E667.1866
G1 X173.332 Y83.107 E670.1508
G1 Y83.673 E670.1687
G1 X107.588 Y149.418 E673.1076
G1 X108.154 E673.1255
G1 X173.332 Y84.239 E676.0391
G1 Y84.805 E676.057
G1 X108.72 Y149.418 E678.9453
G92 E0
; Repositioning
G1 X108.926 Y149.778 F27000
; Infill
G1 X173.332 Y85.371 E2.8791 F14205.192
G1 Y85.937 E2.897
G1 X108.926 Y150.344 E5.7761
G1 Y150.91 E5.794
G1 X173.332 Y86.503 E8.6731
G1 Y87.069 E8.691
G1 X108.926 Y151.476 E11.5701
G1 Y152.041 E11.588
G1 X173.332 Y87.635 E14.4671
G1 Y88.201 E14.485
G1 X108.926 Y152.607 E17.3641
G1 Y153.173 E17.3819
G1 X173.332 Y88.766 E20.261
G1 Y89.332 E20.2789
G1 X108.926 Y153.739 E23.158
G1 Y154.305 E23.1759
G1 X173.332 Y89.898 E26.055
G1 Y90.464 E26.0729
G1 X108.926 Y154.871 E28.952
G1 Y155.437 E28.9699
G1 X173.332 Y91.03 E31.849
G1 Y91.596 E31.8669
G1 X108.926 Y156.003 E34.746
G1 Y156.569 E34.7639
G1 X173.332 Y92.162 E37.643
G1 Y92.728 E37.6609
G1 X108.926 Y157.134 E40.54
G1 Y157.7 E40.5579
G1 X173.332 Y93.294 E43.437
G1 Y93.859 E43.4549
G1 X108.926 Y158.266 E46.334
G1 Y158.832 E46.3519
G1 X173.332 Y94.425 E49.231
G1 Y94.991 E49.2488
G1 X108.926 Y159.398 E52.128
G1 Y159.964 E52.1458
G1 X173.332 Y95.557 E55.0249
G1 Y96.123 E55.0428
G1 X108.926 Y160.53 E57.9219
G1 Y161.096 E57.9398
G1 X173.332 Y96.689 E60.8189
G1 Y97.255 E60.8368
G1 X108.926 Y161.662 E63.7159
G1 Y162.228 E63.7338
G1 X173.332 Y97.821 E66.6129
G1 Y98.387 E66.6308
G1 X108.926 Y162.793 E69.5099
G1 Y163.359 E69.5278
G1 X173.332 Y98.953 E72.4069
G1 Y99.518 E72.4248
G1 X108.926 Y163.925 E75.3039
G1 Y164.491 E75.3218
G1 X173.332 Y100.084 E78.2009
G1 Y100.65 E78.2188
G1 X108.926 Y165.057 E81.0979
G1 Y165.623 E81.1157
G1 X173.332 Y101.216 E83.9949
G1 Y101.782 E84.0127
G1 X108.926 Y166.189 E86.8918
G1 Y166.755 E86.9097
G1 X128.029 Y147.651 E87.7637
G1 X127.32 Y148.926 E87.8098
G1 X108.926 Y167.321 E88.6321
G1 Y167.887 E88.6499
G1 X126.611 Y150.201 E89.4405
G1 X126.392 Y150.986 E89.4663
G1 X108.926 Y168.452 E90.2471
G1 Y169.018 E90.265
G1 X126.348 Y151.596 E91.0438
G1 X126.304 Y152.206 E91.0631
G1 X108.926 Y169.584 E91.84
G1 Y170.15 E91.8578
G1 X126.26 Y152.815 E92.6327
G1 X126.216 Y153.425 E92.6521
G1 X108.926 Y170.716 E93.425
G1 Y171.282 E93.4429
G1 X126.173 Y154.035 E94.2138
G1 X126.129 Y154.645 E94.2332
G1 X108.926 Y171.848 E95.0022
G1 Y172.414 E95.0201
G1 X126.085 Y155.255 E95.7871
G1 X126.051 Y155.854 E95.8061
G1 X108.926 Y172.98 E96.5716
G1 Y173.546 E96.5895
G1 X126.051 Y156.42 E97.3551
G1 Y156.986 E97.373
G1 X108.926 Y174.111 E98.1385
G1 Y174.677 E98.1564
G1 X126.051 Y157.552 E98.922
G1 Y158.117 E98.9399
G1 X108.926 Y175.243 E99.7054
G1 Y175.809 E99.7233
G1 X126.051 Y158.683 E100.4889
G1 Y159.249 E100.5067
G1 X108.926 Y176.375 E101.2723
G1 Y176.941 E101.2902
G1 X126.051 Y159.815 E102.0557
G1 Y160.381 E102.0736
G1 X108.926 Y177.507 E102.8392
G1 Y178.073 E102.8571
G1 X126.051 Y160.947 E103.6226
G1 Y161.513 E103.6405
G1 X108.926 Y178.639 E104.4061
G1 Y179.204 E104.4239
G1 X126.051 Y162.079 E105.1895
G1 Y162.645 E105.2074
G1 X108.926 Y179.77 E105.9729
G1 Y180.336 E105.9908
G1 X126.051 Y163.21 E106.7564
G1 Y163.776 E106.7743
G1 X108.926 Y180.902 E107.5398
G1 Y181.468 E107.5577
G1 X126.051 Y164.342 E108.3233
G1 Y164.908 E108.3412
G1 X108.926 Y182.034 E109.1067
G1 Y182.6 E109.1246
G1 X126.051 Y165.474 E109.8902
G1 Y166.04 E109.908
G1 X108.926 Y183.166 E110.6736
G1 Y183.732 E110.6915
G1 X126.051 Y166.606 E111.457
G1 Y167.172 E111.4749
G1 X108.926 Y184.298 E112.2405
G1 Y184.863 E112.2584
G1 X126.051 Y167.738 E113.0239
G1 Y168.304 E113.0418
G1 X108.926 Y185.429 E113.8074
G1 Y185.995 E113.8252
G1 X126.051 Y168.869 E114.5908
G1 Y169.435 E114.6087
G1 X108.926 Y186.561 E115.3742
G1 Y187.127 E115.3921
G1 X126.051 Y170.001 E116.1577
G1 Y170.567 E116.1756
G1 X108.926 Y187.693 E116.9411
G1 Y188.259 E116.959
G1 X126.051 Y171.133 E117.7246
G1 Y171.699 E117.7425
G1 X108.926 Y188.825 E118.508
G1 Y189.391 E118.5259
G1 X126.051 Y172.265 E119.2915
G1 Y172.831 E119.3093
G1 X108.926 Y189.957 E120.0749
G1 Y190.522 E120.0928
G1 X126.051 Y173.397 E120.8583
G1 Y173.963 E120.8762
G1 X108.926 Y191.088 E121.6418
G1 Y191.654 E121.6597
G1 X126.051 Y174.528 E122.4252
G1 Y175.094 E122.4431
G1 X108.926 Y192.22 E123.2087
G1 Y192.786 E123.2265
G1 X126.051 Y175.66 E123.9921
G1 Y176.226 E124.01
G1 X108.926 Y193.352 E124.7755
G1 Y193.918 E124.7934
G1 X126.051 Y176.792 E125.559
G1 Y177.358 E125.5769
G1 X108.926 Y194.484 E126.3424
G1 Y195.05 E126.3603
G1 X126.051 Y177.924 E127.1259
G1 Y178.49 E127.1438
G1 X108.926 Y195.616 E127.9093
G1 Y196.181 E127.9272
G1 X126.051 Y179.056 E128.6928
G1 Y179.622 E128.7106
G1 X108.926 Y196.747 E129.4762
G1 Y197.313 E129.4941
G1 X126.051 Y180.187 E130.2596
G1 Y180.753 E130.2775
G1 X109.074 Y197.73 E131.0364
G1 X109.64 E131.0543
G1 X126.051 Y181.319 E131.7879
G1 Y181.885 E131.8058
G1 X110.206 Y197.73 E132.5141
G1 X110.772 E132.532
G1 X126.051 Y182.451 E133.215
G1 Y183.017 E133.2329
G1 X111.338 Y197.73 E133.8907
G1 X111.904 E133.9085
G1 X126.051 Y183.583 E134.541
G1 Y184.149 E134.5589
G1 X112.47 Y197.73 E135.166
G1 X113.036 E135.1839
G1 X126.051 Y184.715 E135.7657
G1 Y185.28 E135.7836
G1 X113.601 Y197.73 E136.3401
G1 X114.167 E136.358
G1 X126.051 Y185.846 E136.8893
G1 Y186.412 E136.9071
G1 X114.733 Y197.73 E137.4131
G1 X115.299 E137.431
G1 X126.051 Y186.978 E137.9116
G1 Y187.544 E137.9295
G1 X115.865 Y197.73 E138.3849
G1 X116.431 E138.4027
G1 X126.051 Y188.11 E138.8328
G1 Y188.676 E138.8507
G1 X116.997 Y197.73 E139.2554
G1 X117.563 E139.2733
G1 X126.051 Y189.242 E139.6528
G1 Y189.808 E139.6707
G1 X118.129 Y197.73 E140.0248
G1 X118.695 E140.0427
G1 X126.051 Y190.374 E140.3716
G1 Y190.939 E140.3895
G1 X119.26 Y197.73 E140.6931
G1 X119.826 E140.7109
G1 X126.051 Y191.505 E140.9892
G1 Y192.071 E141.0071
G1 X120.392 Y197.73 E141.2601
G1 X120.958 E141.278
G1 X126.051 Y192.637 E141.5056
G1 Y193.203 E141.5235
G1 X121.524 Y197.73 E141.7259
G1 X122.09 E141.7438
G1 X126.051 Y193.769 E141.9209
G1 Y194.335 E141.9388
G1 X122.656 Y197.73 E142.0906
G1 X123.222 E142.1085
G1 X126.051 Y194.901 E142.235
G1 Y195.467 E142.2528
G1 X123.788 Y197.73 E142.354
G1 X124.354 E142.3719
G1 X126.051 Y196.033 E142.4478
G1 Y196.598 E142.4657
G1 X124.919 Y197.73 E142.5163
G1 X125.485 E142.5342
G1 X126.051 Y197.164 E142.5595
G1 Y197.73 E142.5774
G1 E141.7774 F2400
G92 E0
; Repositioning with retraction
G1 X125.977 Y151 F27000
G1 X127.039 Y149.033
G1 X128.224 Y147.457
G1 E0.8 F2400
G92 E0
; Infill
G1 X173.332 Y102.348 E2.0164 F14205.192
G1 Y102.914 E2.0343
G1 X128.757 Y147.489 E4.0269
G1 X129.29 Y147.522 E4.0438
G1 X173.332 Y103.48 E6.0126
G1 Y104.046 E6.0305
G1 X129.824 Y147.554 E7.9754
G1 X130.547 Y147.397 E7.9988
G1 X173.332 Y104.612 E9.9114
G1 Y105.177 E9.9293
G1 X131.697 Y146.813 E11.7904
G1 X132.847 Y146.229 E11.8312
G1 X173.332 Y105.743 E13.641
G1 Y106.309 E13.6589
G1 X133.997 Y145.645 E15.4173
G1 X135.147 Y145.061 E15.458
G1 X173.332 Y106.875 E17.165
G1 Y107.441 E17.1829
G1 X136.296 Y144.477 E18.8385
G1 X137.446 Y143.893 E18.8792
G1 X173.332 Y108.007 E20.4834
G1 Y108.573 E20.5013
G1 X138.596 Y143.309 E22.0541
G1 X139.746 Y142.725 E22.0948
G1 X173.332 Y109.139 E23.5962
G1 Y109.705 E23.6141
G1 X140.896 Y142.141 E25.0641
G1 X142.046 Y141.557 E25.1048
G1 X173.332 Y110.271 E26.5034
G1 Y110.836 E26.5213
G1 X143.22 Y140.949 E27.8674
G1 X144.439 Y140.295 E27.9111
G1 X173.332 Y111.402 E29.2027
G1 Y111.968 E29.2206
G1 X145.659 Y139.642 E30.4576
G1 X146.878 Y138.988 E30.5013
G1 X173.332 Y112.534 E31.6839
G1 Y113.1 E31.7018
G1 X148.098 Y138.335 E32.8298
G1 X149.317 Y137.681 E32.8735
G1 X173.332 Y113.666 E33.9471
G1 Y114.232 E33.965
G1 X150.537 Y137.027 E34.984
G1 X151.757 Y136.374 E35.0277
G1 X173.332 Y114.798 E35.9922
G1 Y115.364 E36.0101
G1 X152.999 Y135.697 E36.919
G1 X154.242 Y135.02 E36.9637
G1 X173.332 Y115.929 E37.8171
G1 Y116.495 E37.835
G1 X155.485 Y134.343 E38.6328
G1 X156.727 Y133.666 E38.6776
G1 X173.332 Y117.061 E39.4198
G1 Y117.627 E39.4377
G1 X157.97 Y132.99 E40.1244
G1 X159.213 Y132.313 E40.1692
G1 X173.332 Y118.193 E40.8003
G1 Y118.759 E40.8182
G1 X160.456 Y131.636 E41.3939
G1 X161.698 Y130.959 E41.4386
G1 X173.332 Y119.325 E41.9587
G1 Y119.891 E41.9765
G1 X162.941 Y130.282 E42.4411
G1 X164.184 Y129.605 E42.4858
G1 X173.332 Y120.457 E42.8948
G1 Y121.023 E42.9126
G1 X165.426 Y128.929 E43.2661
G1 X166.669 Y128.252 E43.3108
G1 X173.332 Y121.588 E43.6087
G1 Y122.154 E43.6265
G1 X167.912 Y127.575 E43.8689
G1 X169.154 Y126.898 E43.9136
G1 X173.332 Y122.72 E44.1003
G1 Y123.286 E44.1182
G1 X170.397 Y126.221 E44.2494
G1 X171.64 Y125.545 E44.2942
G1 X173.332 Y123.852 E44.3698
G1 Y124.418 E44.3877
G1 X172.883 Y124.868 E44.4078
G1 E43.6078 F2400
G92 E0
          ; New Layer
; layer 2, Z = 0.639
; Repositioning
M106 P0 S255
G0 Z0.639 F1800
; Repositioning with retraction
G1 X108.91 Y52.31 F27000
G1 E0.8 F2400
G92 E0
; Contour
G1 X59.473 E1.5621 F14210.526
G1 X47.014 Y55.703 E1.9701
G1 X44.431 Y56.465 E2.0552
G1 X44.425 Y145.533 E4.8695
G1 X47.014 Y146.297 E4.9548
G1 X59.473 Y149.69 E5.3628
G1 X108.91 E6.9248
G1 Y196.778 E8.4127
G1 X126.078 E8.9551
G1 Y157.904 E10.1834
G1 X126.603 Y150.617 E10.4143
G1 X128.689 Y146.864 E10.55
G1 X131.323 Y147.024 E10.6333
G1 X149.915 Y137.582 E11.2922
G1 X173.621 Y124.784 E12.1434
G1 Y77.216 E13.6465
G1 X149.915 Y64.418 E14.4977
G1 X131.323 Y54.976 E15.1566
G1 X128.689 Y55.136 E15.2399
G1 X126.603 Y51.383 E15.3756
G1 X126.078 Y44.096 E15.6065
G1 Y5.222 E16.8348
G1 X108.91 E17.3772
G1 Y52.31 E18.8651
G92 E0
; Repositioning
G1 X108.54 Y51.94 F27000
; Contour
G1 X59.424 E1.5519 F12000
G1 X46.913 Y55.348 E1.9616
G1 X44.19 Y56.15 E2.0513
G1 X44.061 Y56.181 E2.0555
G1 X44.055 Y145.817 E4.8878
G1 X44.19 Y145.85 E4.8922
G1 X46.913 Y146.652 E4.9819
G1 X59.424 Y150.06 E5.3916
G1 X108.54 E6.9435
G1 Y197.148 E8.4313
G1 X126.448 E8.9972
G1 Y157.917 E10.2368
G1 X126.966 Y150.725 E10.4646
G1 X128.899 Y147.248 E10.5903
G1 X131.401 Y147.4 E10.6695
G1 X150.086 Y137.91 E11.3317
G1 X173.991 Y125.004 E12.1901
G1 Y76.996 E13.707
G1 X150.086 Y64.09 E14.5654
G1 X131.401 Y54.6 E15.2276
G1 X128.899 Y54.752 E15.3067
G1 X126.966 Y51.275 E15.4325
G1 X126.448 Y44.083 E15.6603
G1 Y4.852 E16.8999
G1 X108.54 E17.4657
G1 Y51.94 E18.9536
G92 E0
; Repositioning
G1 X108.17 Y51.57 F27000
; Contour
G1 X59.374 E1.5418 F12000
G1 X46.812 Y54.992 E1.9532
G1 X44.095 Y55.793 E2.0427
G1 X43.691 Y55.889 E2.0558
G1 X43.685 Y146.109 E4.9065
G1 X44.095 Y146.207 E4.9198
G1 X46.812 Y147.008 E5.0093
G1 X59.374 Y150.43 E5.4207
G1 X108.17 E6.9625
G1 Y197.518 E8.4504
G1 X126.818 E9.0396
G1 Y157.931 E10.2905
G1 X127.329 Y150.833 E10.5153
G1 X129.109 Y147.631 E10.6311
G1 X131.478 Y147.775 E10.7061
G1 X150.258 Y138.238 E11.3716
G1 X174.361 Y125.224 E12.2371
G1 Y76.776 E13.7679
G1 X150.258 Y63.762 E14.6334
G1 X131.478 Y54.225 E15.2989
G1 X129.109 Y54.369 E15.3739
G1 X127.329 Y51.167 E15.4897
G1 X126.818 Y44.069 E15.7145
G1 Y4.482 E16.9654
G1 X108.17 E17.5546
G1 Y51.57 E19.0424
G92 E0
; Repositioning
G1 X107.8 Y51.2 F27000
; Contour
G1 X59.325 E1.5317 F12000
G1 X46.711 Y54.636 E1.9447
G1 X43.999 Y55.435 E2.0341
G1 X43.444 Y55.568 E2.0521
G1 X43.321 Y55.604 E2.0562
G1 X43.315 Y146.393 E4.9248
G1 X43.444 Y146.432 E4.9291
G1 X43.999 Y146.565 E4.9471
G1 X46.711 Y147.364 E5.0365
G1 X59.325 Y150.8 E5.4495
G1 X107.8 E6.9812
G1 Y197.888 E8.4691
G1 X127.188 E9.0817
G1 Y157.944 E10.3438
G1 X127.692 Y150.941 E10.5656
G1 X129.32 Y148.015 E10.6714
G1 X131.556 Y148.151 E10.7422
G1 X150.429 Y138.566 E11.4111
G1 X174.731 Y125.444 E12.2837
G1 Y76.556 E13.8284
G1 X150.429 Y63.434 E14.7011
G1 X131.556 Y53.849 E15.3699
G1 X129.32 Y53.985 E15.4407
G1 X127.692 Y51.059 E15.5465
G1 X127.188 Y44.056 E15.7684
G1 Y4.112 E17.0305
G1 X107.8 E17.6431
G1 Y51.2 E19.1309
G1 E18.3309 F2400
G92 E0
; Repositioning with retraction
G1 X108.88 Y52.582 F27000
G1 E0.8 F2400
G92 E0
; Infill
G1 X173.349 Y117.051 E2.8849 F14190.184
G1 Y117.618 E2.9029
G1 X108.313 Y52.582 E5.8131
G1 X107.747 E5.8311
G1 X173.349 Y118.184 E8.7667
G1 Y118.751 E8.7846
G1 X107.18 Y52.582 E11.7456
G1 X106.614 E11.7635
G1 X173.349 Y119.317 E14.7499
G1 Y119.884 E14.7678
G1 X106.047 Y52.582 E17.7795
G1 X105.481 E17.7974
G1 X173.349 Y120.45 E20.8345
G1 Y121.017 E20.8524
G1 X104.914 Y52.582 E23.9148
G1 X104.348 E23.9327
G1 X173.349 Y121.583 E27.0204
G1 Y122.15 E27.0384
G1 X103.781 Y52.582 E30.1514
G1 X103.215 E30.1694
G1 X173.349 Y122.716 E33.3078
G1 Y123.283 E33.3257
G1 X102.648 Y52.582 E36.4895
G1 X102.082 E36.5074
G1 X173.349 Y123.849 E39.6966
G1 Y124.416 E39.7145
G1 X101.515 Y52.582 E42.929
G1 X100.949 E42.9469
G1 X173.116 Y124.749 E46.1763
G1 X172.75 Y124.949 E46.1896
G1 X100.383 Y52.582 E49.4279
G1 X99.816 E49.4459
G1 X172.383 Y125.149 E52.6932
G1 X172.016 Y125.349 E52.7064
G1 X99.25 Y52.582 E55.9626
G1 X98.683 E55.9806
G1 X171.649 Y125.548 E59.2457
G1 X171.283 Y125.748 E59.259
G1 X98.117 Y52.582 E62.5331
G1 X97.55 E62.551
G1 X170.916 Y125.948 E65.8341
G1 X170.549 Y126.148 E65.8473
G1 X96.984 Y52.582 E69.1393
G1 X96.417 E69.1572
G1 X170.182 Y126.347 E72.4581
G1 X169.816 Y126.547 E72.4714
G1 X95.851 Y52.582 E75.7812
G1 X95.284 E75.7992
G1 X169.449 Y126.747 E79.118
G1 X169.082 Y126.947 E79.1312
G1 X94.718 Y52.582 E82.4589
G1 X94.151 E82.4769
G1 X168.715 Y127.146 E85.8136
G1 X168.349 Y127.346 E85.8268
G1 X93.585 Y52.582 E89.1724
G1 X93.018 E89.1903
G1 X167.982 Y127.546 E92.5449
G1 X167.615 Y127.746 E92.5581
G1 X92.452 Y52.582 E95.9216
G1 X91.885 E95.9395
G1 X167.248 Y127.945 E99.312
G1 X166.882 Y128.145 E99.3252
G1 X91.319 Y52.582 E102.7066
G1 X90.752 E102.7245
G1 X166.515 Y128.345 E106.1148
G1 X166.148 Y128.545 E106.128
G1 X90.186 Y52.582 E109.5273
G1 X89.619 E109.5452
G1 X165.781 Y128.744 E112.9534
G1 X165.415 Y128.944 E112.9666
G1 X89.053 Y52.582 E116.3838
G1 X88.486 E116.4017
G1 X165.048 Y129.144 E119.8278
G1 X164.681 Y129.344 E119.841
G1 X87.92 Y52.582 E123.276
G1 X87.353 E123.2939
G1 X164.314 Y129.543 E126.7379
G1 X163.948 Y129.743 E126.7511
G1 X86.787 Y52.582 E130.204
G1 X86.22 E130.2219
G1 X163.581 Y129.943 E133.6837
G1 X163.214 Y130.143 E133.6969
G1 X85.654 Y52.582 E137.1677
G1 X85.087 E137.1856
G1 X162.847 Y130.342 E140.6653
G1 X162.479 Y130.54 E140.6786
G1 X84.521 Y52.582 E144.1671
G1 X83.954 E144.1851
G1 X162.11 Y130.738 E147.6825
G1 X161.741 Y130.935 E147.6957
G1 X83.388 Y52.582 E151.202
G1 X82.821 E151.2199
G1 X161.372 Y131.133 E154.735
G1 X161.003 Y131.331 E154.7482
G1 X82.255 Y52.582 E158.2722
G1 X81.688 E158.2901
G1 X160.635 Y131.528 E161.8229
G1 X160.266 Y131.726 E161.8361
G1 X81.122 Y52.582 E165.3777
G1 X80.555 E165.3957
G1 X159.897 Y131.924 E168.9461
G1 X159.528 Y132.121 E168.9594
G1 X79.989 Y52.582 E172.5187
G1 X79.422 E172.5366
G1 X159.159 Y132.319 E176.1048
G1 X158.79 Y132.517 E176.118
G1 X78.856 Y52.582 E179.695
G1 X78.289 E179.713
G1 X158.422 Y132.714 E183.2988
G1 X158.053 Y132.912 E183.3121
G1 X77.723 Y52.582 E186.9068
G1 X77.156 E186.9247
G1 X157.684 Y133.11 E190.5283
G1 X157.315 Y133.307 E190.5415
G1 X76.59 Y52.582 E194.1539
G1 X76.023 E194.1718
G1 X156.946 Y133.505 E197.7931
G1 X156.578 Y133.703 E197.8063
G1 X75.457 Y52.582 E201.4364
G1 X74.89 E201.4543
G1 X156.209 Y133.9 E205.0932
G1 X155.84 Y134.098 E205.1065
G1 X74.324 Y52.582 E208.7543
G1 X73.757 E208.7722
G1 X155.471 Y134.296 E212.4288
G1 X155.102 Y134.493 E212.442
G1 X73.191 Y52.582 E216.1075
G1 X72.624 E216.1254
G1 X154.733 Y134.691 E219.7998
G1 X154.365 Y134.889 E219.813
G1 X72.058 Y52.582 E223.4962
G1 X71.491 E223.5141
G1 X153.996 Y135.087 E227.2061
G1 X153.627 Y135.284 E227.2193
G1 X70.925 Y52.582 E230.9202
G1 X70.358 E230.9381
G1 X153.258 Y135.482 E234.6478
G1 X152.889 Y135.68 E234.661
G1 X69.792 Y52.582 E238.3796
G1 X69.225 E238.3975
G1 X152.52 Y135.877 E242.1249
G1 X152.152 Y136.075 E242.1381
G1 X68.659 Y52.582 E245.8744
G1 X68.092 E245.8923
G1 X151.783 Y136.273 E249.6374
G1 X151.414 Y136.47 E249.6506
G1 X67.526 Y52.582 E253.4046
G1 X66.959 E253.4225
G1 X151.045 Y136.668 E257.1853
G1 X150.676 Y136.866 E257.1985
G1 X66.393 Y52.582 E260.9701
G1 X65.826 E260.988
G1 X150.307 Y137.063 E264.7685
G1 X149.939 Y137.261 E264.7817
G1 X65.26 Y52.582 E268.571
G1 X64.693 E268.589
G1 X149.566 Y137.454 E272.3869
G1 X149.19 Y137.645 E272.4003
G1 X64.127 Y52.582 E276.2068
G1 X63.56 E276.2247
G1 X148.814 Y137.836 E280.0398
G1 X148.439 Y138.027 E280.0531
G1 X62.994 Y52.582 E283.8767
G1 X62.427 E283.8946
G1 X148.063 Y138.218 E287.7267
G1 X147.687 Y138.408 E287.7401
G1 X61.861 Y52.582 E291.5807
G1 X61.294 E291.5986
G1 X147.312 Y138.599 E295.4478
G1 X146.936 Y138.79 E295.4612
G1 X60.728 Y52.582 E299.3189
G1 X60.161 E299.3368
G1 X146.56 Y138.981 E303.2031
G1 X146.184 Y139.172 E303.2164
G1 X59.595 Y52.582 E307.0913
G1 X59.131 Y52.685 E307.1063
G1 X145.809 Y139.362 E310.985
G1 X145.433 Y139.553 E310.9984
G1 X58.686 Y52.806 E314.8802
G1 X58.241 Y52.928 E314.8948
G1 X145.057 Y139.744 E318.7798
G1 X144.682 Y139.935 E318.7931
G1 X57.796 Y53.049 E322.6812
G1 X57.35 Y53.17 E322.6958
G1 X144.306 Y140.126 E326.587
G1 X143.93 Y140.316 E326.6003
G1 X56.905 Y53.291 E330.4946
G1 X56.46 Y53.413 E330.5092
G1 X143.555 Y140.507 E334.4066
G1 X143.179 Y140.698 E334.42
G1 X56.015 Y53.534 E338.3205
G1 X55.57 Y53.655 E338.3351
G1 X142.803 Y140.889 E342.2387
G1 X142.428 Y141.08 E342.252
G1 X55.124 Y53.776 E346.1588
G1 X54.679 Y53.898 E346.1734
G1 X142.052 Y141.27 E350.0832
G1 X141.676 Y141.461 E350.0966
G1 X54.234 Y54.019 E354.0095
G1 X53.789 Y54.14 E354.0241
G1 X141.3 Y141.652 E357.9402
G1 X140.925 Y141.843 E357.9536
G1 X53.343 Y54.262 E361.8728
G1 X52.898 Y54.383 E361.8874
G1 X140.549 Y142.034 E365.8097
G1 X140.173 Y142.224 E365.823
G1 X52.453 Y54.504 E369.7484
G1 X52.008 Y54.625 E369.763
G1 X139.798 Y142.415 E373.6915
G1 X139.422 Y142.606 E373.7049
G1 X51.562 Y54.747 E377.6365
G1 X51.117 Y54.868 E377.6511
G1 X139.046 Y142.797 E381.5858
G1 X138.671 Y142.988 E381.5992
G1 X50.672 Y54.989 E385.537
G1 X50.227 Y55.11 E385.5516
G1 X138.295 Y143.178 E389.4926
G1 X137.919 Y143.369 E389.5059
G1 X49.782 Y55.232 E393.45
G1 X49.336 Y55.353 E393.4646
G1 X137.543 Y143.56 E397.4118
G1 X137.168 Y143.751 E397.4252
G1 X48.891 Y55.474 E401.3755
G1 X48.446 Y55.595 E401.3901
G1 X136.792 Y143.942 E405.3435
G1 X136.416 Y144.132 E405.3568
G1 X48.001 Y55.717 E409.3133
G1 X47.555 Y55.838 E409.3279
G1 X136.041 Y144.323 E413.2876
G1 X135.665 Y144.514 E413.3009
G1 X47.11 Y55.959 E417.2637
G1 X46.672 Y56.088 E417.2781
G1 X135.289 Y144.705 E421.2436
G1 X134.914 Y144.896 E421.257
G1 X46.235 Y56.217 E425.2253
G1 X45.797 Y56.346 E425.2397
G1 X134.538 Y145.086 E429.2108
G1 X134.162 Y145.277 E429.2241
G1 X45.36 Y56.475 E433.1979
G1 X44.922 Y56.604 E433.2124
G1 X133.787 Y145.468 E437.189
G1 X133.411 Y145.659 E437.2023
G1 X44.703 Y56.951 E441.1719
G1 Y57.517 E441.1898
G1 X133.035 Y145.85 E445.1426
G1 X132.659 Y146.04 E445.1559
G1 X44.703 Y58.084 E449.0919
G1 Y58.65 E449.1099
G1 X132.284 Y146.231 E453.029
G1 X131.908 Y146.422 E453.0424
G1 X44.703 Y59.217 E456.9447
G1 Y59.783 E456.9626
G1 X131.532 Y146.613 E460.8482
G1 X131.091 Y146.738 E460.8627
G1 X44.703 Y60.35 E464.7285
G1 Y60.916 E464.7464
G1 X130.488 Y146.701 E468.5852
G1 X129.884 Y146.664 E468.6043
G1 X44.703 Y61.483 E472.4162
G1 Y62.049 E472.4341
G1 X129.281 Y146.628 E476.2189
G1 X128.678 Y146.591 E476.238
G1 X44.703 Y62.616 E479.9958
G1 Y63.182 E480.0138
G1 X128.38 Y146.86 E483.7583
G1 X128.178 Y147.224 E483.7715
G1 X44.702 Y63.748 E487.5069
G1 Y64.315 E487.5248
G1 X127.975 Y147.588 E491.2512
G1 X127.773 Y147.952 E491.2644
G1 X44.702 Y64.881 E494.9817
G1 Y65.448 E494.9997
G1 X127.571 Y148.316 E498.708
G1 X127.368 Y148.68 E498.7211
G1 X44.702 Y66.014 E502.4204
G1 Y66.581 E502.4383
G1 X127.166 Y149.044 E506.1285
G1 X126.963 Y149.408 E506.1416
G1 X44.702 Y67.147 E509.8227
G1 Y67.714 E509.8407
G1 X126.761 Y149.772 E513.5127
G1 X126.558 Y150.136 E513.5259
G1 X44.702 Y68.28 E517.1889
G1 Y68.847 E517.2068
G1 X126.356 Y150.5 E520.8608
G1 X126.301 Y151.012 E520.8771
G1 X44.702 Y69.413 E524.5285
G1 Y69.98 E524.5465
G1 X126.263 Y151.541 E528.1963
G1 X126.225 Y152.069 E528.213
G1 X44.702 Y70.546 E531.8611
G1 Y71.112 E531.8791
G1 X126.187 Y152.598 E535.5255
G1 X126.149 Y153.126 E535.5422
G1 X44.702 Y71.679 E539.1869
G1 Y72.245 E539.2048
G1 X126.111 Y153.655 E542.8478
G1 X126.073 Y154.183 E542.8646
G1 X44.702 Y72.812 E546.5059
G1 Y73.378 E546.5238
G1 X126.035 Y154.712 E550.1634
G1 X125.997 Y155.24 E550.1802
G1 X44.702 Y73.945 E553.8181
G1 Y74.511 E553.836
G1 X125.959 Y155.769 E557.4722
G1 X125.921 Y156.297 E557.489
G1 X44.702 Y75.078 E561.1235
G1 Y75.644 E561.1414
G1 X125.883 Y156.825 E564.7742
G1 X125.845 Y157.354 E564.7909
G1 X44.702 Y76.211 E568.422
G1 Y76.777 E568.44
G1 X125.807 Y157.882 E572.0694
G1 X125.806 Y158.448 E572.0873
G1 X44.702 Y77.343 E575.7166
G1 Y77.91 E575.7345
G1 X125.806 Y159.015 E579.3639
G1 Y159.581 E579.3818
G1 X44.702 Y78.476 E583.0112
G1 X44.701 Y79.043 E583.0291
G1 X125.806 Y160.148 E586.6585
G1 Y160.714 E586.6764
G1 X44.701 Y79.609 E590.3058
G1 Y80.176 E590.3237
G1 X125.806 Y161.28 E593.9531
G1 Y161.847 E593.971
G1 X44.701 Y80.742 E597.6004
G1 Y81.309 E597.6183
G1 X125.806 Y162.413 E601.2476
G1 Y162.98 E601.2656
G1 X44.701 Y81.875 E604.8949
G1 Y82.442 E604.9129
G1 X125.806 Y163.546 E608.5422
G1 Y164.113 E608.5602
G1 X44.701 Y83.008 E612.1895
G1 Y83.575 E612.2075
G1 X125.806 Y164.679 E615.8368
G1 Y165.246 E615.8548
G1 X44.701 Y84.141 E619.4842
G1 Y84.707 E619.5021
G1 X125.806 Y165.812 E623.1315
G1 Y166.379 E623.1494
G1 X109.182 Y149.755 E623.8933
G1 Y150.321 E623.9112
G1 X125.806 Y166.945 E624.6551
G1 Y167.512 E624.6731
G1 X109.182 Y150.888 E625.417
G1 Y151.454 E625.4349
G1 X125.806 Y168.078 E626.1788
G1 Y168.645 E626.1967
G1 X109.182 Y152.021 E626.9406
G1 Y152.587 E626.9586
G1 X125.806 Y169.211 E627.7025
G1 Y169.778 E627.7204
G1 X109.182 Y153.154 E628.4643
G1 Y153.72 E628.4822
G1 X125.806 Y170.344 E629.2262
G1 Y170.911 E629.2441
G1 X109.182 Y154.287 E629.988
G1 Y154.853 E630.0059
G1 X125.806 Y171.477 E630.7498
G1 Y172.044 E630.7677
G1 X109.182 Y155.42 E631.5117
G1 Y155.986 E631.5296
G1 X125.806 Y172.61 E632.2735
G1 Y173.177 E632.2914
G1 X109.182 Y156.553 E633.0353
G1 Y157.119 E633.0533
G1 X125.806 Y173.743 E633.7972
G1 Y174.31 E633.8151
G1 X109.182 Y157.686 E634.559
G1 Y158.252 E634.5769
G1 X125.806 Y174.876 E635.3208
G1 Y175.443 E635.3388
G1 X109.182 Y158.819 E636.0827
G1 Y159.385 E636.1006
G1 X125.806 Y176.009 E636.8445
G1 Y176.576 E636.8624
G1 X109.182 Y159.952 E637.6064
G1 Y160.518 E637.6243
G1 X125.806 Y177.142 E638.3682
G1 Y177.709 E638.3861
G1 X109.182 Y161.085 E639.13
G1 Y161.651 E639.148
G1 X125.806 Y178.275 E639.8919
G1 Y178.842 E639.9098
G1 X109.182 Y162.218 E640.6537
G1 Y162.784 E640.6716
G1 X125.806 Y179.408 E641.4155
G1 Y179.975 E641.4335
G1 X109.182 Y163.351 E642.1774
G1 Y163.917 E642.1953
G1 X125.806 Y180.541 E642.9392
G1 Y181.108 E642.9571
G1 X109.182 Y164.484 E643.701
G1 Y165.05 E643.719
G1 X125.806 Y181.674 E644.4629
G1 Y182.241 E644.4808
G1 X109.182 Y165.617 E645.2247
G1 Y166.183 E645.2426
G1 X125.806 Y182.807 E645.9866
G1 Y183.374 E646.0045
G1 X109.182 Y166.75 E646.7484
G1 Y167.316 E646.7663
G1 X125.806 Y183.94 E647.5102
G1 Y184.507 E647.5282
G1 X109.182 Y167.883 E648.2721
G1 Y168.449 E648.29
G1 X125.806 Y185.073 E649.0339
G1 Y185.64 E649.0518
G1 X109.182 Y169.016 E649.7957
G1 Y169.582 E649.8137
G1 X125.806 Y186.206 E650.5576
G1 Y186.773 E650.5755
G1 X109.182 Y170.149 E651.3194
G1 Y170.715 E651.3373
G1 X125.806 Y187.339 E652.0813
G1 Y187.906 E652.0992
G1 X109.182 Y171.282 E652.8431
G1 Y171.848 E652.861
G1 X125.806 Y188.472 E653.6049
G1 Y189.039 E653.6229
G1 X109.182 Y172.415 E654.3668
G1 Y172.981 E654.3847
G1 X125.806 Y189.605 E655.1286
G1 Y190.172 E655.1465
G1 X109.182 Y173.548 E655.8904
G1 Y174.114 E655.9084
G1 X125.806 Y190.738 E656.6523
G1 Y191.305 E656.6702
G1 X109.182 Y174.681 E657.4141
G1 Y175.247 E657.432
G1 X125.806 Y191.871 E658.1759
G1 Y192.438 E658.1939
G1 X109.182 Y175.814 E658.9378
G1 Y176.38 E658.9557
G1 X125.806 Y193.004 E659.6996
G1 Y193.571 E659.7175
G1 X109.182 Y176.947 E660.4615
G1 Y177.513 E660.4794
G1 X125.806 Y194.137 E661.2233
G1 Y194.704 E661.2412
G1 X109.182 Y178.08 E661.9851
G1 Y178.646 E662.0031
G1 X125.806 Y195.27 E662.747
G1 Y195.837 E662.7649
G1 X109.182 Y179.213 E663.5088
G1 Y179.779 E663.5267
G1 X125.806 Y196.403 E664.2706
G1 X125.342 Y196.506 E664.2857
G1 X109.182 Y180.346 E665.0088
G1 Y180.912 E665.0268
G1 X124.776 Y196.506 E665.7246
G1 X124.209 E665.7425
G1 X109.182 Y181.479 E666.415
G1 Y182.045 E666.4329
G1 X123.643 Y196.506 E667.08
G1 X123.076 E667.0979
G1 X109.182 Y182.612 E667.7197
G1 Y183.178 E667.7376
G1 X122.51 Y196.506 E668.334
G1 X121.943 E668.3519
G1 X109.182 Y183.745 E668.923
G1 Y184.311 E668.9409
G1 X121.377 Y196.506 E669.4866
G1 X120.81 E669.5046
G1 X109.182 Y184.878 E670.0249
G1 Y185.444 E670.0429
G1 X120.244 Y196.506 E670.5379
G1 X119.677 E670.5558
G1 X109.182 Y186.011 E671.0255
G1 Y186.577 E671.0434
G1 X119.111 Y196.506 E671.4877
G1 X118.545 E671.5056
G1 X109.182 Y187.144 E671.9246
G1 Y187.71 E671.9425
G1 X117.978 Y196.506 E672.3361
G1 X117.412 E672.354
G1 X109.182 Y188.277 E672.7223
G1 Y188.843 E672.7402
G1 X116.845 Y196.506 E673.0831
G1 X116.279 E673.1011
G1 X109.182 Y189.41 E673.4186
G1 Y189.976 E673.4365
G1 X115.712 Y196.506 E673.7287
G1 X115.146 E673.7467
G1 X109.182 Y190.543 E674.0135
G1 Y191.109 E674.0315
G1 X114.579 Y196.506 E674.273
G1 X114.013 E674.2909
G1 X109.182 Y191.676 E674.5071
G1 Y192.242 E674.525
G1 X113.446 Y196.506 E674.7158
G1 X112.88 E674.7337
G1 X109.182 Y192.809 E674.8992
G1 Y193.375 E674.9171
G1 X112.313 Y196.506 E675.0572
G1 X111.747 E675.0751
G1 X109.182 Y193.942 E675.1899
G1 Y194.508 E675.2078
G1 X111.18 Y196.506 E675.2972
G1 X110.614 E675.3151
G1 X109.182 Y195.075 E675.3792
G1 Y195.641 E675.3971
G1 X110.047 Y196.506 E675.4358
G1 X109.481 E675.4538
G1 X109.182 Y196.208 E675.4671
G1 E674.6671 F2400
G92 E0
; Repositioning with retraction
G1 X109.6 Y151 F27000
G1 X109.584 Y150.748
G1 X108.845 Y149.418
G1 E0.8 F2400
G92 E0
; Infill
G1 X44.701 Y85.274 E2.8704 F14190.184
G1 Y85.84 E2.8883
G1 X108.279 Y149.418 E5.7334
G1 X107.712 E5.7513
G1 X44.701 Y86.407 E8.571
G1 Y86.973 E8.5889
G1 X107.146 Y149.418 E11.3833
G1 X106.579 E11.4012
G1 X44.701 Y87.54 E14.1702
G1 Y88.106 E14.1881
G1 X106.013 Y149.418 E16.9318
G1 X105.446 E16.9497
G1 X44.701 Y88.673 E19.668
G1 Y89.239 E19.6859
G1 X104.88 Y149.418 E22.3789
G1 X104.313 E22.3968
G1 X44.701 Y89.806 E25.0644
G1 Y90.372 E25.0823
G1 X103.747 Y149.418 E27.7246
G1 X103.18 E27.7425
G1 X44.701 Y90.938 E30.3594
G1 Y91.505 E30.3773
G1 X102.614 Y149.418 E32.9689
G1 X102.047 E32.9868
G1 X44.701 Y92.071 E35.553
G1 Y92.638 E35.571
G1 X101.481 Y149.418 E38.1118
G1 X100.914 E38.1298
G1 X44.701 Y93.204 E40.6453
G1 X44.7 Y93.771 E40.6632
G1 X100.348 Y149.418 E43.1534
G1 X99.781 E43.1713
G1 X44.7 Y94.337 E45.6361
G1 Y94.904 E45.654
G1 X99.215 Y149.418 E48.0935
G1 X98.648 E48.1114
G1 X44.7 Y95.47 E50.5255
G1 Y96.037 E50.5435
G1 X98.082 Y149.418 E52.9322
G1 X97.515 E52.9502
G1 X44.7 Y96.603 E55.3136
G1 Y97.169 E55.3315
G1 X96.949 Y149.418 E57.6696
G1 X96.382 E57.6875
G1 X44.7 Y97.736 E60.0002
G1 Y98.302 E60.0182
G1 X95.816 Y149.418 E62.3055
G1 X95.249 E62.3235
G1 X44.7 Y98.869 E64.5855
G1 Y99.435 E64.6034
G1 X94.683 Y149.418 E66.8401
G1 X94.116 E66.858
G1 X44.7 Y100.002 E69.0694
G1 Y100.568 E69.0873
G1 X93.55 Y149.418 E71.2733
G1 X92.983 E71.2912
G1 X44.7 Y101.135 E73.4518
G1 Y101.701 E73.4698
G1 X92.417 Y149.418 E75.6051
G1 X91.85 E75.623
G1 X44.7 Y102.268 E77.7329
G1 Y102.834 E77.7508
G1 X91.284 Y149.418 E79.8354
G1 X90.717 E79.8534
G1 X44.7 Y103.401 E81.9126
G1 Y103.967 E81.9305
G1 X90.151 Y149.418 E83.9644
G1 X89.584 E83.9823
G1 X44.7 Y104.533 E85.9909
G1 Y105.1 E86.0088
G1 X89.018 Y149.418 E87.992
G1 X88.451 E88.0099
G1 X44.7 Y105.666 E89.9678
G1 Y106.233 E89.9857
G1 X87.885 Y149.418 E91.9182
G1 X87.318 E91.9361
G1 X44.7 Y106.799 E93.8433
G1 Y107.366 E93.8612
G1 X86.752 Y149.418 E95.743
G1 X86.185 E95.7609
G1 X44.7 Y107.932 E97.6174
G1 X44.699 Y108.499 E97.6353
G1 X85.619 Y149.418 E99.4664
G1 X85.052 E99.4843
G1 X44.699 Y109.065 E101.2901
G1 Y109.632 E101.308
G1 X84.486 Y149.418 E103.0884
G1 X83.919 E103.1064
G1 X44.699 Y110.198 E104.8614
G1 Y110.764 E104.8794
G1 X83.353 Y149.418 E106.6091
G1 X82.786 E106.627
G1 X44.699 Y111.331 E108.3314
G1 Y111.897 E108.3493
G1 X82.22 Y149.418 E110.0283
G1 X81.653 E110.0462
G1 X44.699 Y112.464 E111.6999
G1 Y113.03 E111.7178
G1 X81.087 Y149.418 E113.3461
G1 X80.52 E113.3641
G1 X44.699 Y113.597 E114.967
G1 Y114.163 E114.9849
G1 X79.954 Y149.418 E116.5626
G1 X79.387 E116.5805
G1 X44.699 Y114.73 E118.1328
G1 Y115.296 E118.1507
G1 X78.821 Y149.418 E119.6776
G1 X78.254 E119.6955
G1 X44.699 Y115.863 E121.1971
G1 Y116.429 E121.215
G1 X77.688 Y149.418 E122.6913
G1 X77.121 E122.7092
G1 X44.699 Y116.996 E124.1601
G1 Y117.562 E124.178
G1 X76.555 Y149.418 E125.6035
G1 X75.988 E125.6214
G1 X44.699 Y118.128 E127.0216
G1 Y118.695 E127.0396
G1 X75.422 Y149.418 E128.4144
G1 X74.855 E128.4323
G1 X44.699 Y119.261 E129.7818
G1 Y119.828 E129.7997
G1 X74.289 Y149.418 E131.1239
G1 X73.722 E131.1418
G1 X44.699 Y120.394 E132.4406
G1 Y120.961 E132.4585
G1 X73.156 Y149.418 E133.7319
G1 X72.589 E133.7499
G1 X44.699 Y121.527 E134.998
G1 Y122.094 E135.0159
G1 X72.023 Y149.418 E136.2386
G1 X71.456 E136.2565
G1 X44.699 Y122.66 E137.4539
G1 X44.698 Y123.227 E137.4719
G1 X70.89 Y149.418 E138.6439
G1 X70.323 E138.6618
G1 X44.698 Y123.793 E139.8085
G1 Y124.359 E139.8265
G1 X69.757 Y149.418 E140.9478
G1 X69.19 E140.9657
G1 X44.698 Y124.926 E142.0617
G1 Y125.492 E142.0797
G1 X68.624 Y149.418 E143.1503
G1 X68.057 E143.1682
G1 X44.698 Y126.059 E144.2135
G1 Y126.625 E144.2315
G1 X67.491 Y149.418 E145.2514
G1 X66.924 E145.2693
G1 X44.698 Y127.192 E146.2639
G1 Y127.758 E146.2819
G1 X66.358 Y149.418 E147.2511
G1 X65.791 E147.269
G1 X44.698 Y128.325 E148.213
G1 Y128.891 E148.2309
G1 X65.225 Y149.418 E149.1494
G1 X64.658 E149.1674
G1 X44.698 Y129.458 E150.0606
G1 Y130.024 E150.0785
G1 X64.092 Y149.418 E150.9464
G1 X63.525 E150.9643
G1 X44.698 Y130.59 E151.8068
G1 Y131.157 E151.8247
G1 X62.959 Y149.418 E152.6419
G1 X62.393 E152.6598
G1 X44.698 Y131.723 E153.4516
G1 Y132.29 E153.4696
G1 X61.826 Y149.418 E154.236
G1 X61.26 E154.254
G1 X44.698 Y132.856 E154.9951
G1 Y133.423 E155.013
G1 X60.693 Y149.418 E155.7288
G1 X60.127 E155.7467
G1 X44.698 Y133.989 E156.4371
G1 Y134.556 E156.4551
G1 X59.56 Y149.418 E157.1201
G1 X58.8 Y149.225 E157.1449
G1 X44.698 Y135.122 E157.776
G1 Y135.689 E157.7939
G1 X58.022 Y149.013 E158.3902
G1 X57.243 Y148.801 E158.4157
G1 X44.698 Y136.255 E158.9771
G1 Y136.822 E158.995
G1 X56.465 Y148.589 E159.5216
G1 X55.686 Y148.377 E159.5471
G1 X44.698 Y137.388 E160.0389
G1 X44.697 Y137.954 E160.0568
G1 X54.908 Y148.165 E160.5137
G1 X54.129 Y147.952 E160.5392
G1 X44.697 Y138.521 E160.9613
G1 Y139.087 E160.9792
G1 X53.35 Y147.74 E161.3664
G1 X52.572 Y147.528 E161.392
G1 X44.697 Y139.654 E161.7443
G1 Y140.22 E161.7623
G1 X51.793 Y147.316 E162.0798
G1 X51.015 Y147.104 E162.1053
G1 X44.697 Y140.787 E162.388
G1 Y141.353 E162.406
G1 X50.236 Y146.892 E162.6538
G1 X49.458 Y146.68 E162.6794
G1 X44.697 Y141.92 E162.8924
G1 Y142.486 E162.9103
G1 X48.679 Y146.468 E163.0885
G1 X47.901 Y146.256 E163.114
G1 X44.697 Y143.053 E163.2574
G1 Y143.619 E163.2753
G1 X47.122 Y146.044 E163.3838
G1 X46.32 Y145.808 E163.4103
G1 X44.697 Y144.185 E163.4829
G1 Y144.752 E163.5008
G1 X45.516 Y145.571 E163.5375
G1 X44.705 Y145.326 E163.5643
G1 E162.7643 F2400
G92 E0
; Repositioning with retraction
G1 X109.182 Y52.318 F27000
G1 E0.8 F2400
G92 E0
; Infill
G1 X173.349 Y116.485 E2.8714 F14190.184
G1 Y115.918 E2.8893
G1 X109.182 Y51.751 E5.7608
G1 Y51.185 E5.7787
G1 X173.349 Y115.352 E8.6501
G1 Y114.785 E8.668
G1 X109.182 Y50.618 E11.5394
G1 Y50.052 E11.5574
G1 X173.349 Y114.219 E14.4288
G1 Y113.652 E14.4467
G1 X109.182 Y49.485 E17.3181
G1 Y48.919 E17.336
G1 X173.349 Y113.086 E20.2075
G1 Y112.519 E20.2254
G1 X109.182 Y48.352 E23.0968
G1 Y47.786 E23.1147
G1 X173.349 Y111.953 E25.9861
G1 Y111.386 E26.0041
G1 X109.182 Y47.219 E28.8755
G1 Y46.653 E28.8934
G1 X173.349 Y110.82 E31.7648
G1 Y110.253 E31.7827
G1 X109.182 Y46.086 E34.6542
G1 Y45.52 E34.6721
G1 X173.349 Y109.687 E37.5435
G1 Y109.12 E37.5614
G1 X109.182 Y44.953 E40.4328
G1 Y44.387 E40.4508
G1 X173.349 Y108.554 E43.3222
G1 Y107.987 E43.3401
G1 X109.182 Y43.82 E46.2115
G1 Y43.254 E46.2294
G1 X173.349 Y107.421 E49.1009
G1 Y106.854 E49.1188
G1 X109.182 Y42.687 E51.9902
G1 Y42.121 E52.0081
G1 X173.349 Y106.288 E54.8795
G1 Y105.721 E54.8975
G1 X109.182 Y41.554 E57.7689
G1 Y40.988 E57.7868
G1 X173.349 Y105.155 E60.6582
G1 Y104.588 E60.6761
G1 X109.182 Y40.421 E63.5476
G1 Y39.855 E63.5655
G1 X173.349 Y104.022 E66.4369
G1 Y103.455 E66.4548
G1 X109.182 Y39.288 E69.3262
G1 Y38.722 E69.3442
G1 X173.349 Y102.889 E72.2156
G1 Y102.322 E72.2335
G1 X109.182 Y38.155 E75.1049
G1 Y37.589 E75.1228
G1 X173.349 Y101.756 E77.9943
G1 Y101.189 E78.0122
G1 X109.182 Y37.022 E80.8836
G1 Y36.456 E80.9015
G1 X173.349 Y100.623 E83.7729
G1 Y100.056 E83.7909
G1 X128.701 Y55.408 E85.7888
G1 X129.235 Y55.375 E85.8058
G1 X173.349 Y99.49 E87.7799
G1 Y98.923 E87.7978
G1 X129.769 Y55.343 E89.748
G1 X130.303 Y55.31 E89.7649
G1 X173.349 Y98.357 E91.6912
G1 Y97.79 E91.7091
G1 X130.836 Y55.278 E93.6115
G1 X131.492 Y55.367 E93.6324
G1 X173.349 Y97.224 E95.5055
G1 Y96.657 E95.5234
G1 X132.643 Y55.951 E97.345
G1 X133.794 Y56.536 E97.3858
G1 X173.349 Y96.091 E99.1559
G1 Y95.524 E99.1738
G1 X134.945 Y57.12 E100.8924
G1 X136.096 Y57.705 E100.9332
G1 X173.349 Y94.958 E102.6002
G1 Y94.391 E102.6182
G1 X137.247 Y58.29 E104.2337
G1 X138.398 Y58.874 E104.2745
G1 X173.349 Y93.825 E105.8386
G1 Y93.258 E105.8565
G1 X139.549 Y59.459 E107.369
G1 X140.701 Y60.043 E107.4098
G1 X173.349 Y92.692 E108.8708
G1 Y92.125 E108.8887
G1 X141.852 Y60.628 E110.2982
G1 X143.003 Y61.212 E110.3391
G1 X173.349 Y91.559 E111.6971
G1 Y90.992 E111.715
G1 X144.154 Y61.797 E113.0214
G1 X145.305 Y62.382 E113.0623
G1 X173.349 Y90.426 E114.3172
G1 Y89.859 E114.3352
G1 X146.456 Y62.966 E115.5386
G1 X147.607 Y63.551 E115.5795
G1 X173.349 Y89.293 E116.7314
G1 Y88.726 E116.7493
G1 X148.758 Y64.135 E117.8497
G1 X149.916 Y64.727 E117.8909
G1 X173.349 Y88.16 E118.9395
G1 Y87.593 E118.9574
G1 X151.137 Y65.381 E119.9514
G1 X152.358 Y66.036 E119.9952
G1 X173.349 Y87.027 E120.9345
G1 Y86.46 E120.9525
G1 X153.579 Y66.69 E121.8372
G1 X154.799 Y67.344 E121.881
G1 X173.349 Y85.894 E122.7111
G1 Y85.327 E122.729
G1 X156.02 Y67.999 E123.5044
G1 X157.241 Y68.653 E123.5483
G1 X173.349 Y84.761 E124.2691
G1 Y84.194 E124.287
G1 X158.462 Y69.307 E124.9532
G1 X159.683 Y69.961 E124.997
G1 X173.349 Y83.628 E125.6086
G1 Y83.061 E125.6265
G1 X160.903 Y70.616 E126.1835
G1 X162.124 Y71.27 E126.2273
G1 X173.349 Y82.495 E126.7296
G1 Y81.928 E126.7475
G1 X163.355 Y71.934 E127.1947
G1 X164.599 Y72.612 E127.2396
G1 X173.349 Y81.362 E127.6311
G1 Y80.795 E127.6491
G1 X165.843 Y73.289 E127.985
G1 X167.087 Y73.967 E128.0298
G1 X173.349 Y80.229 E128.31
G1 Y79.662 E128.3279
G1 X168.331 Y74.644 E128.5525
G1 X169.575 Y75.322 E128.5973
G1 X173.349 Y79.096 E128.7662
G1 Y78.529 E128.7841
G1 X170.819 Y75.999 E128.8973
G1 X172.063 Y76.677 E128.9422
G1 X173.349 Y77.963 E128.9997
G1 X173.328 Y77.375 E129.0183
G1 E128.2183 F2400
G92 E0
; Repositioning with retraction
G1 X173.165 Y77.377 F27000
G1 X128.314 Y55.022
G1 E0.8 F2400
G92 E0
; Infill
G1 X109.182 Y35.889 E0.8562 F14190.184
G1 Y35.323 E0.8741
G1 X127.605 Y53.746 E1.6985
G1 X126.895 Y52.47 E1.7447
G1 X109.182 Y34.756 E2.5373
G1 Y34.19 E2.5553
G1 X126.326 Y51.334 E3.3225
G1 X126.282 Y50.724 E3.3418
G1 X109.182 Y33.623 E4.107
G1 Y33.057 E4.125
G1 X126.238 Y50.113 E4.8882
G1 X126.195 Y49.503 E4.9076
G1 X109.182 Y32.49 E5.6689
G1 Y31.924 E5.6868
G1 X126.151 Y48.892 E6.4461
G1 X126.107 Y48.282 E6.4655
G1 X109.182 Y31.357 E7.2229
G1 Y30.791 E7.2408
G1 X126.063 Y47.671 E7.9962
G1 X126.019 Y47.061 E8.0155
G1 X109.182 Y30.224 E8.769
G1 Y29.658 E8.7869
G1 X125.975 Y46.451 E9.5384
G1 X125.931 Y45.84 E9.5577
G1 X109.182 Y29.091 E10.3072
G1 Y28.525 E10.3251
G1 X125.887 Y45.23 E11.0727
G1 X125.843 Y44.619 E11.092
G1 X109.182 Y27.958 E11.8376
G1 Y27.392 E11.8555
G1 X125.806 Y44.016 E12.5994
G1 Y43.449 E12.6174
G1 X109.182 Y26.825 E13.3613
G1 Y26.259 E13.3792
G1 X125.806 Y42.883 E14.1231
G1 Y42.316 E14.141
G1 X109.182 Y25.692 E14.885
G1 Y25.126 E14.9029
G1 X125.806 Y41.75 E15.6468
G1 Y41.183 E15.6647
G1 X109.182 Y24.559 E16.4086
G1 Y23.993 E16.4266
G1 X125.806 Y40.617 E17.1705
G1 Y40.05 E17.1884
G1 X109.182 Y23.426 E17.9323
G1 Y22.86 E17.9502
G1 X125.806 Y39.484 E18.6941
G1 Y38.917 E18.7121
G1 X109.182 Y22.293 E19.456
G1 Y21.727 E19.4739
G1 X125.806 Y38.351 E20.2178
G1 Y37.784 E20.2357
G1 X109.182 Y21.16 E20.9797
G1 Y20.594 E20.9976
G1 X125.806 Y37.218 E21.7415
G1 Y36.651 E21.7594
G1 X109.182 Y20.027 E22.5033
G1 Y19.461 E22.5212
G1 X125.806 Y36.085 E23.2652
G1 Y35.518 E23.2831
G1 X109.182 Y18.894 E24.027
G1 Y18.328 E24.0449
G1 X125.806 Y34.952 E24.7888
G1 Y34.385 E24.8068
G1 X109.182 Y17.761 E25.5507
G1 Y17.195 E25.5686
G1 X125.806 Y33.819 E26.3125
G1 Y33.252 E26.3304
G1 X109.182 Y16.628 E27.0743
G1 Y16.062 E27.0923
G1 X125.806 Y32.686 E27.8362
G1 Y32.119 E27.8541
G1 X109.182 Y15.495 E28.598
G1 Y14.929 E28.6159
G1 X125.806 Y31.553 E29.3599
G1 Y30.986 E29.3778
G1 X109.182 Y14.362 E30.1217
G1 Y13.796 E30.1396
G1 X125.806 Y30.42 E30.8835
G1 Y29.853 E30.9015
G1 X109.182 Y13.229 E31.6454
G1 Y12.663 E31.6633
G1 X125.806 Y29.287 E32.4072
G1 Y28.72 E32.4251
G1 X109.182 Y12.096 E33.169
G1 Y11.53 E33.187
G1 X125.806 Y28.154 E33.9309
G1 Y27.587 E33.9488
G1 X109.182 Y10.963 E34.6927
G1 Y10.397 E34.7106
G1 X125.806 Y27.021 E35.4546
G1 Y26.455 E35.4725
G1 X109.182 Y9.83 E36.2164
G1 Y9.264 E36.2343
G1 X125.806 Y25.888 E36.9782
G1 Y25.322 E36.9961
G1 X109.182 Y8.697 E37.7401
G1 Y8.131 E37.758
G1 X125.806 Y24.755 E38.5019
G1 Y24.189 E38.5198
G1 X109.182 Y7.564 E39.2637
G1 Y6.998 E39.2817
G1 X125.806 Y23.622 E40.0256
G1 Y23.056 E40.0435
G1 X109.182 Y6.431 E40.7874
G1 Y5.865 E40.8053
G1 X125.806 Y22.489 E41.5492
G1 Y21.923 E41.5672
G1 X109.378 Y5.494 E42.3023
G1 X109.944 E42.3203
G1 X125.806 Y21.356 E43.0301
G1 Y20.79 E43.048
G1 X110.511 Y5.494 E43.7325
G1 X111.077 E43.7504
G1 X125.806 Y20.223 E44.4095
G1 Y19.657 E44.4274
G1 X111.644 Y5.494 E45.0612
G1 X112.21 E45.0791
G1 X125.806 Y19.09 E45.6875
G1 Y18.524 E45.7055
G1 X112.776 Y5.494 E46.2885
G1 X113.343 E46.3065
G1 X125.806 Y17.957 E46.8642
G1 Y17.391 E46.8821
G1 X113.909 Y5.494 E47.4145
G1 X114.476 E47.4324
G1 X125.806 Y16.824 E47.9394
G1 Y16.258 E47.9573
G1 X115.042 Y5.494 E48.439
G1 X115.609 E48.4569
G1 X125.806 Y15.691 E48.9132
G1 Y15.125 E48.9311
G1 X116.175 Y5.494 E49.3621
G1 X116.742 E49.38
G1 X125.806 Y14.558 E49.7857
G1 Y13.992 E49.8036
G1 X117.308 Y5.494 E50.1838
G1 X117.875 E50.2018
G1 X125.806 Y13.425 E50.5567
G1 Y12.859 E50.5746
G1 X118.441 Y5.494 E50.9042
G1 X119.008 E50.9221
G1 X125.806 Y12.292 E51.2263
G1 Y11.726 E51.2442
G1 X119.574 Y5.494 E51.5231
G1 X120.141 E51.541
G1 X125.806 Y11.159 E51.7945
G1 Y10.593 E51.8125
G1 X120.707 Y5.494 E52.0406
G1 X121.274 E52.0585
G1 X125.806 Y10.026 E52.2614
G1 Y9.46 E52.2793
G1 X121.84 Y5.494 E52.4567
G1 X122.407 E52.4747
G1 X125.806 Y8.893 E52.6268
G1 Y8.327 E52.6447
G1 X122.973 Y5.494 E52.7715
G1 X123.54 E52.7894
G1 X125.806 Y7.76 E52.8908
G1 Y7.194 E52.9087
G1 X124.106 Y5.494 E52.9848
G1 X124.673 E53.0027
G1 X125.806 Y6.627 E53.0534
G1 Y6.061 E53.0713
G1 X125.239 Y5.494 E53.0967
G1 X125.806 E53.1146
G1 E52.3146 F2400
G92 E0
       ; New Layer
; layer 3, Z = 0.839
; Repositioning
G0 Z0.839 F1800
; Repositioning with retraction
G1 X109.167 Y52.31 F27000
G1 E0.8 F2400
G92 E0
; Contour
G1 X59.473 E1.5702 F14210.526
G1 X48.085 Y55.412 E1.9431
G1 X44.509 Y56.466 E2.0609
G1 X44.387 Y56.495 E2.0649
G1 Y145.505 E4.8773
G1 X44.509 Y145.534 E4.8813
G1 X48.085 Y146.588 E4.9991
G1 X59.473 Y149.69 E5.372
G1 X109.167 E6.9422
G1 Y195.554 E8.3913
G1 X125.833 E8.9179
G1 Y160.08 E10.0388
G1 X126.514 Y150.617 E10.3386
G1 X129.084 Y145.995 E10.5057
G1 X132.395 Y146.196 E10.6105
G1 X156.91 Y133.746 E11.4793
G1 X173.638 Y124.779 E12.079
G1 Y77.221 E13.5817
G1 X156.91 Y68.254 E14.1813
G1 X132.395 Y55.804 E15.0501
G1 X129.084 Y56.005 E15.1549
G1 X126.514 Y51.383 E15.322
G1 X125.833 Y41.92 E15.6218
G1 Y6.446 E16.7427
G1 X109.167 E17.2693
G1 Y52.31 E18.7185
G92 E0
; Repositioning
G1 X108.797 Y51.94 F27000
; Contour
G1 X59.424 E1.56 F12000
G1 X47.984 Y55.056 E1.9347
G1 X44.413 Y56.109 E2.0523
G1 X44.017 Y56.204 E2.0652
G1 Y145.796 E4.896
G1 X44.413 Y145.891 E4.9089
G1 X47.984 Y146.944 E5.0265
G1 X59.424 Y150.06 E5.4012
G1 X108.797 E6.9612
G1 Y195.924 E8.4104
G1 X126.203 E8.9604
G1 Y160.093 E10.0925
G1 X126.877 Y150.725 E10.3893
G1 X129.294 Y146.378 E10.5464
G1 X132.473 Y146.572 E10.6471
G1 X157.081 Y134.074 E11.5191
G1 X174.008 Y125 E12.126
G1 Y77 E13.6426
G1 X157.081 Y67.926 E14.2494
G1 X132.473 Y55.428 E15.1215
G1 X129.294 Y55.622 E15.2222
G1 X126.877 Y51.275 E15.3793
G1 X126.203 Y41.907 E15.6761
G1 Y6.076 E16.8082
G1 X108.797 E17.3582
G1 Y51.94 E18.8074
G92 E0
; Repositioning
G1 X108.427 Y51.57 F27000
; Contour
G1 X59.374 E1.5499 F12000
G1 X47.883 Y54.7 E1.9262
G1 X44.318 Y55.751 E2.0437
G1 X43.647 Y55.912 E2.0655
G1 Y146.088 E4.9148
G1 X44.318 Y146.249 E4.9366
G1 X47.883 Y147.3 E5.054
G1 X59.374 Y150.43 E5.4303
G1 X108.427 E6.9802
G1 Y196.294 E8.4294
G1 X126.573 E9.0028
G1 Y160.106 E10.1462
G1 X127.24 Y150.833 E10.44
G1 X129.504 Y146.761 E10.5872
G1 X132.551 Y146.947 E10.6836
G1 X157.253 Y134.402 E11.559
G1 X174.378 Y125.221 E12.1729
G1 Y76.779 E13.7036
G1 X157.253 Y67.598 E14.3176
G1 X132.551 Y55.053 E15.1929
G1 X129.504 Y55.239 E15.2894
G1 X127.24 Y51.167 E15.4366
G1 X126.573 Y41.894 E15.7303
G1 Y5.706 E16.8738
G1 X108.427 E17.4471
G1 Y51.57 E18.8963
G92 E0
; Repositioning
G1 X108.057 Y51.2 F27000
; Contour
G1 X59.325 E1.5398 F12000
G1 X47.782 Y54.344 E1.9178
G1 X44.222 Y55.394 E2.0351
G1 X43.493 Y55.568 E2.0588
G1 X43.277 Y55.632 E2.0659
G1 Y146.366 E4.9328
G1 X43.493 Y146.432 E4.9399
G1 X44.222 Y146.606 E4.9636
G1 X47.782 Y147.656 E5.0809
G1 X59.325 Y150.8 E5.4589
G1 X108.057 E6.9987
G1 Y196.664 E8.4478
G1 X126.943 E9.0446
G1 Y160.119 E10.1993
G1 X127.603 Y150.941 E10.49
G1 X129.714 Y147.145 E10.6273
G1 X132.629 Y147.322 E10.7195
G1 X157.424 Y134.73 E11.5982
G1 X174.748 Y125.443 E12.2193
G1 Y76.557 E13.764
G1 X157.424 Y67.27 E14.385
G1 X132.629 Y54.678 E15.2637
G1 X129.714 Y54.855 E15.356
G1 X127.603 Y51.059 E15.4933
G1 X126.943 Y41.881 E15.784
G1 Y5.336 E16.9387
G1 X108.057 E17.5355
G1 Y51.2 E18.9846
G1 E18.1846 F2400
G92 E0
; Repositioning with retraction
G1 X108.906 Y52.582 F27000
G1 E0.8 F2400
G92 E0
; Infill
G1 X44.659 Y116.829 E2.878 F14175.159
G1 Y116.262 E2.896
G1 X108.339 Y52.582 E5.7487
G1 X107.772 E5.7666
G1 X44.659 Y115.695 E8.5939
G1 Y115.128 E8.6118
G1 X107.205 Y52.582 E11.4137
G1 X106.638 E11.4316
G1 X44.659 Y114.561 E14.2081
G1 Y113.994 E14.226
G1 X106.071 Y52.582 E16.977
G1 X105.504 E16.995
G1 X44.659 Y113.426 E19.7206
G1 Y112.859 E19.7386
G1 X104.937 Y52.582 E22.4388
G1 X104.369 E22.4568
G1 X44.659 Y112.292 E25.1316
G1 Y111.725 E25.1496
G1 X103.802 Y52.582 E27.799
G1 X103.235 E27.8169
G1 X44.659 Y111.158 E30.4409
G1 Y110.591 E30.4589
G1 X102.668 Y52.582 E33.0575
G1 X102.101 E33.0755
G1 X44.659 Y110.024 E35.6487
G1 Y109.457 E35.6666
G1 X101.534 Y52.582 E38.2144
G1 X100.967 E38.2324
G1 X44.659 Y108.89 E40.7548
G1 Y108.323 E40.7727
G1 X100.4 Y52.582 E43.2697
G1 X99.833 E43.2877
G1 X44.659 Y107.755 E45.7593
G1 Y107.188 E45.7772
G1 X99.266 Y52.582 E48.2234
G1 X98.698 E48.2414
G1 X44.659 Y106.621 E50.6622
G1 Y106.054 E50.6801
G1 X98.131 Y52.582 E53.0755
G1 X97.564 E53.0935
G1 X44.659 Y105.487 E55.4634
G1 Y104.92 E55.4814
G1 X96.997 Y52.582 E57.826
G1 X96.43 E57.8439
G1 X44.659 Y104.353 E60.1631
G1 Y103.786 E60.181
G1 X95.863 Y52.582 E62.4748
G1 X95.296 E62.4928
G1 X44.659 Y103.219 E64.7611
G1 Y102.652 E64.7791
G1 X94.729 Y52.582 E67.022
G1 X94.162 E67.04
G1 X44.659 Y102.085 E69.2575
G1 Y101.517 E69.2755
G1 X93.595 Y52.582 E71.4676
G1 X93.028 E71.4856
G1 X44.659 Y100.95 E73.6523
G1 Y100.383 E73.6703
G1 X92.46 Y52.582 E75.8116
G1 X91.893 E75.8296
G1 X44.659 Y99.816 E77.9455
G1 Y99.249 E77.9635
G1 X91.326 Y52.582 E80.054
G1 X90.759 E80.072
G1 X44.659 Y98.682 E82.1371
G1 Y98.115 E82.1551
G1 X90.192 Y52.582 E84.1948
G1 X89.625 E84.2127
G1 X44.659 Y97.548 E86.2271
G1 Y96.981 E86.245
G1 X89.058 Y52.582 E88.2339
G1 X88.491 E88.2519
G1 X44.659 Y96.414 E90.2154
G1 Y95.846 E90.2334
G1 X87.924 Y52.582 E92.1715
G1 X87.357 E92.1894
G1 X44.659 Y95.279 E94.1021
G1 Y94.712 E94.1201
G1 X86.789 Y52.582 E96.0074
G1 X86.222 E96.0253
G1 X44.659 Y94.145 E97.8872
G1 Y93.578 E97.9052
G1 X85.655 Y52.582 E99.7417
G1 X85.088 E99.7596
G1 X44.659 Y93.011 E101.5707
G1 Y92.444 E101.5887
G1 X84.521 Y52.582 E103.3744
G1 X83.954 E103.3923
G1 X44.659 Y91.877 E105.1526
G1 Y91.31 E105.1706
G1 X83.387 Y52.582 E106.9054
G1 X82.82 E106.9234
G1 X44.659 Y90.743 E108.6329
G1 Y90.176 E108.6508
G1 X82.253 Y52.582 E110.3349
G1 X81.686 E110.3528
G1 X44.659 Y89.608 E112.0115
G1 Y89.041 E112.0295
G1 X81.118 Y52.582 E113.6627
G1 X80.551 E113.6807
G1 X44.659 Y88.474 E115.2885
G1 Y87.907 E115.3065
G1 X79.984 Y52.582 E116.8889
G1 X79.417 E116.9069
G1 X44.659 Y87.34 E118.4639
G1 Y86.773 E118.4819
G1 X78.85 Y52.582 E120.0135
G1 X78.283 E120.0315
G1 X44.659 Y86.206 E121.5377
G1 Y85.639 E121.5557
G1 X77.716 Y52.582 E123.0365
G1 X77.149 E123.0545
G1 X44.659 Y85.072 E124.5099
G1 Y84.505 E124.5279
G1 X76.582 Y52.582 E125.9579
G1 X76.015 E125.9759
G1 X44.659 Y83.937 E127.3805
G1 Y83.37 E127.3984
G1 X75.448 Y52.582 E128.7777
G1 X74.88 E128.7956
G1 X44.659 Y82.803 E130.1494
G1 Y82.236 E130.1674
G1 X74.313 Y52.582 E131.4958
G1 X73.746 E131.5138
G1 X44.659 Y81.669 E132.8168
G1 Y81.102 E132.8347
G1 X73.179 Y52.582 E134.1123
G1 X72.612 E134.1303
G1 X44.659 Y80.535 E135.3825
G1 Y79.968 E135.4004
G1 X72.045 Y52.582 E136.6272
G1 X71.478 E136.6452
G1 X44.659 Y79.401 E137.8466
G1 Y78.834 E137.8645
G1 X70.911 Y52.582 E139.0405
G1 X70.344 E139.0585
G1 X44.659 Y78.266 E140.2091
G1 Y77.699 E140.227
G1 X69.777 Y52.582 E141.3522
G1 X69.209 E141.3702
G1 X44.659 Y77.132 E142.4699
G1 Y76.565 E142.4879
G1 X68.642 Y52.582 E143.5623
G1 X68.075 E143.5802
G1 X44.659 Y75.998 E144.6292
G1 Y75.431 E144.6471
G1 X67.508 Y52.582 E145.6707
G1 X66.941 E145.6887
G1 X44.659 Y74.864 E146.6868
G1 Y74.297 E146.7048
G1 X66.374 Y52.582 E147.6775
G1 X65.807 E147.6955
G1 X44.659 Y73.73 E148.6428
G1 Y73.163 E148.6608
G1 X65.24 Y52.582 E149.5828
G1 X64.673 E149.6007
G1 X44.659 Y72.596 E150.4973
G1 Y72.028 E150.5152
G1 X64.106 Y52.582 E151.3863
G1 X63.539 E151.4043
G1 X44.659 Y71.461 E152.25
G1 Y70.894 E152.268
G1 X62.971 Y52.582 E153.0883
G1 X62.404 E153.1063
G1 X44.659 Y70.327 E153.9012
G1 Y69.76 E153.9192
G1 X61.837 Y52.582 E154.6887
G1 X61.27 E154.7067
G1 X44.659 Y69.193 E155.4508
G1 Y68.626 E155.4687
G1 X60.703 Y52.582 E156.1874
G1 X60.136 E156.2054
G1 X44.659 Y68.059 E156.8987
G1 Y67.492 E156.9167
G1 X59.569 Y52.582 E157.5846
G1 X58.812 Y52.772 E157.6093
G1 X44.659 Y66.925 E158.2433
G1 Y66.357 E158.2613
G1 X58.032 Y52.984 E158.8603
G1 X57.253 Y53.197 E158.8859
G1 X44.659 Y65.79 E159.4501
G1 Y65.223 E159.468
G1 X56.473 Y53.409 E159.9973
G1 X55.694 Y53.621 E160.0229
G1 X44.659 Y64.656 E160.5172
G1 Y64.089 E160.5351
G1 X54.915 Y53.834 E160.9946
G1 X54.135 Y54.046 E161.0201
G1 X44.659 Y63.522 E161.4447
G1 Y62.955 E161.4626
G1 X53.356 Y54.258 E161.8522
G1 X52.577 Y54.47 E161.8778
G1 X44.659 Y62.388 E162.2325
G1 Y61.821 E162.2504
G1 X51.797 Y54.683 E162.5702
G1 X51.018 Y54.895 E162.5958
G1 X44.659 Y61.254 E162.8806
G1 Y60.687 E162.8986
