; G-Code flavour: Marlin
; ID: 65bc388831035e1f291ca210
; Print time: 2:53:42
; Filament used: 41.49 meter(s)
; Estimated weight: 125 gram(s)
; Generated with: REALvisionCore 26.1.5
; Printer name: Creality K1
; Material Profile: CreaTECH_PLA 
; Layer height: 0.2
M140 S0
M104 S0 
START_PRINT EXTRUDER_TEMP=230 BED_TEMP=45
G92 E0
G92 E0
G1 F2400 E-0.5
; Print start
          ; Repositioning
G1 X0 Y0 F27000
G1 X11.422 Y218.25
G1 Z0 F1800
G1 Z0.03
        ; New Layer
; layer 0, Z = 0.239
M140 S45
; Repositioning
G1 Z0.239
; Contour
G1 X200.286 E10.7416 F3600
G1 Y1.75 E23.055
G1 X11.422 E33.7966
G1 Y218.25 E46.11
G1 E45.31 F2400
G92 E0
; Repositioning with retraction
G1 X15.872 Y213.8 F3600
G1 E0.8 F2400
G92 E0
; Contour
G1 X195.836 E10.2354 F3600
G1 Y6.2 E22.0426
G1 X15.872 E32.278
G1 Y213.8 E44.0852
G92 E0
; Repositioning
G1 X16.242 Y213.43
; Contour
G1 X195.466 E10.1933
G1 Y6.57 E21.9584
G1 X16.242 E32.1517
G1 Y213.43 E43.9169
G92 E0
; Repositioning
G1 X16.52 Y213.152
; Infill
G1 X17.092 Y213.158 E0.0326 F3600
G1 X16.514 Y212.581 E0.079
G1 Y212.014 E0.1113
G1 X17.658 Y213.158 E0.2033
G1 X18.224 E0.2355
G1 X16.514 Y211.448 E0.3732
G1 Y210.882 E0.4054
G1 X18.79 Y213.158 E0.5886
G1 X19.356 E0.6209
G1 X16.514 Y210.316 E0.8496
G1 Y209.75 E0.8819
G1 X19.923 Y213.158 E1.1562
G1 X20.489 E1.1885
G1 X16.514 Y209.184 E1.5084
G1 Y208.617 E1.5406
G1 X21.055 Y213.158 E1.9061
G1 X21.621 E1.9384
G1 X16.514 Y208.051 E2.3494
G1 Y207.485 E2.3817
G1 X22.187 Y213.158 E2.8383
G1 X22.753 E2.8706
G1 X16.514 Y206.919 E3.3728
G1 Y206.353 E3.405
G1 X23.319 Y213.158 E3.9528
G1 X23.886 E3.9851
G1 X16.514 Y205.787 E4.5784
G1 Y205.221 E4.6107
G1 X24.452 Y213.158 E5.2496
G1 X25.018 E5.2819
G1 X16.514 Y204.654 E5.9664
G1 Y204.088 E5.9986
G1 X25.584 Y213.158 E6.7287
G1 X26.15 E6.761
G1 X16.514 Y203.522 E7.5366
G1 Y202.956 E7.5689
G1 X26.716 Y213.158 E8.3901
G1 X27.283 E8.4224
G1 X16.514 Y202.39 E9.2892
G1 Y201.824 E9.3214
G1 X27.849 Y213.158 E10.2338
G1 X28.415 E10.2661
G1 X16.514 Y201.257 E11.2241
G1 Y200.691 E11.2563
G1 X28.981 Y213.158 E12.2598
G1 X29.547 E12.2921
G1 X16.514 Y200.125 E13.3412
G1 Y199.559 E13.3734
G1 X30.113 Y213.158 E14.4681
G1 X30.679 E14.5004
G1 X16.514 Y198.993 E15.6407
G1 Y198.427 E15.6729
G1 X31.246 Y213.158 E16.8588
G1 X31.812 E16.891
G1 X16.514 Y197.861 E18.1224
G1 Y197.294 E18.1546
G1 X32.378 Y213.158 E19.4317
G1 X32.944 E19.4639
G1 X16.514 Y196.728 E20.7865
G1 Y196.162 E20.8187
G1 X33.51 Y213.158 E22.1869
G1 X34.076 E22.2191
G1 X16.514 Y195.596 E23.6328
G1 Y195.03 E23.6651
G1 X34.643 Y213.158 E25.1244
G1 X35.209 E25.1566
G1 X16.514 Y194.464 E26.6615
G1 Y193.897 E26.6937
G1 X35.775 Y213.158 E28.2442
G1 X36.341 E28.2764
G1 X16.514 Y193.331 E29.8724
G1 Y192.765 E29.9047
G1 X36.907 Y213.158 E31.5463
G1 X37.473 E31.5785
G1 X16.514 Y192.199 E33.2657
G1 Y191.633 E33.2979
G1 X38.039 Y213.158 E35.0307
G1 X38.606 E35.0629
G1 X16.514 Y191.067 E36.8413
G1 Y190.501 E36.8735
G1 X39.172 Y213.158 E38.6974
G1 X39.738 E38.7296
G1 X16.514 Y189.934 E40.5991
G1 Y189.368 E40.6313
G1 X40.304 Y213.158 E42.5464
G1 X40.87 E42.5786
G1 X16.514 Y188.802 E44.5393
G1 Y188.236 E44.5715
G1 X41.436 Y213.158 E46.5777
G1 X42.002 E46.6099
G1 X16.514 Y187.67 E48.6617
G1 Y187.104 E48.694
G1 X42.569 Y213.158 E50.7913
G1 X43.135 E50.8236
G1 X16.514 Y186.538 E52.9665
G1 Y185.971 E52.9987
G1 X43.701 Y213.158 E55.1872
G1 X44.267 E55.2195
G1 X16.514 Y185.405 E57.4536
G1 Y184.839 E57.4858
G1 X44.833 Y213.158 E59.7654
G1 X45.399 E59.7977
G1 X16.514 Y184.273 E62.1229
G1 Y183.707 E62.1551
G1 X45.966 Y213.158 E64.526
G1 X46.532 E64.5582
G1 X16.514 Y183.141 E66.9746
G1 Y182.574 E67.0068
G1 X47.098 Y213.158 E69.4688
G1 X47.664 E69.501
G1 X16.514 Y182.008 E72.0085
G1 Y181.442 E72.0408
G1 X48.23 Y213.158 E74.5939
G1 X48.796 E74.6261
G1 X16.514 Y180.876 E77.2248
G1 Y180.31 E77.257
G1 X49.362 Y213.158 E79.9013
G1 X49.929 E79.9335
G1 X16.514 Y179.744 E82.6234
G1 Y179.178 E82.6556
G1 X50.495 Y213.158 E85.391
G1 X51.061 E85.4232
G1 X16.514 Y178.611 E88.2042
G1 Y178.045 E88.2365
G1 X51.627 Y213.158 E91.063
G1 X52.193 E91.0952
G1 X16.514 Y177.479 E93.9674
G1 Y176.913 E93.9996
G1 X52.759 Y213.158 E96.9173
G1 X53.326 E96.9496
G1 X16.514 Y176.347 E99.9129
G1 Y175.781 E99.9451
G1 X53.892 Y213.158 E102.9539
G1 X54.458 E102.9862
G1 X16.514 Y175.214 E106.0406
G1 Y174.648 E106.0728
G1 X55.024 Y213.158 E109.1729
G1 X55.59 E109.2051
G1 X16.514 Y174.082 E112.3507
G1 Y173.516 E112.3829
G1 X56.156 Y213.158 E115.5741
G1 X56.722 E115.6063
G1 X16.514 Y172.95 E118.843
G1 Y172.384 E118.8753
G1 X57.289 Y213.158 E122.1576
G1 X57.855 E122.1898
G1 X16.514 Y171.818 E125.5177
G1 Y171.251 E125.5499
G1 X58.421 Y213.158 E128.9234
G1 X58.987 E128.9556
G1 X16.514 Y170.685 E132.3747
G1 Y170.119 E132.4069
G1 X59.553 Y213.158 E135.8715
G1 X60.119 E135.9037
G1 X16.514 Y169.553 E139.4139
G1 Y168.987 E139.4462
G1 X60.686 Y213.158 E143.0019
G1 X61.252 E143.0342
G1 X16.514 Y168.421 E146.6355
G1 Y167.854 E146.6677
G1 X61.818 Y213.158 E150.3147
G1 X62.384 E150.3469
G1 X16.514 Y167.288 E154.0394
G1 Y166.722 E154.0716
G1 X62.95 Y213.158 E157.8097
G1 X63.516 E157.8419
G1 X16.514 Y166.156 E161.6255
G1 Y165.59 E161.6578
G1 X64.082 Y213.158 E165.487
G1 X64.649 E165.5192
G1 X16.514 Y165.024 E169.394
G1 Y164.458 E169.4262
G1 X65.215 Y213.158 E173.3466
G1 X65.781 E173.3788
G1 X16.514 Y163.891 E177.3448
G1 Y163.325 E177.377
G1 X66.347 Y213.158 E181.3885
G1 X66.913 E181.4208
G1 X16.514 Y162.759 E185.4778
G1 Y162.193 E185.5101
G1 X67.479 Y213.158 E189.6127
G1 X68.046 E189.645
G1 X16.514 Y161.627 E193.7932
G1 Y161.061 E193.8254
G1 X68.612 Y213.158 E198.0193
G1 X69.178 E198.0515
G1 X16.514 Y160.494 E202.2909
G1 Y159.928 E202.3231
G1 X69.744 Y213.158 E206.6081
G1 X70.31 E206.6403
G1 X16.514 Y159.362 E210.9709
G1 Y158.796 E211.0031
G1 X70.876 Y213.158 E215.3792
G1 X71.442 E215.4114
G1 X16.514 Y158.23 E219.8331
G1 Y157.664 E219.8654
G1 X72.009 Y213.158 E224.3326
G1 X72.575 E224.3649
G1 X16.514 Y157.098 E228.8777
G1 Y156.531 E228.9099
G1 X73.141 Y213.158 E233.4683
G1 X73.707 E233.5006
G1 X16.514 Y155.965 E238.1046
G1 Y155.399 E238.1368
G1 X74.273 Y213.158 E242.7864
G1 X74.839 E242.8186
G1 X16.514 Y154.833 E247.5137
G1 Y154.267 E247.546
G1 X75.406 Y213.158 E252.2867
G1 X75.972 E252.3189
G1 X16.514 Y153.701 E257.1052
G1 Y153.134 E257.1374
G1 X76.538 Y213.158 E261.9693
G1 X77.104 E262.0015
G1 X16.514 Y152.568 E266.879
G1 Y152.002 E266.9112
G1 X77.67 Y213.158 E271.8342
G1 X78.236 E271.8665
G1 X16.514 Y151.436 E276.8351
G1 Y150.87 E276.8673
G1 X78.802 Y213.158 E281.8815
G1 X79.369 E281.9137
G1 X16.514 Y150.304 E286.9734
G1 Y149.738 E287.0057
G1 X79.935 Y213.158 E292.111
G1 X80.501 E292.1432
G1 X16.514 Y149.171 E297.2941
G1 Y148.605 E297.3263
G1 X81.067 Y213.158 E302.5228
G1 X81.633 E302.555
G1 X16.514 Y148.039 E307.7971
G1 Y147.473 E307.8293
G1 X82.199 Y213.158 E313.1169
G1 X82.765 E313.1492
G1 X16.514 Y146.907 E318.4824
G1 Y146.341 E318.5146
G1 X83.332 Y213.158 E323.8934
G1 X83.898 E323.9256
G1 X16.514 Y145.775 E329.3499
G1 Y145.208 E329.3822
G1 X84.464 Y213.158 E334.8521
G1 X85.03 E334.8843
G1 X16.514 Y144.642 E340.3998
G1 Y144.076 E340.432
G1 X85.596 Y213.158 E345.9931
G1 X86.162 E346.0253
G1 X16.514 Y143.51 E351.632
G1 Y142.944 E351.6642
G1 X86.729 Y213.158 E357.3164
G1 X87.295 E357.3487
G1 X16.514 Y142.378 E363.0465
G1 Y141.811 E363.0787
G1 X87.861 Y213.158 E368.8221
G1 X88.427 E368.8543
G1 X16.514 Y141.245 E374.6432
G1 Y140.679 E374.6755
G1 X88.993 Y213.158 E380.51
G1 X89.559 E380.5422
G1 X16.514 Y140.113 E386.4223
G1 Y139.547 E386.4545
G1 X90.125 Y213.158 E392.3802
G1 X90.692 E392.4124
G1 X16.514 Y138.981 E398.3837
G1 Y138.415 E398.4159
G1 X91.258 Y213.158 E404.4327
G1 X91.824 E404.465
G1 X16.514 Y137.848 E410.5274
G1 Y137.282 E410.5596
G1 X92.39 Y213.158 E416.6676
G1 X92.956 E416.6998
G1 X16.514 Y136.716 E422.8534
G1 Y136.15 E422.8856
G1 X93.522 Y213.158 E429.0847
G1 X94.089 E429.1169
G1 X16.514 Y135.584 E435.3616
G1 Y135.018 E435.3939
G1 X94.655 Y213.158 E441.6841
G1 X95.221 E441.7164
G1 X16.514 Y134.451 E448.0522
G1 Y133.885 E448.0844
G1 X95.787 Y213.158 E454.4659
G1 X96.353 E454.4981
G1 X16.514 Y133.319 E460.9251
G1 Y132.753 E460.9573
G1 X96.919 Y213.158 E467.4299
G1 X97.485 E467.4621
G1 X16.514 Y132.187 E473.9803
G1 Y131.621 E474.0125
G1 X98.052 Y213.158 E480.5762
G1 X98.618 E480.6084
G1 X16.514 Y131.055 E487.2178
G1 Y130.488 E487.25
G1 X99.184 Y213.158 E493.9049
G1 X99.75 E493.9371
G1 X16.514 Y129.922 E500.6375
G1 Y129.356 E500.6698
G1 X100.316 Y213.158 E507.4158
G1 X100.882 E507.448
G1 X16.514 Y128.79 E514.2396
G1 Y128.224 E514.2718
G1 X101.449 Y213.158 E521.109
G1 X102.015 E521.1412
G1 X16.514 Y127.658 E528.024
G1 Y127.091 E528.0562
G1 X102.581 Y213.158 E534.9846
G1 X103.147 E535.0168
G1 X16.514 Y126.525 E541.9907
G1 Y125.959 E542.0229
G1 X103.713 Y213.158 E549.0424
G1 X104.279 E549.0746
G1 X16.514 Y125.393 E556.1397
G1 Y124.827 E556.1719
G1 X104.845 Y213.158 E563.2825
G1 X105.412 E563.3147
G1 X16.514 Y124.261 E570.4709
G1 Y123.695 E570.5032
G1 X105.978 Y213.158 E577.705
G1 X106.544 E577.7372
G1 X16.514 Y123.128 E584.9845
G1 Y122.562 E585.0168
G1 X107.11 Y213.158 E592.3097
G1 X107.676 E592.3419
G1 X16.514 Y121.996 E599.6804
G1 Y121.43 E599.7126
G1 X108.242 Y213.158 E607.0967
G1 X108.809 E607.1289
G1 X16.514 Y120.864 E614.5586
G1 Y120.298 E614.5908
G1 X109.375 Y213.158 E622.0661
G1 X109.941 E622.0983
G1 X16.514 Y119.731 E629.6191
G1 Y119.165 E629.6513
G1 X110.507 Y213.158 E637.2177
G1 X111.073 E637.2499
G1 X16.514 Y118.599 E644.8619
G1 Y118.033 E644.8941
G1 X111.639 Y213.158 E652.5516
G1 X112.205 E652.5839
G1 X16.514 Y117.467 E660.287
G1 Y116.901 E660.3192
G1 X112.772 Y213.158 E668.0679
G1 X113.338 E668.1001
G1 X16.514 Y116.335 E675.8943
G1 Y115.768 E675.9266
G1 X113.904 Y213.158 E683.7664
G1 X114.47 E683.7986
G1 X16.514 Y115.202 E691.684
G1 Y114.636 E691.7163
G1 X115.036 Y213.158 E699.6472
G1 X115.602 E699.6795
G1 X16.514 Y114.07 E707.656
G1 Y113.504 E707.6882
G1 X116.169 Y213.158 E715.7104
G1 X116.735 E715.7426
G1 X16.514 Y112.938 E723.8103
G1 Y112.372 E723.8425
G1 X117.301 Y213.158 E731.9558
G1 X117.867 E731.988
G1 X16.514 Y111.805 E740.1469
G1 Y111.239 E740.1791
G1 X118.433 Y213.158 E748.3836
G1 X118.999 E748.4158
G1 X16.514 Y110.673 E756.6658
G1 Y110.107 E756.698
G1 X119.565 Y213.158 E764.9936
G1 X120.132 E765.0258
G1 X16.514 Y109.541 E773.367
G1 Y108.975 E773.3992
G1 X120.698 Y213.158 E781.7859
G1 X121.264 E781.8182
G1 X16.514 Y108.408 E790.2505
G1 Y107.842 E790.2827
G1 X121.83 Y213.158 E798.7606
G1 X122.396 E798.7928
G1 X16.514 Y107.276 E807.3163
G1 Y106.71 E807.3485
G1 X122.962 Y213.158 E815.9175
G1 X123.528 E815.9497
G1 X16.514 Y106.144 E824.5643
G1 Y105.578 E824.5966
G1 X124.095 Y213.158 E833.2568
G1 X124.661 E833.289
G1 X16.514 Y105.012 E841.9947
G1 Y104.445 E842.027
G1 X125.227 Y213.158 E850.7783
G1 X125.793 E850.8105
G1 X16.514 Y103.879 E859.6074
G1 Y103.313 E859.6397
G1 X126.359 Y213.158 E868.4821
G1 X126.925 E868.5144
G1 X16.514 Y102.747 E877.4024
G1 Y102.181 E877.4346
G1 X127.492 Y213.158 E886.3683
G1 X128.058 E886.4005
G1 X16.514 Y101.615 E895.3797
G1 Y101.048 E895.4119
G1 X128.624 Y213.158 E904.4367
G1 X129.19 E904.4689
G1 X16.514 Y100.482 E913.5393
G1 Y99.916 E913.5715
G1 X129.756 Y213.158 E922.6875
G1 X130.322 E922.7197
G1 X16.514 Y99.35 E931.8812
G1 Y98.784 E931.9134
G1 X130.888 Y213.158 E941.1205
G1 X131.455 E941.1527
G1 X16.514 Y98.218 E950.4054
G1 Y97.652 E950.4376
G1 X132.021 Y213.158 E959.7358
G1 X132.587 E959.7681
G1 X16.514 Y97.085 E969.1119
G1 Y96.519 E969.1441
G1 X133.153 Y213.158 E978.5335
G1 X133.719 E978.5657
G1 X16.514 Y95.953 E988.0007
G1 Y95.387 E988.0329
G1 X134.285 Y213.158 E997.5134
G1 X134.852 E997.5457
G1 X16.514 Y94.821 E1007.0718
G1 Y94.255 E1007.104
G1 X135.418 Y213.158 E1016.6757
G1 X135.984 E1016.7079
G1 X16.514 Y93.688 E1026.3252
G1 Y93.122 E1026.3574
G1 X136.55 Y213.158 E1036.0202
G1 X137.116 E1036.0525
G1 X16.514 Y92.556 E1045.7609
G1 Y91.99 E1045.7931
G1 X137.682 Y213.158 E1055.5471
G1 X138.248 E1055.5793
G1 X16.514 Y91.424 E1065.3789
G1 Y90.858 E1065.4111
G1 X138.815 Y213.158 E1075.2562
G1 X139.381 E1075.2884
G1 X16.514 Y90.292 E1085.1792
G1 Y89.725 E1085.2114
G1 X139.947 Y213.158 E1095.1477
G1 X140.513 E1095.1799
G1 X16.514 Y89.159 E1105.1618
G1 Y88.593 E1105.194
G1 X141.079 Y213.158 E1115.2214
G1 X141.645 E1115.2536
G1 X16.514 Y88.027 E1125.3267
G1 Y87.461 E1125.3589
G1 X142.212 Y213.158 E1135.4775
G1 X142.778 E1135.5097
G1 X16.514 Y86.895 E1145.6739
G1 Y86.328 E1145.7061
G1 X143.344 Y213.158 E1155.9158
G1 X143.91 E1155.948
G1 X16.514 Y85.762 E1166.2033
G1 Y85.196 E1166.2356
G1 X144.476 Y213.158 E1176.5365
G1 X145.042 E1176.5687
G1 X16.514 Y84.63 E1186.9151
G1 Y84.064 E1186.9474
G1 X145.608 Y213.158 E1197.3394
G1 X146.175 E1197.3716
G1 X16.514 Y83.498 E1207.8092
G1 Y82.932 E1207.8415
G1 X146.741 Y213.158 E1218.3247
G1 X147.307 E1218.3569
G1 X16.514 Y82.365 E1228.8856
G1 Y81.799 E1228.9179
G1 X147.873 Y213.158 E1239.4922
G1 X148.439 E1239.5244
G1 X16.514 Y81.233 E1250.1443
G1 Y80.667 E1250.1766
G1 X149.005 Y213.158 E1260.8421
G1 X149.572 E1260.8743
G1 X16.514 Y80.101 E1271.5853
G1 Y79.535 E1271.6176
G1 X150.138 Y213.158 E1282.3742
G1 X150.704 E1282.4064
G1 X16.514 Y78.968 E1293.2086
G1 Y78.402 E1293.2409
G1 X151.27 Y213.158 E1304.0887
G1 X151.836 E1304.1209
G1 X16.514 Y77.836 E1315.0143
G1 Y77.27 E1315.0465
G1 X152.402 Y213.158 E1325.9854
G1 X152.968 E1326.0176
G1 X16.514 Y76.704 E1337.0022
G1 Y76.138 E1337.0344
G1 X153.535 Y213.158 E1348.0645
G1 X154.101 E1348.0967
G1 X16.514 Y75.572 E1359.1724
G1 Y75.005 E1359.2046
G1 X154.667 Y213.158 E1370.3258
G1 X155.233 E1370.358
G1 X16.514 Y74.439 E1381.5249
G1 Y73.873 E1381.5571
G1 X155.799 Y213.158 E1392.7695
G1 X156.365 E1392.8017
G1 X16.514 Y73.307 E1404.0597
G1 Y72.741 E1404.0919
G1 X156.931 Y213.158 E1415.3954
G1 X157.498 E1415.4277
G1 X16.514 Y72.175 E1426.7768
G1 Y71.609 E1426.809
G1 X158.064 Y213.158 E1438.2037
G1 X158.63 E1438.2359
G1 X16.514 Y71.042 E1449.6762
G1 Y70.476 E1449.7084
G1 X159.196 Y213.158 E1461.1942
G1 X159.762 E1461.2265
G1 X16.514 Y69.91 E1472.7579
G1 Y69.344 E1472.7901
G1 X160.328 Y213.158 E1484.3671
G1 X160.895 E1484.3993
G1 X16.514 Y68.778 E1496.0219
G1 Y68.212 E1496.0541
G1 X161.461 Y213.158 E1507.7222
G1 X162.027 E1507.7545
G1 X16.514 Y67.645 E1519.4682
G1 Y67.079 E1519.5004
G1 X162.593 Y213.158 E1531.2597
G1 X163.159 E1531.2919
G1 X16.514 Y66.513 E1543.0968
G1 Y65.947 E1543.129
G1 X163.725 Y213.158 E1554.9795
G1 X164.291 E1555.0117
G1 X16.514 Y65.381 E1566.9077
G1 Y64.815 E1566.9399
G1 X164.858 Y213.158 E1578.8815
G1 X165.424 E1578.9137
G1 X16.514 Y64.249 E1590.9009
G1 Y63.682 E1590.9331
G1 X165.99 Y213.158 E1602.9659
G1 X166.556 E1602.9981
G1 X16.514 Y63.116 E1615.0764
G1 Y62.55 E1615.1086
G1 X167.122 Y213.158 E1627.2325
G1 X167.688 E1627.2648
G1 X16.514 Y61.984 E1639.4342
G1 Y61.418 E1639.4664
G1 X168.255 Y213.158 E1651.6815
G1 X168.821 E1651.7137
G1 X16.514 Y60.852 E1663.9743
G1 Y60.285 E1664.0066
G1 X169.387 Y213.158 E1676.3127
G1 X169.953 E1676.345
G1 X16.514 Y59.719 E1688.6967
G1 Y59.153 E1688.729
G1 X170.519 Y213.158 E1701.1263
G1 X171.085 E1701.1585
G1 X16.514 Y58.587 E1713.6014
G1 Y58.021 E1713.6337
G1 X171.651 Y213.158 E1726.1222
G1 X172.218 E1726.1544
G1 X16.514 Y57.455 E1738.6885
G1 Y56.889 E1738.7207
G1 X172.784 Y213.158 E1751.3003
G1 X173.35 E1751.3325
G1 X16.514 Y56.322 E1763.9578
G1 Y55.756 E1763.99
G1 X173.916 Y213.158 E1776.6608
G1 X174.482 E1776.693
G1 X16.514 Y55.19 E1789.4094
G1 Y54.624 E1789.4416
G1 X175.048 Y213.158 E1802.2035
G1 X175.615 E1802.2358
G1 X16.514 Y54.058 E1815.0433
G1 Y53.492 E1815.0755
G1 X176.181 Y213.158 E1827.9286
G1 X176.747 E1827.9608
G1 X16.514 Y52.925 E1840.8595
G1 Y52.359 E1840.8917
G1 X177.313 Y213.158 E1853.836
G1 X177.879 E1853.8682
G1 X16.514 Y51.793 E1866.858
G1 Y51.227 E1866.8902
G1 X178.445 Y213.158 E1879.9256
G1 X179.011 E1879.9579
G1 X16.514 Y50.661 E1893.0388
G1 Y50.095 E1893.071
G1 X179.578 Y213.158 E1906.1976
G1 X180.144 E1906.2298
G1 X16.514 Y49.529 E1919.4019
G1 Y48.962 E1919.4342
G1 X180.71 Y213.158 E1932.6518
G1 X181.276 E1932.6841
G1 X16.514 Y48.396 E1945.9473
G1 Y47.83 E1945.9796
G1 X181.842 Y213.158 E1959.2884
G1 X182.408 E1959.3206
G1 X16.514 Y47.264 E1972.6751
G1 Y46.698 E1972.7073
G1 X182.975 Y213.158 E1986.1073
G1 X183.541 E1986.1395
G1 X16.514 Y46.132 E1999.5851
G1 Y45.565 E1999.6173
G1 X184.107 Y213.158 E2013.1084
G1 X184.673 E2013.1407
G1 X16.514 Y44.999 E2026.6774
G1 Y44.433 E2026.7096
G1 X185.239 Y213.158 E2040.2919
G1 X185.805 E2040.3241
G1 X16.514 Y43.867 E2053.952
G1 Y43.301 E2053.9842
G1 X186.371 Y213.158 E2067.6577
G1 X186.938 E2067.6899
G1 X16.514 Y42.735 E2081.4089
G1 Y42.169 E2081.4411
G1 X187.504 Y213.158 E2095.2057
G1 X188.07 E2095.238
G1 X16.514 Y41.602 E2109.0481
G1 Y41.036 E2109.0804
G1 X188.636 Y213.158 E2122.9361
G1 X189.202 E2122.9683
G1 X16.514 Y40.47 E2136.8696
G1 Y39.904 E2136.9019
G1 X189.768 Y213.158 E2150.8488
G1 X190.335 E2150.881
G1 X16.514 Y39.338 E2164.8735
G1 Y38.772 E2164.9057
G1 X190.901 Y213.158 E2178.9437
G1 X191.467 E2178.976
G1 X16.514 Y38.206 E2193.0596
G1 Y37.639 E2193.0918
G1 X192.033 Y213.158 E2207.221
G1 X192.599 E2207.2532
G1 X16.514 Y37.073 E2221.428
G1 Y36.507 E2221.4602
G1 X193.165 Y213.158 E2235.6806
G1 X193.731 E2235.7128
G1 X16.514 Y35.941 E2249.9787
G1 Y35.375 E2250.0109
G1 X194.298 Y213.158 E2264.3224
G1 X194.864 E2264.3547
G1 X16.514 Y34.809 E2278.7117
G1 Y34.242 E2278.744
G1 X195.194 Y212.922 E2293.1276
G1 Y212.356 E2293.1598
G1 X16.514 Y33.676 E2307.5435
G1 Y33.11 E2307.5757
G1 X195.194 Y211.79 E2321.9593
G1 Y211.224 E2321.9916
G1 X16.514 Y32.544 E2336.3752
G1 Y31.978 E2336.4074
G1 X195.194 Y210.657 E2350.7911
G1 Y210.091 E2350.8233
G1 X16.514 Y31.412 E2365.207
G1 Y30.846 E2365.2392
G1 X195.194 Y209.525 E2379.6228
G1 Y208.959 E2379.6551
G1 X16.514 Y30.279 E2394.0387
G1 Y29.713 E2394.0709
G1 X195.194 Y208.393 E2408.4546
G1 Y207.827 E2408.4868
G1 X16.514 Y29.147 E2422.8704
G1 Y28.581 E2422.9027
G1 X195.194 Y207.26 E2437.2863
G1 Y206.694 E2437.3185
G1 X16.514 Y28.015 E2451.7022
G1 Y27.449 E2451.7344
G1 X195.194 Y206.128 E2466.1181
G1 Y205.562 E2466.1503
G1 X16.514 Y26.882 E2480.5339
G1 Y26.316 E2480.5662
G1 X195.194 Y204.996 E2494.9498
G1 Y204.43 E2494.982
G1 X16.514 Y25.75 E2509.3657
G1 Y25.184 E2509.3979
G1 X195.194 Y203.864 E2523.7815
G1 Y203.297 E2523.8138
G1 X16.514 Y24.618 E2538.1974
G1 Y24.052 E2538.2296
G1 X195.194 Y202.731 E2552.6133
G1 Y202.165 E2552.6455
G1 X16.514 Y23.486 E2567.0292
G1 Y22.919 E2567.0614
G1 X195.194 Y201.599 E2581.445
G1 Y201.033 E2581.4773
G1 X16.514 Y22.353 E2595.8609
G1 Y21.787 E2595.8931
G1 X195.194 Y200.467 E2610.2768
G1 Y199.9 E2610.309
G1 X16.514 Y21.221 E2624.6926
G1 Y20.655 E2624.7249
G1 X195.194 Y199.334 E2639.1085
G1 Y198.768 E2639.1407
G1 X16.514 Y20.089 E2653.5244
G1 Y19.522 E2653.5566
G1 X195.194 Y198.202 E2667.9403
G1 Y197.636 E2667.9725
G1 X16.514 Y18.956 E2682.3561
G1 Y18.39 E2682.3884
G1 X195.194 Y197.07 E2696.772
G1 Y196.504 E2696.8042
G1 X16.514 Y17.824 E2711.1879
G1 Y17.258 E2711.2201
G1 X195.194 Y195.937 E2725.6037
G1 Y195.371 E2725.636
G1 X16.514 Y16.692 E2740.0196
G1 Y16.126 E2740.0518
G1 X195.194 Y194.805 E2754.4355
G1 Y194.239 E2754.4677
G1 X16.514 Y15.559 E2768.8514
G1 Y14.993 E2768.8836
G1 X195.194 Y193.673 E2783.2672
G1 Y193.107 E2783.2995
G1 X16.514 Y14.427 E2797.6831
G1 Y13.861 E2797.7153
G1 X195.194 Y192.54 E2812.099
G1 Y191.974 E2812.1312
G1 X16.514 Y13.295 E2826.5148
G1 Y12.729 E2826.5471
G1 X195.194 Y191.408 E2840.9307
G1 Y190.842 E2840.9629
G1 X16.514 Y12.162 E2855.3466
G1 Y11.596 E2855.3788
G1 X195.194 Y190.276 E2869.7625
G1 Y189.71 E2869.7947
G1 X16.514 Y11.03 E2884.1783
G1 Y10.464 E2884.2105
G1 X195.194 Y189.144 E2898.5942
G1 Y188.577 E2898.6264
G1 X16.514 Y9.898 E2913.0101
G1 Y9.332 E2913.0423
G1 X195.194 Y188.011 E2927.4259
G1 Y187.445 E2927.4582
G1 X16.514 Y8.766 E2941.8418
G1 Y8.199 E2941.874
G1 X195.194 Y186.879 E2956.2577
G1 Y186.313 E2956.2899
G1 X16.514 Y7.633 E2970.6735
G1 Y7.067 E2970.7058
G1 X195.194 Y185.747 E2985.0894
G1 Y185.18 E2985.1216
G1 X16.855 Y6.842 E2999.4778
G1 X17.422 E2999.5101
G1 X195.194 Y184.614 E3013.8207
G1 Y184.048 E3013.8529
G1 X17.988 Y6.842 E3028.1179
G1 X18.554 E3028.1502
G1 X195.194 Y183.482 E3042.3696
G1 Y182.916 E3042.4019
G1 X19.12 Y6.842 E3056.5758
G1 X19.686 E3056.608
G1 X195.194 Y182.35 E3070.7363
G1 Y181.784 E3070.7685
G1 X20.252 Y6.842 E3084.8513
G1 X20.818 E3084.8835
G1 X195.194 Y181.217 E3098.9207
G1 Y180.651 E3098.9529
G1 X21.385 Y6.842 E3112.9445
G1 X21.951 E3112.9767
G1 X195.194 Y180.085 E3126.9227
G1 Y179.519 E3126.9549
G1 X22.517 Y6.842 E3140.8554
G1 X23.083 E3140.8876
G1 X195.194 Y178.953 E3154.7425
G1 Y178.387 E3154.7747
G1 X23.649 Y6.842 E3168.584
G1 X24.215 E3168.6162
G1 X195.194 Y177.82 E3182.3799
G1 Y177.254 E3182.4121
G1 X24.782 Y6.842 E3196.1303
G1 X25.348 E3196.1625
G1 X195.194 Y176.688 E3209.8351
G1 Y176.122 E3209.8673
G1 X25.914 Y6.842 E3223.4943
G1 X26.48 E3223.5265
G1 X195.194 Y175.556 E3237.1079
G1 Y174.99 E3237.1402
G1 X27.046 Y6.842 E3250.676
G1 X27.612 E3250.7082
G1 X195.194 Y174.424 E3264.1985
G1 Y173.857 E3264.2307
G1 X28.178 Y6.842 E3277.6754
G1 X28.745 E3277.7076
G1 X195.194 Y173.291 E3291.1067
G1 Y172.725 E3291.139
G1 X29.311 Y6.842 E3304.4925
G1 X29.877 E3304.5247
G1 X195.194 Y172.159 E3317.8327
G1 Y171.593 E3317.8649
G1 X30.443 Y6.842 E3331.1273
G1 X31.009 E3331.1595
G1 X195.194 Y171.027 E3344.3763
G1 Y170.461 E3344.4086
G1 X31.575 Y6.842 E3357.5798
G1 X32.141 E3357.612
G1 X195.194 Y169.894 E3370.7377
G1 Y169.328 E3370.7699
G1 X32.708 Y6.842 E3383.85
G1 X33.274 E3383.8822
G1 X195.194 Y168.762 E3396.9168
G1 Y168.196 E3396.949
G1 X33.84 Y6.842 E3409.9379
G1 X34.406 E3409.9701
G1 X195.194 Y167.63 E3422.9135
G1 Y167.064 E3422.9457
G1 X34.972 Y6.842 E3435.8435
G1 X35.538 E3435.8757
G1 X195.194 Y166.497 E3448.728
G1 Y165.931 E3448.7602
G1 X36.105 Y6.842 E3461.5668
G1 X36.671 E3461.599
G1 X195.194 Y165.365 E3474.3601
G1 Y164.799 E3474.3923
G1 X37.237 Y6.842 E3487.1078
G1 X37.803 E3487.14
G1 X195.194 Y164.233 E3499.81
G1 Y163.667 E3499.8422
G1 X38.369 Y6.842 E3512.4665
G1 X38.935 E3512.4987
G1 X195.194 Y163.101 E3525.0775
G1 Y162.534 E3525.1097
G1 X39.501 Y6.842 E3537.6429
G1 X40.068 E3537.6751
G1 X195.194 Y161.968 E3550.1628
G1 Y161.402 E3550.195
G1 X40.634 Y6.842 E3562.637
G1 X41.2 E3562.6692
G1 X195.194 Y160.836 E3575.0657
G1 Y160.27 E3575.0979
G1 X41.766 Y6.842 E3587.4488
G1 X42.332 E3587.481
G1 X195.194 Y159.704 E3599.7864
G1 Y159.137 E3599.8186
G1 X42.898 Y6.842 E3612.0783
G1 X43.465 E3612.1105
G1 X195.194 Y158.571 E3624.3247
G1 Y158.005 E3624.3569
G1 X44.031 Y6.842 E3636.5255
G1 X44.597 E3636.5577
G1 X195.194 Y157.439 E3648.6808
G1 Y156.873 E3648.713
G1 X45.163 Y6.842 E3660.7904
G1 X45.729 E3660.8226
G1 X195.194 Y156.307 E3672.8545
G1 Y155.741 E3672.8867
G1 X46.295 Y6.842 E3684.873
G1 X46.861 E3684.9052
G1 X195.194 Y155.174 E3696.8459
G1 Y154.608 E3696.8782
G1 X47.428 Y6.842 E3708.7733
G1 X47.994 E3708.8055
G1 X195.194 Y154.042 E3720.6551
G1 Y153.476 E3720.6873
G1 X48.56 Y6.842 E3732.4913
G1 X49.126 E3732.5235
G1 X195.194 Y152.91 E3744.2819
G1 Y152.344 E3744.3142
G1 X49.692 Y6.842 E3756.027
G1 X50.258 E3756.0592
G1 X195.194 Y151.777 E3767.7265
G1 Y151.211 E3767.7587
G1 X50.825 Y6.842 E3779.3804
G1 X51.391 E3779.4126
G1 X195.194 Y150.645 E3790.9887
G1 Y150.079 E3791.021
G1 X51.957 Y6.842 E3802.5515
G1 X52.523 E3802.5837
G1 X195.194 Y149.513 E3814.0687
G1 Y148.947 E3814.1009
G1 X53.089 Y6.842 E3825.5403
G1 X53.655 E3825.5725
G1 X195.194 Y148.381 E3836.9663
G1 Y147.814 E3836.9986
G1 X54.221 Y6.842 E3848.3468
G1 X54.788 E3848.379
G1 X195.194 Y147.248 E3859.6817
G1 Y146.682 E3859.7139
G1 X55.354 Y6.842 E3870.971
G1 X55.92 E3871.0032
G1 X195.194 Y146.116 E3882.2147
G1 Y145.55 E3882.2469
G1 X56.486 Y6.842 E3893.4129
G1 X57.052 E3893.4451
G1 X195.194 Y144.984 E3904.5655
G1 Y144.417 E3904.5977
G1 X57.618 Y6.842 E3915.6725
G1 X58.185 E3915.7047
G1 X195.194 Y143.851 E3926.7339
G1 Y143.285 E3926.7661
G1 X58.751 Y6.842 E3937.7498
G1 X59.317 E3937.782
G1 X195.194 Y142.719 E3948.72
G1 Y142.153 E3948.7523
G1 X59.883 Y6.842 E3959.6447
G1 X60.449 E3959.677
G1 X195.194 Y141.587 E3970.5239
G1 Y141.021 E3970.5561
G1 X61.015 Y6.842 E3981.3574
G1 X61.581 E3981.3897
G1 X195.194 Y140.454 E3992.1454
G1 Y139.888 E3992.1777
G1 X62.148 Y6.842 E4002.8878
G1 X62.714 E4002.9201
G1 X195.194 Y139.322 E4013.5847
G1 Y138.756 E4013.6169
G1 X63.28 Y6.842 E4024.2359
G1 X63.846 E4024.2681
G1 X195.194 Y138.19 E4034.8416
G1 Y137.624 E4034.8738
G1 X64.412 Y6.842 E4045.4017
G1 X64.978 E4045.4339
G1 X195.194 Y137.058 E4055.9162
G1 Y136.491 E4055.9485
G1 X65.544 Y6.842 E4066.3852
G1 X66.111 E4066.4174
G1 X195.194 Y135.925 E4076.8086
G1 Y135.359 E4076.8408
G1 X66.677 Y6.842 E4087.1864
G1 X67.243 E4087.2186
G1 X195.194 Y134.793 E4097.5186
G1 Y134.227 E4097.5509
G1 X67.809 Y6.842 E4107.8053
G1 X68.375 E4107.8375
G1 X195.194 Y133.661 E4118.0464
G1 Y133.094 E4118.0786
G1 X68.941 Y6.842 E4128.2419
G1 X69.508 E4128.2741
G1 X195.194 Y132.528 E4138.3918
G1 Y131.962 E4138.424
G1 X70.074 Y6.842 E4148.4962
G1 X70.64 E4148.5284
G1 X195.194 Y131.396 E4158.5549
G1 Y130.83 E4158.5872
G1 X71.206 Y6.842 E4168.5681
G1 X71.772 E4168.6004
G1 X195.194 Y130.264 E4178.5358
G1 Y129.698 E4178.568
G1 X72.338 Y6.842 E4188.4578
G1 X72.904 E4188.4901
G1 X195.194 Y129.131 E4198.3343
G1 Y128.565 E4198.3665
G1 X73.471 Y6.842 E4208.1652
G1 X74.037 E4208.1974
G1 X195.194 Y127.999 E4217.9506
G1 Y127.433 E4217.9828
G1 X74.603 Y6.842 E4227.6903
G1 X75.169 E4227.7225
G1 X195.194 Y126.867 E4237.3845
G1 Y126.301 E4237.4167
G1 X75.735 Y6.842 E4247.0331
G1 X76.301 E4247.0653
G1 X195.194 Y125.734 E4256.6361
G1 Y125.168 E4256.6684
G1 X76.868 Y6.842 E4266.1936
G1 X77.434 E4266.2258
G1 X195.194 Y124.602 E4275.7055
G1 Y124.036 E4275.7377
G1 X78 Y6.842 E4285.1718
G1 X78.566 E4285.204
G1 X195.194 Y123.47 E4294.5925
G1 Y122.904 E4294.6247
G1 X79.132 Y6.842 E4303.9677
G1 X79.698 E4303.9999
G1 X195.194 Y122.338 E4313.2972
G1 Y121.771 E4313.3295
G1 X80.264 Y6.842 E4322.5812
G1 X80.831 E4322.6135
G1 X195.194 Y121.205 E4331.8197
G1 Y120.639 E4331.8519
G1 X81.397 Y6.842 E4341.0125
G1 X81.963 E4341.0447
G1 X195.194 Y120.073 E4350.1598
G1 Y119.507 E4350.192
G1 X82.529 Y6.842 E4359.2615
G1 X83.095 E4359.2937
G1 X195.194 Y118.941 E4368.3176
G1 Y118.374 E4368.3499
G1 X83.661 Y6.842 E4377.3282
G1 X84.228 E4377.3604
G1 X195.194 Y117.808 E4386.2932
G1 Y117.242 E4386.3254
G1 X84.794 Y6.842 E4395.2126
G1 X85.36 E4395.2448
G1 X195.194 Y116.676 E4404.0864
G1 Y116.11 E4404.1186
G1 X85.926 Y6.842 E4412.9146
G1 X86.492 E4412.9469
G1 X195.194 Y115.544 E4421.6973
G1 Y114.978 E4421.7296
G1 X87.058 Y6.842 E4430.4344
G1 X87.624 E4430.4667
G1 X195.194 Y114.411 E4439.126
G1 Y113.845 E4439.1582
G1 X88.191 Y6.842 E4447.7719
G1 X88.757 E4447.8041
G1 X195.194 Y113.279 E4456.3723
G1 Y112.713 E4456.4045
G1 X89.323 Y6.842 E4464.9271
G1 X89.889 E4464.9593
G1 X195.194 Y112.147 E4473.4363
G1 Y111.581 E4473.4685
G1 X90.455 Y6.842 E4481.9
G1 X91.021 E4481.9322
G1 X195.194 Y111.014 E4490.3181
G1 Y110.448 E4490.3503
G1 X91.588 Y6.842 E4498.6906
G1 X92.154 E4498.7228
G1 X195.194 Y109.882 E4507.0175
G1 Y109.316 E4507.0497
G1 X92.72 Y6.842 E4515.2988
G1 X93.286 E4515.3311
G1 X195.194 Y108.75 E4523.5346
G1 Y108.184 E4523.5668
G1 X93.852 Y6.842 E4531.7248
G1 X94.418 E4531.757
G1 X195.194 Y107.618 E4539.8694
G1 Y107.051 E4539.9017
G1 X94.984 Y6.842 E4547.9685
G1 X95.551 E4548.0007
G1 X195.194 Y106.485 E4556.022
G1 Y105.919 E4556.0542
G1 X96.117 Y6.842 E4564.0299
G1 X96.683 E4564.0621
G1 X195.194 Y105.353 E4571.9922
G1 Y104.787 E4572.0244
G1 X97.249 Y6.842 E4579.9089
G1 X97.815 E4579.9412
G1 X195.194 Y104.221 E4587.7801
G1 Y103.654 E4587.8124
G1 X98.381 Y6.842 E4595.6057
G1 X98.948 E4595.638
G1 X195.194 Y103.088 E4603.3858
G1 Y102.522 E4603.418
G1 X99.514 Y6.842 E4611.1202
G1 X100.08 E4611.1524
G1 X195.194 Y101.956 E4618.8091
G1 Y101.39 E4618.8413
G1 X100.646 Y6.842 E4626.4524
G1 X101.212 E4626.4846
G1 X195.194 Y100.824 E4634.0501
G1 Y100.258 E4634.0823
G1 X101.778 Y6.842 E4641.6023
G1 X102.344 E4641.6345
G1 X195.194 Y99.691 E4649.1088
G1 Y99.125 E4649.1411
G1 X102.911 Y6.842 E4656.5698
G1 X103.477 E4656.6021
G1 X195.194 Y98.559 E4663.9853
G1 Y97.993 E4664.0175
G1 X104.043 Y6.842 E4671.3551
G1 X104.609 E4671.3873
G1 X195.194 Y97.427 E4678.6794
G1 Y96.861 E4678.7116
G1 X105.175 Y6.842 E4685.9581
G1 X105.741 E4685.9903
G1 X195.194 Y96.295 E4693.1912
G1 Y95.728 E4693.2234
G1 X106.307 Y6.842 E4700.3788
G1 X106.874 E4700.411
G1 X195.194 Y95.162 E4707.5207
G1 Y94.596 E4707.553
G1 X107.44 Y6.842 E4714.6171
G1 X108.006 E4714.6494
G1 X195.194 Y94.03 E4721.668
G1 Y93.464 E4721.7002
G1 X108.572 Y6.842 E4728.6732
G1 X109.138 E4728.7054
G1 X195.194 Y92.898 E4735.6329
G1 Y92.331 E4735.6651
G1 X109.704 Y6.842 E4742.547
G1 X110.271 E4742.5792
G1 X195.194 Y91.765 E4749.4155
G1 Y91.199 E4749.4477
G1 X110.837 Y6.842 E4756.2384
G1 X111.403 E4756.2707
G1 X195.194 Y90.633 E4763.0158
G1 Y90.067 E4763.048
G1 X111.969 Y6.842 E4769.7476
G1 X112.535 E4769.7798
G1 X195.194 Y89.501 E4776.4338
G1 Y88.935 E4776.4661
G1 X113.101 Y6.842 E4783.0745
G1 X113.667 E4783.1067
G1 X195.194 Y88.368 E4789.6696
G1 Y87.802 E4789.7018
G1 X114.234 Y6.842 E4796.2191
G1 X114.8 E4796.2513
G1 X195.194 Y87.236 E4802.723
G1 Y86.67 E4802.7552
G1 X115.366 Y6.842 E4809.1813
G1 X115.932 E4809.2136
G1 X195.194 Y86.104 E4815.5941
G1 Y85.538 E4815.6263
G1 X116.498 Y6.842 E4821.9613
G1 X117.064 E4821.9935
G1 X195.194 Y84.971 E4828.2829
G1 Y84.405 E4828.3152
G1 X117.631 Y6.842 E4834.559
G1 X118.197 E4834.5912
G1 X195.194 Y83.839 E4840.7894
G1 Y83.273 E4840.8217
G1 X118.763 Y6.842 E4846.9743
G1 X119.329 E4847.0066
G1 X195.194 Y82.707 E4853.1137
G1 Y82.141 E4853.1459
G1 X119.895 Y6.842 E4859.2074
G1 X120.461 E4859.2396
G1 X195.194 Y81.575 E4865.2556
G1 Y81.008 E4865.2878
G1 X121.027 Y6.842 E4871.2582
G1 X121.594 E4871.2904
G1 X195.194 Y80.442 E4877.2152
G1 Y79.876 E4877.2474
G1 X122.16 Y6.842 E4883.1266
G1 X122.726 E4883.1589
G1 X195.194 Y79.31 E4888.9925
G1 Y78.744 E4889.0247
G1 X123.292 Y6.842 E4894.8128
G1 X123.858 E4894.845
G1 X195.194 Y78.178 E4900.5875
G1 Y77.611 E4900.6198
G1 X124.424 Y6.842 E4906.3167
G1 X124.991 E4906.3489
G1 X195.194 Y77.045 E4912.0003
G1 Y76.479 E4912.0325
G1 X125.557 Y6.842 E4917.6383
G1 X126.123 E4917.6705
G1 X195.194 Y75.913 E4923.2307
G1 Y75.347 E4923.2629
G1 X126.689 Y6.842 E4928.7775
G1 X127.255 E4928.8097
G1 X195.194 Y74.781 E4934.2788
G1 Y74.215 E4934.311
G1 X127.821 Y6.842 E4939.7345
G1 X128.387 E4939.7667
G1 X195.194 Y73.648 E4945.1446
G1 Y73.082 E4945.1768
G1 X128.954 Y6.842 E4950.5091
G1 X129.52 E4950.5414
G1 X195.194 Y72.516 E4955.8281
G1 Y71.95 E4955.8603
G1 X130.086 Y6.842 E4961.1015
G1 X130.652 E4961.1337
G1 X195.194 Y71.384 E4966.3293
G1 Y70.818 E4966.3616
G1 X131.218 Y6.842 E4971.5116
G1 X131.784 E4971.5438
G1 X195.194 Y70.251 E4976.6482
G1 Y69.685 E4976.6805
G1 X132.351 Y6.842 E4981.7393
G1 X132.917 E4981.7716
G1 X195.194 Y69.119 E4986.7849
G1 Y68.553 E4986.8171
G1 X133.483 Y6.842 E4991.7848
G1 X134.049 E4991.817
G1 X195.194 Y67.987 E4996.7392
G1 Y67.421 E4996.7714
G1 X134.615 Y6.842 E5001.648
G1 X135.181 E5001.6802
G1 X195.194 Y66.855 E5006.5112
G1 Y66.288 E5006.5434
G1 X135.747 Y6.842 E5011.3288
G1 X136.314 E5011.3611
G1 X195.194 Y65.722 E5016.1009
G1 Y65.156 E5016.1331
G1 X136.88 Y6.842 E5020.8274
G1 X137.446 E5020.8596
G1 X195.194 Y64.59 E5025.5083
G1 Y64.024 E5025.5405
G1 X138.012 Y6.842 E5030.1437
G1 X138.578 E5030.1759
G1 X195.194 Y63.458 E5034.7334
G1 Y62.892 E5034.7657
G1 X139.144 Y6.842 E5039.2776
G1 X139.71 E5039.3098
G1 X195.194 Y62.325 E5043.7762
G1 Y61.759 E5043.8085
G1 X140.277 Y6.842 E5048.2293
G1 X140.843 E5048.2615
G1 X195.194 Y61.193 E5052.6367
G1 Y60.627 E5052.669
G1 X141.409 Y6.842 E5056.9986
G1 X141.975 E5057.0309
G1 X195.194 Y60.061 E5061.315
G1 Y59.495 E5061.3472
G1 X142.541 Y6.842 E5065.5857
G1 X143.107 E5065.6179
G1 X195.194 Y58.928 E5069.8109
G1 Y58.362 E5069.8431
G1 X143.674 Y6.842 E5073.9905
G1 X144.24 E5074.0227
G1 X195.194 Y57.796 E5078.1245
G1 Y57.23 E5078.1567
G1 X144.806 Y6.842 E5082.2129
G1 X145.372 E5082.2451
G1 X195.194 Y56.664 E5086.2558
G1 Y56.098 E5086.288
G1 X145.938 Y6.842 E5090.2531
G1 X146.504 E5090.2853
G1 X195.194 Y55.532 E5094.2048
G1 Y54.965 E5094.237
G1 X147.07 Y6.842 E5098.1109
G1 X147.637 E5098.1432
G1 X195.194 Y54.399 E5101.9715
G1 Y53.833 E5102.0037
G1 X148.203 Y6.842 E5105.7865
G1 X148.769 E5105.8187
G1 X195.194 Y53.267 E5109.5559
G1 Y52.701 E5109.5881
G1 X149.335 Y6.842 E5113.2798
G1 X149.901 E5113.312
G1 X195.194 Y52.135 E5116.958
G1 Y51.568 E5116.9902
G1 X150.467 Y6.842 E5120.5907
G1 X151.034 E5120.6229
G1 X195.194 Y51.002 E5124.1778
G1 Y50.436 E5124.2101
G1 X151.6 Y6.842 E5127.7194
G1 X152.166 E5127.7516
G1 X195.194 Y49.87 E5131.2153
G1 Y49.304 E5131.2476
G1 X152.732 Y6.842 E5134.6657
G1 X153.298 E5134.698
G1 X195.194 Y48.738 E5138.0705
G1 Y48.172 E5138.1028
G1 X153.864 Y6.842 E5141.4298
G1 X154.43 E5141.462
G1 X195.194 Y47.605 E5144.7434
G1 Y47.039 E5144.7757
G1 X154.997 Y6.842 E5148.0115
G1 X155.563 E5148.0438
G1 X195.194 Y46.473 E5151.2341
G1 Y45.907 E5151.2663
G1 X156.129 Y6.842 E5154.411
G1 X156.695 E5154.4432
G1 X195.194 Y45.341 E5157.5424
G1 Y44.775 E5157.5746
G1 X157.261 Y6.842 E5160.6281
G1 X157.827 E5160.6604
G1 X195.194 Y44.208 E5163.6684
G1 Y43.642 E5163.7006
G1 X158.394 Y6.842 E5166.663
G1 X158.96 E5166.6952
G1 X195.194 Y43.076 E5169.6121
G1 Y42.51 E5169.6443
G1 X159.526 Y6.842 E5172.5156
G1 X160.092 E5172.5478
G1 X195.194 Y41.944 E5175.3735
G1 Y41.378 E5175.4057
G1 X160.658 Y6.842 E5178.1858
G1 X161.224 E5178.218
G1 X195.194 Y40.812 E5180.9526
G1 Y40.245 E5180.9848
G1 X161.79 Y6.842 E5183.6738
G1 X162.357 E5183.706
G1 X195.194 Y39.679 E5186.3494
G1 Y39.113 E5186.3816
G1 X162.923 Y6.842 E5188.9794
G1 X163.489 E5189.0116
G1 X195.194 Y38.547 E5191.5639
G1 Y37.981 E5191.5961
G1 X164.055 Y6.842 E5194.1028
G1 X164.621 E5194.135
G1 X195.194 Y37.415 E5196.5961
G1 Y36.848 E5196.6283
G1 X165.187 Y6.842 E5199.0438
G1 X165.754 E5199.076
G1 X195.194 Y36.282 E5201.446
G1 Y35.716 E5201.4782
G1 X166.32 Y6.842 E5203.8026
G1 X166.886 E5203.8348
G1 X195.194 Y35.15 E5206.1136
G1 Y34.584 E5206.1458
G1 X167.452 Y6.842 E5208.379
G1 X168.018 E5208.4112
G1 X195.194 Y34.018 E5210.5989
G1 Y33.452 E5210.6311
G1 X168.584 Y6.842 E5212.7732
G1 X169.15 E5212.8054
G1 X195.194 Y32.885 E5214.9019
G1 Y32.319 E5214.9341
G1 X169.717 Y6.842 E5216.985
G1 X170.283 E5217.0172
G1 X195.194 Y31.753 E5219.0226
G1 Y31.187 E5219.0548
G1 X170.849 Y6.842 E5221.0146
G1 X171.415 E5221.0468
G1 X195.194 Y30.621 E5222.961
G1 Y30.055 E5222.9932
G1 X171.981 Y6.842 E5224.8618
G1 X172.547 E5224.894
G1 X195.194 Y29.488 E5226.7171
G1 Y28.922 E5226.7493
G1 X173.114 Y6.842 E5228.5268
G1 X173.68 E5228.559
G1 X195.194 Y28.356 E5230.2909
G1 Y27.79 E5230.3231
G1 X174.246 Y6.842 E5232.0094
G1 X174.812 E5232.0416
G1 X195.194 Y27.224 E5233.6824
G1 Y26.658 E5233.7146
G1 X175.378 Y6.842 E5235.3098
G1 X175.944 E5235.342
G1 X195.194 Y26.092 E5236.8916
G1 Y25.525 E5236.9238
G1 X176.51 Y6.842 E5238.4278
G1 X177.077 E5238.46
G1 X195.194 Y24.959 E5239.9185
G1 Y24.393 E5239.9507
G1 X177.643 Y6.842 E5241.3636
G1 X178.209 E5241.3958
G1 X195.194 Y23.827 E5242.7631
G1 Y23.261 E5242.7953
G1 X178.775 Y6.842 E5244.117
G1 X179.341 E5244.1492
G1 X195.194 Y22.695 E5245.4254
G1 Y22.129 E5245.4576
G1 X179.907 Y6.842 E5246.6881
G1 X180.473 E5246.7204
G1 X195.194 Y21.562 E5247.9054
G1 Y20.996 E5247.9376
G1 X181.04 Y6.842 E5249.077
G1 X181.606 E5249.1092
G1 X195.194 Y20.43 E5250.2031
G1 Y19.864 E5250.2353
G1 X182.172 Y6.842 E5251.2835
G1 X182.738 E5251.3158
G1 X195.194 Y19.298 E5252.3184
G1 Y18.732 E5252.3507
G1 X183.304 Y6.842 E5253.3078
G1 X183.87 E5253.34
G1 X195.194 Y18.165 E5254.2515
G1 Y17.599 E5254.2838
G1 X184.437 Y6.842 E5255.1497
G1 X185.003 E5255.182
G1 X195.194 Y17.033 E5256.0023
G1 Y16.467 E5256.0346
G1 X185.569 Y6.842 E5256.8094
G1 X186.135 E5256.8416
G1 X195.194 Y15.901 E5257.5708
G1 Y15.335 E5257.6031
G1 X186.701 Y6.842 E5258.2867
G1 X187.267 E5258.3189
G1 X195.194 Y14.769 E5258.957
G1 Y14.202 E5258.9892
G1 X187.833 Y6.842 E5259.5818
G1 X188.4 E5259.614
G1 X195.194 Y13.636 E5260.1609
G1 Y13.07 E5260.1931
G1 X188.966 Y6.842 E5260.6945
G1 X189.532 E5260.7267
G1 X195.194 Y12.504 E5261.1825
G1 Y11.938 E5261.2147
G1 X190.098 Y6.842 E5261.6249
G1 X190.664 E5261.6572
G1 X195.194 Y11.372 E5262.0218
G1 Y10.805 E5262.054
G1 X191.23 Y6.842 E5262.3731
G1 X191.797 E5262.4053
G1 X195.194 Y10.239 E5262.6788
G1 Y9.673 E5262.711
G1 X192.363 Y6.842 E5262.9389
G1 X192.929 E5262.9712
G1 X195.194 Y9.107 E5263.1535
G1 Y8.541 E5263.1857
G1 X193.495 Y6.842 E5263.3225
G1 X194.061 E5263.3547
G1 X195.194 Y7.975 E5263.4459
G1 Y7.409 E5263.4781
G1 X194.627 Y6.842 E5263.5237
G1 X195.194 E5263.5559
G1 E5262.7559 F2400
G92 E0
 ; New Layer
; layer 1, Z = 0.439
; Repositioning
M106 P0 S0
G0 Z0.439 F1800
; Repositioning with retraction
G1 X15.725 Y213.43 F27000
G1 E0.8 F2400
G92 E0
; Contour
G1 X195.758 E5.6885 F14210.526
G1 Y6.57 E12.2247
G1 X15.725 E17.9132
G1 Y213.43 E24.4494
G92 E0
; Repositioning
G1 X15.355 Y213.8 F27000
; Contour
G1 X196.128 E5.7119 F12000
G1 Y6.2 E12.2715
G1 X15.355 E17.9834
G1 Y213.8 E24.5429
G1 E23.7429 F2400
G92 E0
; Repositioning with retraction
G1 X195.485 Y213.158 F27000
G1 E0.8 F2400
G92 E0
; Infill
G1 X195.486 Y212.591 E0.0179 F14189.841
G1 X194.919 Y213.158 E0.0433
G1 X194.352 E0.0612
G1 X195.486 Y212.025 E0.1119
G1 Y211.458 E0.1299
G1 X193.786 Y213.158 E0.2059
G1 X193.219 E0.2239
G1 X195.486 Y210.892 E0.3253
G1 Y210.325 E0.3432
G1 X192.653 Y213.158 E0.47
G1 X192.086 E0.4879
G1 X195.486 Y209.759 E0.64
G1 Y209.192 E0.658
G1 X191.52 Y213.158 E0.8355
G1 X190.953 E0.8534
G1 X195.486 Y208.626 E1.0562
G1 Y208.059 E1.0741
G1 X190.387 Y213.158 E1.3023
G1 X189.82 E1.3202
G1 X195.486 Y207.493 E1.5738
G1 Y206.926 E1.5917
G1 X189.254 Y213.158 E1.8706
G1 X188.687 E1.8885
G1 X195.486 Y206.359 E2.1927
G1 Y205.793 E2.2107
G1 X188.121 Y213.158 E2.5403
G1 X187.554 E2.5582
G1 X195.486 Y205.226 E2.9131
G1 Y204.66 E2.931
G1 X186.988 Y213.158 E3.3113
G1 X186.421 E3.3293
G1 X195.486 Y204.093 E3.7349
G1 Y203.527 E3.7528
G1 X185.855 Y213.158 E4.1838
G1 X185.288 E4.2017
G1 X195.486 Y202.96 E4.6581
G1 Y202.394 E4.676
G1 X184.722 Y213.158 E5.1577
G1 X184.155 E5.1756
G1 X195.486 Y201.827 E5.6827
G1 Y201.261 E5.7006
G1 X183.588 Y213.158 E6.233
G1 X183.022 E6.2509
G1 X195.486 Y200.694 E6.8087
G1 Y200.128 E6.8266
G1 X182.455 Y213.158 E7.4097
G1 X181.889 E7.4276
G1 X195.486 Y199.561 E8.0361
G1 Y198.995 E8.054
G1 X181.322 Y213.158 E8.6878
G1 X180.756 E8.7057
G1 X195.486 Y198.428 E9.3649
G1 Y197.862 E9.3828
G1 X180.189 Y213.158 E10.0673
G1 X179.623 E10.0852
G1 X195.486 Y197.295 E10.7951
G1 Y196.729 E10.813
G1 X179.056 Y213.158 E11.5482
G1 X178.49 E11.5662
G1 X195.486 Y196.162 E12.3267
G1 Y195.596 E12.3446
G1 X177.923 Y213.158 E13.1306
G1 X177.357 E13.1485
G1 X195.486 Y195.029 E13.9598
G1 Y194.463 E13.9777
G1 X176.79 Y213.158 E14.8143
G1 X176.224 E14.8322
G1 X195.486 Y193.896 E15.6942
G1 Y193.33 E15.7121
G1 X175.657 Y213.158 E16.5994
G1 X175.091 E16.6174
G1 X195.486 Y192.763 E17.53
G1 Y192.197 E17.5479
G1 X174.524 Y213.158 E18.486
G1 X173.958 E18.5039
G1 X195.486 Y191.63 E19.4673
G1 Y191.064 E19.4852
G1 X173.391 Y213.158 E20.4739
G1 X172.825 E20.4918
G1 X195.486 Y190.497 E21.5059
G1 Y189.931 E21.5238
G1 X172.258 Y213.158 E22.5633
G1 X171.692 E22.5812
G1 X195.486 Y189.364 E23.646
G1 Y188.798 E23.6639
G1 X171.125 Y213.158 E24.754
G1 X170.559 E24.772
G1 X195.486 Y188.231 E25.8874
G1 Y187.665 E25.9054
G1 X169.992 Y213.158 E27.0462
G1 X169.426 E27.0641
G1 X195.486 Y187.098 E28.2303
G1 Y186.532 E28.2482
G1 X168.859 Y213.158 E29.4398
G1 X168.293 E29.4577
G1 X195.486 Y185.965 E30.6746
G1 Y185.399 E30.6925
G1 X167.726 Y213.158 E31.9347
G1 X167.16 E31.9527
G1 X195.486 Y184.832 E33.2202
G1 Y184.266 E33.2382
G1 X166.593 Y213.158 E34.5311
G1 X166.027 E34.549
G1 X195.486 Y183.699 E35.8673
G1 Y183.133 E35.8853
G1 X165.46 Y213.158 E37.2289
G1 X164.894 E37.2468
G1 X195.486 Y182.566 E38.6158
G1 Y182 E38.6337
G1 X164.327 Y213.158 E40.0281
G1 X163.761 E40.046
G1 X195.486 Y181.433 E41.4657
G1 Y180.867 E41.4836
G1 X163.194 Y213.158 E42.9287
G1 X162.628 E42.9466
G1 X195.486 Y180.3 E44.417
G1 Y179.734 E44.4349
G1 X162.061 Y213.158 E45.9307
G1 X161.495 E45.9486
G1 X195.486 Y179.167 E47.4697
G1 Y178.601 E47.4877
G1 X160.928 Y213.158 E49.0341
G1 X160.362 E49.052
G1 X195.486 Y178.034 E50.6238
G1 Y177.468 E50.6418
G1 X159.795 Y213.158 E52.2389
G1 X159.229 E52.2568
G1 X195.486 Y176.901 E53.8794
G1 Y176.334 E53.8973
G1 X158.662 Y213.158 E55.5451
G1 X158.096 E55.5631
G1 X195.486 Y175.768 E57.2363
G1 Y175.201 E57.2542
G1 X157.529 Y213.158 E58.9528
G1 X156.963 E58.9707
G1 X195.486 Y174.635 E60.6946
G1 Y174.068 E60.7125
G1 X156.396 Y213.158 E62.4618
G1 X155.83 E62.4797
G1 X195.486 Y173.502 E64.2543
G1 Y172.935 E64.2723
G1 X155.263 Y213.158 E66.0722
G1 X154.697 E66.0902
G1 X195.486 Y172.369 E67.9155
G1 Y171.802 E67.9334
G1 X154.13 Y213.158 E69.7841
G1 X153.563 E69.802
G1 X195.486 Y171.236 E71.678
G1 Y170.669 E71.696
G1 X152.997 Y213.158 E73.5973
G1 X152.43 E73.6153
G1 X195.486 Y170.103 E75.542
G1 Y169.536 E75.5599
G1 X151.864 Y213.158 E77.512
G1 X151.297 E77.5299
G1 X195.486 Y168.97 E79.5073
G1 Y168.403 E79.5253
G1 X150.731 Y213.158 E81.5281
G1 X150.164 E81.546
G1 X195.486 Y167.837 E83.5741
G1 Y167.27 E83.592
G1 X149.598 Y213.158 E85.6455
G1 X149.031 E85.6634
G1 X195.486 Y166.704 E87.7423
G1 Y166.137 E87.7602
G1 X148.465 Y213.158 E89.8644
G1 X147.898 E89.8823
G1 X195.486 Y165.571 E92.0119
G1 Y165.004 E92.0298
G1 X147.332 Y213.158 E94.1847
G1 X146.765 E94.2026
G1 X195.486 Y164.438 E96.3828
G1 Y163.871 E96.4008
G1 X146.199 Y213.158 E98.6064
G1 X145.632 E98.6243
G1 X195.486 Y163.305 E100.8552
G1 Y162.738 E100.8731
G1 X145.066 Y213.158 E103.1294
G1 X144.499 E103.1474
G1 X195.486 Y162.172 E105.429
G1 Y161.605 E105.4469
G1 X143.933 Y213.158 E107.7539
G1 X143.366 E107.7719
G1 X195.486 Y161.039 E110.1042
G1 Y160.472 E110.1221
G1 X142.8 Y213.158 E112.4798
G1 X142.233 E112.4978
G1 X195.486 Y159.906 E114.8808
G1 Y159.339 E114.8987
G1 X141.667 Y213.158 E117.3071
G1 X141.1 E117.3251
G1 X195.486 Y158.773 E119.7588
G1 Y158.206 E119.7768
G1 X140.534 Y213.158 E122.2359
G1 X139.967 E122.2538
G1 X195.486 Y157.64 E124.7382
G1 Y157.073 E124.7562
G1 X139.401 Y213.158 E127.266
G1 X138.834 E127.2839
G1 X195.486 Y156.507 E129.8191
G1 Y155.94 E129.837
G1 X138.268 Y213.158 E132.3975
G1 X137.701 E132.4154
G1 X195.486 Y155.374 E135.0013
G1 Y154.807 E135.0192
G1 X137.135 Y213.158 E137.6304
G1 X136.568 E137.6484
G1 X195.486 Y154.241 E140.2849
G1 Y153.674 E140.3028
G1 X136.002 Y213.158 E142.9648
G1 X135.435 E142.9827
G1 X195.486 Y153.108 E145.67
G1 Y152.541 E145.6879
G1 X134.869 Y213.158 E148.4005
G1 X134.302 E148.4184
G1 X195.486 Y151.975 E151.1564
G1 Y151.408 E151.1743
G1 X133.736 Y213.158 E153.9377
G1 X133.169 E153.9556
G1 X195.486 Y150.842 E156.7443
G1 Y150.275 E156.7622
G1 X132.603 Y213.158 E159.5762
G1 X132.036 E159.5941
G1 X195.486 Y149.709 E162.4335
G1 Y149.142 E162.4514
G1 X131.47 Y213.158 E165.3162
G1 X130.903 E165.3341
G1 X195.486 Y148.576 E168.2242
G1 Y148.009 E168.2421
G1 X130.337 Y213.158 E171.1575
G1 X129.77 E171.1755
G1 X195.486 Y147.443 E174.1162
G1 Y146.876 E174.1342
G1 X129.204 Y213.158 E177.1003
G1 X128.637 E177.1182
G1 X195.486 Y146.309 E180.1097
G1 Y145.743 E180.1276
G1 X128.071 Y213.158 E183.1445
G1 X127.504 E183.1624
G1 X195.486 Y145.176 E186.2046
G1 Y144.61 E186.2225
G1 X126.938 Y213.158 E189.2901
G1 X126.371 E189.308
G1 X195.486 Y144.043 E192.4009
G1 Y143.477 E192.4188
G1 X125.805 Y213.158 E195.537
G1 X125.238 E195.555
G1 X195.486 Y142.91 E198.6986
G1 Y142.344 E198.7165
G1 X124.672 Y213.158 E201.8854
G1 X124.105 E201.9034
G1 X195.486 Y141.777 E205.0977
G1 Y141.211 E205.1156
G1 X123.538 Y213.158 E208.3352
G1 X122.972 E208.3532
G1 X195.486 Y140.644 E211.5982
G1 Y140.078 E211.6161
G1 X122.405 Y213.158 E214.8864
G1 X121.839 E214.9044
G1 X195.486 Y139.511 E218.2001
G1 Y138.945 E218.218
G1 X121.272 Y213.158 E221.539
G1 X120.706 E221.557
G1 X195.486 Y138.378 E224.9034
G1 Y137.812 E224.9213
G1 X120.139 Y213.158 E228.2931
G1 X119.573 E228.311
G1 X195.486 Y137.245 E231.7081
G1 Y136.679 E231.726
G1 X119.006 Y213.158 E235.1485
G1 X118.44 E235.1664
G1 X195.486 Y136.112 E238.6142
G1 Y135.546 E238.6321
G1 X117.873 Y213.158 E242.1053
G1 X117.307 E242.1232
G1 X195.486 Y134.979 E245.6217
G1 Y134.413 E245.6397
G1 X116.74 Y213.158 E249.1635
G1 X116.174 E249.1815
G1 X195.486 Y133.846 E252.7307
G1 Y133.28 E252.7486
G1 X115.607 Y213.158 E256.3232
G1 X115.041 E256.3411
G1 X195.486 Y132.713 E259.941
G1 Y132.147 E259.959
G1 X114.474 Y213.158 E263.5842
G1 X113.908 E263.6021
G1 X195.486 Y131.58 E267.2528
G1 Y131.014 E267.2707
G1 X113.341 Y213.158 E270.9467
G1 X112.775 E270.9646
G1 X195.486 Y130.447 E274.6659
G1 Y129.881 E274.6838
G1 X112.208 Y213.158 E278.4105
G1 X111.642 E278.4285
G1 X195.486 Y129.314 E282.1805
G1 Y128.748 E282.1984
G1 X111.075 Y213.158 E285.9758
G1 X110.509 E285.9937
G1 X195.486 Y128.181 E289.7964
G1 Y127.615 E289.8144
G1 X109.942 Y213.158 E293.6425
G1 X109.376 E293.6604
G1 X195.486 Y127.048 E297.5138
G1 Y126.482 E297.5317
G1 X108.809 Y213.158 E301.4105
G1 X108.243 E301.4285
G1 X195.486 Y125.915 E305.3326
G1 Y125.349 E305.3505
G1 X107.676 Y213.158 E309.28
G1 X107.11 E309.2979
G1 X195.486 Y124.782 E313.2528
G1 Y124.216 E313.2707
G1 X106.543 Y213.158 E317.2509
G1 X105.977 E317.2688
G1 X195.486 Y123.649 E321.2744
G1 Y123.083 E321.2923
G1 X105.41 Y213.158 E325.3232
G1 X104.844 E325.3411
G1 X195.486 Y122.516 E329.3974
G1 Y121.95 E329.4153
G1 X104.277 Y213.158 E333.4969
G1 X103.711 E333.5148
G1 X195.486 Y121.383 E337.6217
G1 Y120.817 E337.6397
G1 X103.144 Y213.158 E341.772
G1 X102.578 E341.7899
G1 X195.486 Y120.25 E345.9476
G1 Y119.684 E345.9655
G1 X102.011 Y213.158 E350.1485
G1 X101.445 E350.1664
G1 X195.486 Y119.117 E354.3748
G1 Y118.551 E354.3927
G1 X100.878 Y213.158 E358.6264
G1 X100.312 E358.6443
G1 X195.486 Y117.984 E362.9034
G1 Y117.418 E362.9213
G1 X99.745 Y213.158 E367.2057
G1 X99.179 E367.2236
G1 X195.486 Y116.851 E371.5334
G1 Y116.284 E371.5513
G1 X98.612 Y213.158 E375.8864
G1 X98.046 E375.9044
G1 X195.486 Y115.718 E380.2648
G1 Y115.151 E380.2828
G1 X97.479 Y213.158 E384.6686
G1 X96.913 E384.6865
G1 X195.486 Y114.585 E389.0977
G1 Y114.018 E389.1156
G1 X96.346 Y213.158 E393.5521
G1 X95.78 E393.57
G1 X195.486 Y113.452 E398.0319
G1 Y112.885 E398.0498
G1 X95.213 Y213.158 E402.537
G1 X94.647 E402.555
G1 X195.486 Y112.319 E407.0675
G1 Y111.752 E407.0855
G1 X94.08 Y213.158 E411.6234
G1 X93.513 E411.6413
G1 X195.486 Y111.186 E416.2046
G1 Y110.619 E416.2225
G1 X92.947 Y213.158 E420.8111
G1 X92.38 E420.8291
G1 X195.486 Y110.053 E425.443
G1 Y109.486 E425.461
G1 X91.814 Y213.158 E430.1003
G1 X91.247 E430.1182
G1 X195.486 Y108.92 E434.7829
G1 Y108.353 E434.8008
G1 X90.681 Y213.158 E439.4909
G1 X90.114 E439.5088
G1 X195.486 Y107.787 E444.2242
G1 Y107.22 E444.2421
G1 X89.548 Y213.158 E448.9828
G1 X88.981 E449.0008
G1 X195.486 Y106.654 E453.7668
G1 Y106.087 E453.7848
G1 X88.415 Y213.158 E458.5762
G1 X87.848 E458.5941
G1 X195.486 Y105.521 E463.4109
G1 Y104.954 E463.4288
G1 X87.282 Y213.158 E468.271
G1 X86.715 E468.2889
G1 X195.486 Y104.388 E473.1564
G1 Y103.821 E473.1743
G1 X86.149 Y213.158 E478.0672
G1 X85.582 E478.0851
G1 X195.486 Y103.255 E483.0033
G1 Y102.688 E483.0212
G1 X85.016 Y213.158 E487.9648
G1 X84.449 E487.9827
G1 X195.486 Y102.122 E492.9516
G1 Y101.555 E492.9695
G1 X83.883 Y213.158 E497.9638
G1 X83.316 E497.9817
G1 X195.486 Y100.989 E503.0013
G1 Y100.422 E503.0192
G1 X82.75 Y213.158 E508.0642
G1 X82.183 E508.0821
G1 X195.486 Y99.856 E513.1524
G1 Y99.289 E513.1703
G1 X81.617 Y213.158 E518.266
G1 X81.05 E518.2839
G1 X195.486 Y98.723 E523.4049
G1 Y98.156 E523.4228
G1 X80.484 Y213.158 E528.5692
G1 X79.917 E528.5871
G1 X195.486 Y97.59 E533.7588
G1 Y97.023 E533.7768
G1 X79.351 Y213.158 E538.9738
G1 X78.784 E538.9917
G1 X195.486 Y96.457 E544.2142
G1 Y95.89 E544.2321
G1 X78.218 Y213.158 E549.4798
G1 X77.651 E549.4978
G1 X195.486 Y95.324 E554.7709
G1 Y94.757 E554.7888
G1 X77.085 Y213.158 E560.0873
G1 X76.518 E560.1052
G1 X195.486 Y94.191 E565.429
G1 Y93.624 E565.4469
G1 X75.952 Y213.158 E570.7961
G1 X75.385 E570.814
G1 X195.486 Y93.058 E576.1886
G1 Y92.491 E576.2065
G1 X74.819 Y213.158 E581.6064
G1 X74.252 E581.6243
G1 X195.486 Y91.925 E587.0495
G1 Y91.358 E587.0674
G1 X73.686 Y213.158 E592.518
G1 X73.119 E592.5359
G1 X195.486 Y90.792 E598.0119
G1 Y90.225 E598.0298
G1 X72.553 Y213.158 E603.5311
G1 X71.986 E603.549
G1 X195.486 Y89.659 E609.0756
G1 Y89.092 E609.0935
G1 X71.42 Y213.158 E614.6455
G1 X70.853 E614.6634
G1 X195.486 Y88.526 E620.2408
G1 Y87.959 E620.2587
G1 X70.287 Y213.158 E625.8614
G1 X69.72 E625.8793
G1 X195.486 Y87.393 E631.5074
G1 Y86.826 E631.5253
G1 X69.154 Y213.158 E637.1787
G1 X68.587 E637.1966
G1 X195.486 Y86.259 E642.8753
G1 Y85.693 E642.8933
G1 X68.021 Y213.158 E648.5973
G1 X67.454 E648.6153
G1 X195.486 Y85.126 E654.3447
G1 Y84.56 E654.3626
G1 X66.888 Y213.158 E660.1174
G1 X66.321 E660.1354
G1 X195.486 Y83.993 E665.9155
G1 Y83.427 E665.9334
G1 X65.755 Y213.158 E671.7389
G1 X65.188 E671.7568
G1 X195.486 Y82.86 E677.5877
G1 Y82.294 E677.6056
G1 X64.622 Y213.158 E683.4618
G1 X64.055 E683.4797
G1 X195.486 Y81.727 E689.3613
G1 Y81.161 E689.3792
G1 X63.488 Y213.158 E695.2861
G1 X62.922 E695.304
G1 X195.486 Y80.594 E701.2363
G1 Y80.028 E701.2542
G1 X62.355 Y213.158 E707.2118
G1 X61.789 E707.2297
G1 X195.486 Y79.461 E713.2127
G1 Y78.895 E713.2306
G1 X61.222 Y213.158 E719.2389
G1 X60.656 E719.2569
G1 X195.486 Y78.328 E725.2905
G1 Y77.762 E725.3084
G1 X60.089 Y213.158 E731.3674
G1 X59.523 E731.3854
G1 X195.486 Y77.195 E737.4697
G1 Y76.629 E737.4877
G1 X58.956 Y213.158 E743.5974
G1 X58.39 E743.6153
G1 X195.486 Y76.062 E749.7504
G1 Y75.496 E749.7683
G1 X57.823 Y213.158 E755.9287
G1 X57.257 E755.9466
G1 X195.486 Y74.929 E762.1324
G1 Y74.363 E762.1503
G1 X56.69 Y213.158 E768.3614
G1 X56.124 E768.3794
G1 X195.486 Y73.796 E774.6158
G1 Y73.23 E774.6338
G1 X55.557 Y213.158 E780.8956
G1 X54.991 E780.9135
G1 X195.486 Y72.663 E787.2007
G1 Y72.097 E787.2186
G1 X54.424 Y213.158 E793.5311
G1 X53.858 E793.549
G1 X195.486 Y71.53 E799.8869
G1 Y70.964 E799.9048
G1 X53.291 Y213.158 E806.2681
G1 X52.725 E806.286
G1 X195.486 Y70.397 E812.6746
G1 Y69.831 E812.6925
G1 X52.158 Y213.158 E819.1064
G1 X51.592 E819.1244
G1 X195.486 Y69.264 E825.5636
G1 Y68.698 E825.5816
G1 X51.025 Y213.158 E832.0462
G1 X50.459 E832.0641
G1 X195.486 Y68.131 E838.5541
G1 Y67.565 E838.572
G1 X49.892 Y213.158 E845.0874
G1 X49.326 E845.1053
G1 X195.486 Y66.998 E851.646
G1 Y66.432 E851.6639
G1 X48.759 Y213.158 E858.2299
G1 X48.193 E858.2479
G1 X195.486 Y65.865 E864.8393
G1 Y65.299 E864.8572
G1 X47.626 Y213.158 E871.4739
G1 X47.06 E871.4918
G1 X195.486 Y64.732 E878.1339
G1 Y64.166 E878.1519
G1 X46.493 Y213.158 E884.8193
G1 X45.927 E884.8372
G1 X195.486 Y63.599 E891.53
G1 Y63.033 E891.548
G1 X45.36 Y213.158 E898.2661
G1 X44.794 E898.284
G1 X195.486 Y62.466 E905.0275
G1 Y61.9 E905.0455
G1 X44.227 Y213.158 E911.8143
G1 X43.661 E911.8322
G1 X195.486 Y61.333 E918.6264
G1 Y60.767 E918.6444
G1 X43.094 Y213.158 E925.4639
G1 X42.528 E925.4818
G1 X195.486 Y60.2 E932.3267
G1 Y59.634 E932.3447
G1 X41.961 Y213.158 E939.2149
G1 X41.395 E939.2328
G1 X195.486 Y59.067 E946.1284
G1 Y58.501 E946.1464
G1 X40.828 Y213.158 E953.0673
G1 X40.262 E953.0853
G1 X195.486 Y57.934 E960.0316
G1 Y57.368 E960.0495
G1 X39.695 Y213.158 E967.0211
G1 X39.129 E967.0391
G1 X195.486 Y56.801 E974.0361
G1 Y56.234 E974.054
G1 X38.562 Y213.158 E981.0764
G1 X37.996 E981.0943
G1 X195.486 Y55.668 E988.142
G1 Y55.101 E988.1599
G1 X37.429 Y213.158 E995.233
G1 X36.863 E995.2509
G1 X195.486 Y54.535 E1002.3494
G1 Y53.968 E1002.3673
G1 X36.296 Y213.158 E1009.491
G1 X35.73 E1009.509
G1 X195.486 Y53.402 E1016.6581
G1 Y52.835 E1016.676
G1 X35.163 Y213.158 E1023.8505
G1 X34.597 E1023.8684
G1 X195.486 Y52.269 E1031.0682
G1 Y51.702 E1031.0862
G1 X34.03 Y213.158 E1038.3113
G1 X33.463 E1038.3293
G1 X195.486 Y51.136 E1045.5798
G1 Y50.569 E1045.5977
G1 X32.897 Y213.158 E1052.8736
G1 X32.33 E1052.8915
G1 X195.486 Y50.003 E1060.1927
G1 Y49.436 E1060.2107
G1 X31.764 Y213.158 E1067.5373
G1 X31.197 E1067.5552
G1 X195.486 Y48.87 E1074.9071
G1 Y48.303 E1074.925
G1 X30.631 Y213.158 E1082.3023
G1 X30.064 E1082.3202
G1 X195.486 Y47.737 E1089.7229
G1 Y47.17 E1089.7408
G1 X29.498 Y213.158 E1097.1688
G1 X28.931 E1097.1867
G1 X195.486 Y46.604 E1104.6401
G1 Y46.037 E1104.658
G1 X28.365 Y213.158 E1112.1367
G1 X27.798 E1112.1546
G1 X195.486 Y45.471 E1119.6586
G1 Y44.904 E1119.6766
G1 X27.232 Y213.158 E1127.206
G1 X26.665 E1127.2239
G1 X195.486 Y44.338 E1134.7786
G1 Y43.771 E1134.7966
G1 X26.099 Y213.158 E1142.3766
G1 X25.532 E1142.3946
G1 X195.486 Y43.205 E1150
G1 Y42.638 E1150.0179
G1 X24.966 Y213.158 E1157.6487
G1 X24.399 E1157.6667
G1 X195.486 Y42.072 E1165.3228
G1 Y41.505 E1165.3407
G1 X23.833 Y213.158 E1173.0222
G1 X23.266 E1173.0402
G1 X195.486 Y40.939 E1180.747
G1 Y40.372 E1180.7649
G1 X22.7 Y213.158 E1188.4971
G1 X22.133 E1188.5151
G1 X195.486 Y39.806 E1196.2726
G1 Y39.239 E1196.2906
G1 X21.567 Y213.158 E1204.0735
G1 X21 E1204.0914
G1 X195.486 Y38.673 E1211.8996
G1 Y38.106 E1211.9176
G1 X20.434 Y213.158 E1219.7512
G1 X19.867 E1219.7691
G1 X195.486 Y37.54 E1227.6281
G1 Y36.973 E1227.646
G1 X19.301 Y213.158 E1235.5303
G1 X18.734 E1235.5482
G1 X195.486 Y36.407 E1243.4579
G1 Y35.84 E1243.4758
G1 X18.168 Y213.158 E1251.4108
G1 X17.601 E1251.4288
G1 X195.486 Y35.274 E1259.3891
G1 Y34.707 E1259.4071
G1 X17.035 Y213.158 E1267.3928
G1 X16.468 E1267.4107
G1 X195.486 Y34.141 E1275.4218
G1 Y33.574 E1275.4397
G1 X15.997 Y213.063 E1283.4718
G1 Y212.496 E1283.4898
G1 X195.486 Y33.008 E1291.5219
G1 Y32.441 E1291.5399
G1 X15.997 Y211.93 E1299.572
G1 Y211.363 E1299.5899
G1 X195.486 Y31.875 E1307.6221
G1 Y31.308 E1307.64
G1 X15.997 Y210.797 E1315.6722
G1 Y210.23 E1315.6901
G1 X195.486 Y30.742 E1323.7223
G1 Y30.175 E1323.7402
G1 X15.997 Y209.664 E1331.7724
G1 Y209.097 E1331.7903
G1 X195.486 Y29.609 E1339.8224
G1 Y29.042 E1339.8404
G1 X15.997 Y208.531 E1347.8725
G1 Y207.964 E1347.8904
G1 X195.486 Y28.476 E1355.9226
G1 Y27.909 E1355.9405
G1 X15.997 Y207.398 E1363.9727
G1 Y206.831 E1363.9906
G1 X195.486 Y27.343 E1372.0228
G1 Y26.776 E1372.0407
G1 X15.997 Y206.265 E1380.0729
G1 Y205.698 E1380.0908
G1 X195.486 Y26.209 E1388.1229
G1 Y25.643 E1388.1409
G1 X15.997 Y205.132 E1396.173
G1 Y204.565 E1396.191
G1 X195.486 Y25.076 E1404.2231
G1 Y24.51 E1404.241
G1 X15.997 Y203.999 E1412.2732
G1 Y203.432 E1412.2911
G1 X195.486 Y23.943 E1420.3233
G1 Y23.377 E1420.3412
G1 X15.997 Y202.866 E1428.3734
G1 Y202.299 E1428.3913
G1 X195.486 Y22.81 E1436.4235
G1 Y22.244 E1436.4414
G1 X15.997 Y201.733 E1444.4735
G1 Y201.166 E1444.4915
G1 X195.486 Y21.677 E1452.5236
G1 Y21.111 E1452.5415
G1 X15.997 Y200.6 E1460.5737
G1 Y200.033 E1460.5916
G1 X195.486 Y20.544 E1468.6238
G1 Y19.978 E1468.6417
G1 X15.997 Y199.467 E1476.6739
G1 Y198.9 E1476.6918
G1 X195.486 Y19.411 E1484.724
G1 Y18.845 E1484.7419
G1 X15.997 Y198.334 E1492.774
G1 Y197.767 E1492.792
G1 X195.486 Y18.278 E1500.8241
G1 Y17.712 E1500.8421
G1 X15.997 Y197.201 E1508.8742
G1 Y196.634 E1508.8921
G1 X195.486 Y17.145 E1516.9243
G1 Y16.579 E1516.9422
G1 X15.997 Y196.067 E1524.9744
G1 Y195.501 E1524.9923
G1 X195.486 Y16.012 E1533.0245
G1 Y15.446 E1533.0424
G1 X15.997 Y194.934 E1541.0746
G1 Y194.368 E1541.0925
G1 X195.486 Y14.879 E1549.1246
G1 Y14.313 E1549.1426
G1 X15.997 Y193.801 E1557.1747
G1 Y193.235 E1557.1926
G1 X195.486 Y13.746 E1565.2248
G1 Y13.18 E1565.2427
G1 X15.997 Y192.668 E1573.2749
G1 Y192.102 E1573.2928
G1 X195.486 Y12.613 E1581.325
G1 Y12.047 E1581.3429
G1 X15.997 Y191.535 E1589.3751
G1 Y190.969 E1589.393
G1 X195.486 Y11.48 E1597.4251
G1 Y10.914 E1597.4431
G1 X15.997 Y190.402 E1605.4752
G1 Y189.836 E1605.4932
G1 X195.486 Y10.347 E1613.5253
G1 Y9.781 E1613.5432
G1 X15.997 Y189.269 E1621.5754
G1 Y188.703 E1621.5933
G1 X195.486 Y9.214 E1629.6255
G1 Y8.648 E1629.6434
G1 X15.997 Y188.136 E1637.6756
G1 Y187.57 E1637.6935
G1 X195.486 Y8.081 E1645.7257
G1 Y7.515 E1645.7436
G1 X15.997 Y187.003 E1653.7757
G1 Y186.437 E1653.7937
G1 X195.486 Y6.948 E1661.8258
G1 X195.025 Y6.842 E1661.8408
G1 X15.997 Y185.87 E1669.8523
G1 Y185.304 E1669.8703
G1 X194.459 Y6.842 E1677.8565
G1 X193.892 E1677.8744
G1 X15.997 Y184.737 E1685.8352
G1 Y184.171 E1685.8532
G1 X193.326 Y6.842 E1693.7887
G1 X192.759 E1693.8066
G1 X15.997 Y183.604 E1701.7167
G1 Y183.038 E1701.7347
G1 X192.193 Y6.842 E1709.6195
G1 X191.626 E1709.6374
G1 X15.997 Y182.471 E1717.4969
G1 Y181.905 E1717.5148
G1 X191.06 Y6.842 E1725.3489
G1 X190.493 E1725.3668
G1 X15.997 Y181.338 E1733.1755
G1 Y180.772 E1733.1935
G1 X189.927 Y6.842 E1740.9769
G1 X189.36 E1740.9948
G1 X15.997 Y180.205 E1748.7528
G1 Y179.639 E1748.7708
G1 X188.794 Y6.842 E1756.5035
G1 X188.227 E1756.5214
G1 X15.997 Y179.072 E1764.2287
G1 Y178.506 E1764.2466
G1 X187.661 Y6.842 E1771.9286
G1 X187.094 E1771.9466
G1 X15.997 Y177.939 E1779.6032
G1 Y177.373 E1779.6211
G1 X186.528 Y6.842 E1787.2524
G1 X185.961 E1787.2703
G1 X15.997 Y176.806 E1794.8763
G1 Y176.24 E1794.8942
G1 X185.395 Y6.842 E1802.4748
G1 X184.828 E1802.4927
G1 X15.997 Y175.673 E1810.0479
G1 Y175.107 E1810.0659
G1 X184.262 Y6.842 E1817.5957
G1 X183.695 E1817.6137
G1 X15.997 Y174.54 E1825.1182
G1 Y173.974 E1825.1361
G1 X183.129 Y6.842 E1832.6153
G1 X182.562 E1832.6332
G1 X15.997 Y173.407 E1840.0871
G1 Y172.841 E1840.105
G1 X181.996 Y6.842 E1847.5335
G1 X181.429 E1847.5514
G1 X15.997 Y172.274 E1854.9545
G1 Y171.708 E1854.9724
G1 X180.862 Y6.842 E1862.3502
G1 X180.296 E1862.3681
G1 X15.997 Y171.141 E1869.7206
G1 Y170.575 E1869.7385
G1 X179.729 Y6.842 E1877.0655
G1 X179.163 E1877.0835
G1 X15.997 Y170.008 E1884.3852
G1 Y169.442 E1884.4031
G1 X178.596 Y6.842 E1891.6795
G1 X178.03 E1891.6974
G1 X15.997 Y168.875 E1898.9484
G1 Y168.309 E1898.9664
G1 X177.463 Y6.842 E1906.192
G1 X176.897 E1906.2099
G1 X15.997 Y167.742 E1913.4103
G1 Y167.175 E1913.4282
G1 X176.33 Y6.842 E1920.6031
G1 X175.764 E1920.6211
G1 X15.997 Y166.609 E1927.7707
G1 Y166.042 E1927.7886
G1 X175.197 Y6.842 E1934.9129
G1 X174.631 E1934.9308
G1 X15.997 Y165.476 E1942.0297
G1 Y164.909 E1942.0476
G1 X174.064 Y6.842 E1949.1212
G1 X173.498 E1949.1391
G1 X15.997 Y164.343 E1956.1873
G1 Y163.776 E1956.2052
G1 X172.931 Y6.842 E1963.2281
G1 X172.365 E1963.246
G1 X15.997 Y163.21 E1970.2435
G1 Y162.643 E1970.2614
G1 X171.798 Y6.842 E1977.2336
G1 X171.232 E1977.2515
G1 X15.997 Y162.077 E1984.1983
G1 Y161.51 E1984.2162
G1 X170.665 Y6.842 E1991.1377
G1 X170.099 E1991.1556
G1 X15.997 Y160.944 E1998.0517
G1 Y160.377 E1998.0696
G1 X169.532 Y6.842 E2004.9404
G1 X168.966 E2004.9583
G1 X15.997 Y159.811 E2011.8037
G1 Y159.244 E2011.8216
G1 X168.399 Y6.842 E2018.6417
G1 X167.833 E2018.6596
G1 X15.997 Y158.678 E2025.4543
G1 Y158.111 E2025.4722
G1 X167.266 Y6.842 E2032.2415
G1 X166.7 E2032.2595
G1 X15.997 Y157.545 E2039.0034
G1 Y156.978 E2039.0214
G1 X166.133 Y6.842 E2045.74
G1 X165.567 E2045.7579
G1 X15.997 Y156.412 E2052.4512
G1 Y155.845 E2052.4691
G1 X165 Y6.842 E2059.1371
G1 X164.434 E2059.155
G1 X15.997 Y155.279 E2065.7976
G1 Y154.712 E2065.8155
G1 X163.867 Y6.842 E2072.4327
G1 X163.301 E2072.4507
G1 X15.997 Y154.146 E2079.0425
G1 Y153.579 E2079.0605
G1 X162.734 Y6.842 E2085.627
G1 X162.168 E2085.6449
G1 X15.997 Y153.013 E2092.1861
G1 Y152.446 E2092.204
G1 X161.601 Y6.842 E2098.7198
G1 X161.035 E2098.7378
G1 X15.997 Y151.88 E2105.2282
G1 Y151.313 E2105.2462
G1 X160.468 Y6.842 E2111.7113
G1 X159.902 E2111.7292
G1 X15.997 Y150.747 E2118.169
G1 Y150.18 E2118.1869
G1 X159.335 Y6.842 E2124.6013
G1 X158.769 E2124.6193
G1 X15.997 Y149.614 E2131.0083
G1 Y149.047 E2131.0262
G1 X158.202 Y6.842 E2137.39
G1 X157.636 E2137.4079
G1 X15.997 Y148.481 E2143.7462
G1 Y147.914 E2143.7642
G1 X157.069 Y6.842 E2150.0772
G1 X156.503 E2150.0951
G1 X15.997 Y147.348 E2156.3828
G1 Y146.781 E2156.4007
G1 X155.936 Y6.842 E2162.663
G1 X155.37 E2162.6809
G1 X15.997 Y146.215 E2168.9179
G1 Y145.648 E2168.9358
G1 X154.803 Y6.842 E2175.1474
G1 X154.237 E2175.1654
G1 X15.997 Y145.082 E2181.3516
G1 Y144.515 E2181.3695
G1 X153.67 Y6.842 E2187.5304
G1 X153.104 E2187.5484
G1 X15.997 Y143.949 E2193.6839
G1 Y143.382 E2193.7018
G1 X152.537 Y6.842 E2199.812
G1 X151.971 E2199.83
G1 X15.997 Y142.816 E2205.9148
G1 Y142.249 E2205.9327
G1 X151.404 Y6.842 E2211.9922
G1 X150.837 E2212.0102
G1 X15.997 Y141.683 E2218.0443
G1 Y141.116 E2218.0622
G1 X150.271 Y6.842 E2224.071
G1 X149.704 E2224.089
G1 X15.997 Y140.55 E2230.0724
G1 Y139.983 E2230.0903
G1 X149.138 Y6.842 E2236.0484
G1 X148.571 E2236.0663
G1 X15.997 Y139.417 E2241.9991
G1 Y138.85 E2242.017
G1 X148.005 Y6.842 E2247.9244
G1 X147.438 E2247.9423
G1 X15.997 Y138.284 E2253.8244
G1 Y137.717 E2253.8423
G1 X146.872 Y6.842 E2259.699
G1 X146.305 E2259.7169
G1 X15.997 Y137.15 E2265.5482
G1 Y136.584 E2265.5662
G1 X145.739 Y6.842 E2271.3721
G1 X145.172 E2271.3901
G1 X15.997 Y136.017 E2277.1707
G1 Y135.451 E2277.1886
G1 X144.606 Y6.842 E2282.9439
G1 X144.039 E2282.9618
G1 X15.997 Y134.884 E2288.6918
G1 Y134.318 E2288.7097
G1 X143.473 Y6.842 E2294.4143
G1 X142.906 E2294.4322
G1 X15.997 Y133.751 E2300.1114
G1 Y133.185 E2300.1294
G1 X142.34 Y6.842 E2305.7832
G1 X141.773 E2305.8012
G1 X15.997 Y132.618 E2311.4297
G1 Y132.052 E2311.4476
G1 X141.207 Y6.842 E2317.0508
G1 X140.64 E2317.0687
G1 X15.997 Y131.485 E2322.6465
G1 Y130.919 E2322.6644
G1 X140.074 Y6.842 E2328.2169
G1 X139.507 E2328.2348
G1 X15.997 Y130.352 E2333.762
G1 Y129.786 E2333.7799
G1 X138.941 Y6.842 E2339.2817
G1 X138.374 E2339.2996
G1 X15.997 Y129.219 E2344.776
G1 Y128.653 E2344.7939
G1 X137.808 Y6.842 E2350.245
G1 X137.241 E2350.2629
G1 X15.997 Y128.086 E2355.6886
G1 Y127.52 E2355.7065
G1 X136.675 Y6.842 E2361.1069
G1 X136.108 E2361.1248
G1 X15.997 Y126.953 E2366.4998
G1 Y126.387 E2366.5178
G1 X135.542 Y6.842 E2371.8674
G1 X134.975 E2371.8854
G1 X15.997 Y125.82 E2377.2097
G1 Y125.254 E2377.2276
G1 X134.409 Y6.842 E2382.5265
G1 X133.842 E2382.5445
G1 X15.997 Y124.687 E2387.8181
G1 Y124.121 E2387.836
G1 X133.276 Y6.842 E2393.0842
G1 X132.709 E2393.1022
G1 X15.997 Y123.554 E2398.3251
G1 Y122.988 E2398.343
G1 X132.143 Y6.842 E2403.5405
G1 X131.576 E2403.5585
G1 X15.997 Y122.421 E2408.7307
G1 Y121.855 E2408.7486
G1 X131.01 Y6.842 E2413.8954
G1 X130.443 E2413.9134
G1 X15.997 Y121.288 E2419.0349
G1 Y120.722 E2419.0528
G1 X129.877 Y6.842 E2424.1489
G1 X129.31 E2424.1669
G1 X15.997 Y120.155 E2429.2377
G1 Y119.589 E2429.2556
G1 X128.744 Y6.842 E2434.301
G1 X128.177 E2434.3189
G1 X15.997 Y119.022 E2439.339
G1 Y118.456 E2439.357
G1 X127.611 Y6.842 E2444.3517
G1 X127.044 E2444.3696
G1 X15.997 Y117.889 E2449.339
G1 Y117.323 E2449.3569
G1 X126.478 Y6.842 E2454.301
G1 X125.911 E2454.3189
G1 X15.997 Y116.756 E2459.2376
G1 Y116.19 E2459.2555
G1 X125.345 Y6.842 E2464.1488
G1 X124.778 E2464.1668
G1 X15.997 Y115.623 E2469.0347
G1 Y115.057 E2469.0527
G1 X124.212 Y6.842 E2473.8953
G1 X123.645 E2473.9132
G1 X15.997 Y114.49 E2478.7305
G1 Y113.924 E2478.7484
G1 X123.079 Y6.842 E2483.5404
G1 X122.512 E2483.5583
G1 X15.997 Y113.357 E2488.3249
G1 Y112.791 E2488.3428
G1 X121.946 Y6.842 E2493.084
G1 X121.379 E2493.1019
G1 X15.997 Y112.224 E2497.8178
G1 Y111.658 E2497.8357
G1 X120.812 Y6.842 E2502.5263
G1 X120.246 E2502.5442
G1 X15.997 Y111.091 E2507.2093
G1 Y110.525 E2507.2273
G1 X119.679 Y6.842 E2511.8671
G1 X119.113 E2511.885
G1 X15.997 Y109.958 E2516.4995
G1 Y109.392 E2516.5174
G1 X118.546 Y6.842 E2521.1065
G1 X117.98 E2521.1245
G1 X15.997 Y108.825 E2525.6882
G1 Y108.259 E2525.7061
G1 X117.413 Y6.842 E2530.2446
G1 X116.847 E2530.2625
G1 X15.997 Y107.692 E2534.7755
G1 Y107.125 E2534.7935
G1 X116.28 Y6.842 E2539.2812
G1 X115.714 E2539.2991
G1 X15.997 Y106.559 E2543.7615
G1 Y105.992 E2543.7794
G1 X115.147 Y6.842 E2548.2164
G1 X114.581 E2548.2343
G1 X15.997 Y105.426 E2552.646
G1 Y104.859 E2552.6639
G1 X114.014 Y6.842 E2557.0502
G1 X113.448 E2557.0681
G1 X15.997 Y104.293 E2561.4291
G1 Y103.726 E2561.447
G1 X112.881 Y6.842 E2565.7826
G1 X112.315 E2565.8005
G1 X15.997 Y103.16 E2570.1108
G1 Y102.593 E2570.1287
G1 X111.748 Y6.842 E2574.4136
G1 X111.182 E2574.4315
G1 X15.997 Y102.027 E2578.6911
G1 Y101.46 E2578.709
G1 X110.615 Y6.842 E2582.9432
G1 X110.049 E2582.9611
G1 X15.997 Y100.894 E2587.17
G1 Y100.327 E2587.1879
G1 X109.482 Y6.842 E2591.3714
G1 X108.916 E2591.3893
G1 X15.997 Y99.761 E2595.5475
G1 Y99.194 E2595.5654
G1 X108.349 Y6.842 E2599.6982
G1 X107.783 E2599.7161
G1 X15.997 Y98.628 E2603.8235
G1 Y98.061 E2603.8415
G1 X107.216 Y6.842 E2607.9235
G1 X106.65 E2607.9415
G1 X15.997 Y97.495 E2611.9982
G1 Y96.928 E2612.0161
G1 X106.083 Y6.842 E2616.0475
G1 X105.517 E2616.0654
G1 X15.997 Y96.362 E2620.0715
G1 Y95.795 E2620.0894
G1 X104.95 Y6.842 E2624.0701
G1 X104.384 E2624.088
G1 X15.997 Y95.229 E2628.0433
G1 Y94.662 E2628.0613
G1 X103.817 Y6.842 E2631.9912
G1 X103.251 E2632.0092
G1 X15.997 Y94.096 E2635.9138
G1 Y93.529 E2635.9317
G1 X102.684 Y6.842 E2639.811
G1 X102.118 E2639.8289
G1 X15.997 Y92.963 E2643.6828
G1 Y92.396 E2643.7008
G1 X101.551 Y6.842 E2647.5293
G1 X100.985 E2647.5473
G1 X15.997 Y91.83 E2651.3505
G1 Y91.263 E2651.3684
G1 X100.418 Y6.842 E2655.1463
G1 X99.852 E2655.1642
G1 X15.997 Y90.697 E2658.9167
G1 Y90.13 E2658.9347
G1 X99.285 Y6.842 E2662.6618
G1 X98.719 E2662.6797
G1 X15.997 Y89.564 E2666.3816
G1 Y88.997 E2666.3995
G1 X98.152 Y6.842 E2670.0759
G1 X97.586 E2670.0939
G1 X15.997 Y88.431 E2673.745
G1 Y87.864 E2673.7629
G1 X97.019 Y6.842 E2677.3887
G1 X96.453 E2677.4066
G1 X15.997 Y87.298 E2681.007
G1 Y86.731 E2681.0249
G1 X95.886 Y6.842 E2684.6
G1 X95.32 E2684.6179
G1 X15.997 Y86.165 E2688.1676
G1 Y85.598 E2688.1856
G1 X94.753 Y6.842 E2691.7099
G1 X94.187 E2691.7278
G1 X15.997 Y85.032 E2695.2268
G1 Y84.465 E2695.2448
G1 X93.62 Y6.842 E2698.7184
G1 X93.054 E2698.7363
G1 X15.997 Y83.899 E2702.1846
G1 Y83.332 E2702.2026
G1 X92.487 Y6.842 E2705.6255
G1 X91.921 E2705.6434
G1 X15.997 Y82.766 E2709.041
G1 Y82.199 E2709.059
G1 X91.354 Y6.842 E2712.4312
G1 X90.787 E2712.4491
G1 X15.997 Y81.633 E2715.796
G1 Y81.066 E2715.814
G1 X90.221 Y6.842 E2719.1355
G1 X89.654 E2719.1534
G1 X15.997 Y80.5 E2722.4496
G1 Y79.933 E2722.4675
G1 X89.088 Y6.842 E2725.7384
G1 X88.521 E2725.7563
G1 X15.997 Y79.367 E2729.0018
G1 Y78.8 E2729.0197
G1 X87.955 Y6.842 E2732.2399
G1 X87.388 E2732.2578
G1 X15.997 Y78.234 E2735.4526
G1 Y77.667 E2735.4705
G1 X86.822 Y6.842 E2738.6399
G1 X86.255 E2738.6579
G1 X15.997 Y77.1 E2741.8019
G1 Y76.534 E2741.8199
G1 X85.689 Y6.842 E2744.9386
G1 X85.122 E2744.9565
G1 X15.997 Y75.967 E2748.0499
G1 Y75.401 E2748.0678
G1 X84.556 Y6.842 E2751.1359
G1 X83.989 E2751.1538
G1 X15.997 Y74.834 E2754.1965
G1 Y74.268 E2754.2144
G1 X83.423 Y6.842 E2757.2317
G1 X82.856 E2757.2497
G1 X15.997 Y73.701 E2760.2416
G1 Y73.135 E2760.2596
G1 X82.29 Y6.842 E2763.2262
G1 X81.723 E2763.2441
G1 X15.997 Y72.568 E2766.1854
G1 Y72.002 E2766.2033
G1 X81.157 Y6.842 E2769.1192
G1 X80.59 E2769.1371
G1 X15.997 Y71.435 E2772.0277
G1 Y70.869 E2772.0456
G1 X80.024 Y6.842 E2774.9109
G1 X79.457 E2774.9288
G1 X15.997 Y70.302 E2777.7687
G1 Y69.736 E2777.7866
G1 X78.891 Y6.842 E2780.6011
G1 X78.324 E2780.619
G1 X15.997 Y69.169 E2783.4082
G1 Y68.603 E2783.4261
G1 X77.758 Y6.842 E2786.1899
G1 X77.191 E2786.2078
G1 X15.997 Y68.036 E2788.9463
G1 Y67.47 E2788.9642
G1 X76.625 Y6.842 E2791.6773
G1 X76.058 E2791.6953
G1 X15.997 Y66.903 E2794.383
G1 Y66.337 E2794.401
G1 X75.492 Y6.842 E2797.0634
G1 X74.925 E2797.0813
G1 X15.997 Y65.77 E2799.7183
G1 Y65.204 E2799.7363
G1 X74.359 Y6.842 E2802.348
G1 X73.792 E2802.3659
G1 X15.997 Y64.637 E2804.9522
G1 Y64.071 E2804.9702
G1 X73.226 Y6.842 E2807.5312
G1 X72.659 E2807.5491
G1 X15.997 Y63.504 E2810.0847
G1 Y62.938 E2810.1027
G1 X72.093 Y6.842 E2812.613
G1 X71.526 E2812.6309
G1 X15.997 Y62.371 E2815.1158
G1 Y61.805 E2815.1338
G1 X70.96 Y6.842 E2817.5934
G1 X70.393 E2817.6113
G1 X15.997 Y61.238 E2820.0455
G1 Y60.672 E2820.0635
G1 X69.827 Y6.842 E2822.4724
G1 X69.26 E2822.4903
G1 X15.997 Y60.105 E2824.8738
G1 Y59.539 E2824.8917
G1 X68.694 Y6.842 E2827.2499
G1 X68.127 E2827.2679
G1 X15.997 Y58.972 E2829.6007
G1 Y58.406 E2829.6186
G1 X67.561 Y6.842 E2831.9261
G1 X66.994 E2831.944
G1 X15.997 Y57.839 E2834.2262
G1 Y57.273 E2834.2441
G1 X66.428 Y6.842 E2836.5009
G1 X65.861 E2836.5188
G1 X15.997 Y56.706 E2838.7502
G1 Y56.14 E2838.7682
G1 X65.295 Y6.842 E2840.9742
G1 X64.728 E2840.9922
G1 X15.997 Y55.573 E2843.1729
G1 Y55.007 E2843.1908
G1 X64.162 Y6.842 E2845.3462
G1 X63.595 E2845.3641
G1 X15.997 Y54.44 E2847.4942
G1 Y53.874 E2847.5121
G1 X63.029 Y6.842 E2849.6168
G1 X62.462 E2849.6347
G1 X15.997 Y53.307 E2851.714
G1 Y52.741 E2851.7319
G1 X61.896 Y6.842 E2853.7859
G1 X61.329 E2853.8038
G1 X15.997 Y52.174 E2855.8325
G1 Y51.608 E2855.8504
G1 X60.762 Y6.842 E2857.8537
G1 X60.196 E2857.8716
G1 X15.997 Y51.041 E2859.8495
G1 Y50.475 E2859.8674
G1 X59.629 Y6.842 E2861.82
G1 X59.063 E2861.8379
G1 X15.997 Y49.908 E2863.7651
G1 Y49.342 E2863.7831
G1 X58.496 Y6.842 E2865.6849
G1 X57.93 E2865.7028
G1 X15.997 Y48.775 E2867.5794
G1 Y48.209 E2867.5973
G1 X57.363 Y6.842 E2869.4484
G1 X56.797 E2869.4664
G1 X15.997 Y47.642 E2871.2922
G1 Y47.075 E2871.3101
G1 X56.23 Y6.842 E2873.1106
G1 X55.664 E2873.1285
G1 X15.997 Y46.509 E2874.9036
G1 Y45.942 E2874.9215
G1 X55.097 Y6.842 E2876.6713
G1 X54.531 E2876.6892
G1 X15.997 Y45.376 E2878.4136
G1 Y44.809 E2878.4315
G1 X53.964 Y6.842 E2880.1306
G1 X53.398 E2880.1485
G1 X15.997 Y44.243 E2881.8222
G1 Y43.676 E2881.8401
G1 X52.831 Y6.842 E2883.4885
G1 X52.265 E2883.5064
G1 X15.997 Y43.11 E2885.1294
G1 Y42.543 E2885.1473
G1 X51.698 Y6.842 E2886.745
G1 X51.132 E2886.7629
G1 X15.997 Y41.977 E2888.3352
G1 Y41.41 E2888.3531
G1 X50.565 Y6.842 E2889.9001
G1 X49.999 E2889.918
G1 X15.997 Y40.844 E2891.4396
G1 Y40.277 E2891.4575
G1 X49.432 Y6.842 E2892.9538
G1 X48.866 E2892.9717
G1 X15.997 Y39.711 E2894.4426
G1 Y39.144 E2894.4605
G1 X48.299 Y6.842 E2895.906
G1 X47.733 E2895.924
G1 X15.997 Y38.578 E2897.3441
G1 Y38.011 E2897.3621
G1 X47.166 Y6.842 E2898.7569
G1 X46.6 E2898.7748
G1 X15.997 Y37.445 E2900.1443
G1 Y36.878 E2900.1622
G1 X46.033 Y6.842 E2901.5064
G1 X45.467 E2901.5243
G1 X15.997 Y36.312 E2902.8431
G1 Y35.745 E2902.861
G1 X44.9 Y6.842 E2904.1544
G1 X44.334 E2904.1724
G1 X15.997 Y35.179 E2905.4404
G1 Y34.612 E2905.4584
G1 X43.767 Y6.842 E2906.7011
G1 X43.201 E2906.719
G1 X15.997 Y34.046 E2907.9364
G1 Y33.479 E2907.9543
G1 X42.634 Y6.842 E2909.1463
G1 X42.068 E2909.1643
G1 X15.997 Y32.913 E2910.3309
G1 Y32.346 E2910.3489
G1 X41.501 Y6.842 E2911.4902
G1 X40.935 E2911.5081
G1 X15.997 Y31.78 E2912.6241
G1 Y31.213 E2912.642
G1 X40.368 Y6.842 E2913.7326
G1 X39.802 E2913.7506
G1 X15.997 Y30.647 E2914.8158
G1 Y30.08 E2914.8337
G1 X39.235 Y6.842 E2915.8737
G1 X38.669 E2915.8916
G1 X15.997 Y29.514 E2916.9062
G1 Y28.947 E2916.9241
G1 X38.102 Y6.842 E2917.9133
G1 X37.536 E2917.9312
G1 X15.997 Y28.381 E2918.8951
G1 Y27.814 E2918.913
G1 X36.969 Y6.842 E2919.8515
G1 X36.403 E2919.8694
G1 X15.997 Y27.248 E2920.7826
G1 Y26.681 E2920.8005
G1 X35.836 Y6.842 E2921.6883
G1 X35.27 E2921.7063
G1 X15.997 Y26.115 E2922.5687
G1 Y25.548 E2922.5866
G1 X34.703 Y6.842 E2923.4237
G1 X34.137 E2923.4417
G1 X15.997 Y24.982 E2924.2534
G1 Y24.415 E2924.2713
G1 X33.57 Y6.842 E2925.0577
G1 X33.004 E2925.0757
G1 X15.997 Y23.849 E2925.8367
G1 Y23.282 E2925.8546
G1 X32.437 Y6.842 E2926.5903
G1 X31.87 E2926.6083
G1 X15.997 Y22.716 E2927.3186
G1 Y22.149 E2927.3365
G1 X31.304 Y6.842 E2928.0215
G1 X30.737 E2928.0395
G1 X15.997 Y21.583 E2928.6991
G1 Y21.016 E2928.717
G1 X30.171 Y6.842 E2929.3513
G1 X29.604 E2929.3693
G1 X15.997 Y20.45 E2929.9782
G1 Y19.883 E2929.9961
G1 X29.038 Y6.842 E2930.5797
G1 X28.471 E2930.5976
G1 X15.997 Y19.317 E2931.1559
G1 Y18.75 E2931.1738
G1 X27.905 Y6.842 E2931.7067
G1 X27.338 E2931.7246
G1 X15.997 Y18.184 E2932.2321
G1 Y17.617 E2932.2501
G1 X26.772 Y6.842 E2932.7323
G1 X26.205 E2932.7502
G1 X15.997 Y17.05 E2933.207
G1 Y16.484 E2933.2249
G1 X25.639 Y6.842 E2933.6564
G1 X25.072 E2933.6743
G1 X15.997 Y15.917 E2934.0805
G1 Y15.351 E2934.0984
G1 X24.506 Y6.842 E2934.4792
G1 X23.939 E2934.4971
G1 X15.997 Y14.784 E2934.8525
G1 Y14.218 E2934.8705
G1 X23.373 Y6.842 E2935.2005
G1 X22.806 E2935.2185
G1 X15.997 Y13.651 E2935.5232
G1 Y13.085 E2935.5411
G1 X22.24 Y6.842 E2935.8205
G1 X21.673 E2935.8384
G1 X15.997 Y12.518 E2936.0924
G1 Y11.952 E2936.1104
G1 X21.107 Y6.842 E2936.339
G1 X20.54 E2936.3569
G1 X15.997 Y11.385 E2936.5603
G1 Y10.819 E2936.5782
G1 X19.974 Y6.842 E2936.7562
G1 X19.407 E2936.7741
G1 X15.997 Y10.252 E2936.9267
G1 Y9.686 E2936.9446
G1 X18.841 Y6.842 E2937.0719
G1 X18.274 E2937.0898
G1 X15.997 Y9.119 E2937.1917
G1 Y8.553 E2937.2097
G1 X17.708 Y6.842 E2937.2862
G1 X17.141 E2937.3041
G1 X15.997 Y7.986 E2937.3553
G1 Y7.42 E2937.3733
G1 X16.575 Y6.842 E2937.3991
G1 X16.003 Y6.848 E2937.4172
G1 E2936.6172 F2400
G92 E0
       ; New Layer
; layer 2, Z = 0.639
; Repositioning
M106 P0 S255
G0 Z0.639 F1800
; Repositioning with retraction
G1 X15.208 Y213.43 F27000
G1 E0.8 F2400
G92 E0
; Contour
G1 X196.012 E5.7129 F14210.526
G1 Y6.57 E12.2491
G1 X15.208 E17.962
G1 Y213.43 E24.4982
G92 E0
; Repositioning
G1 X14.838 Y213.8 F27000
; Contour
G1 X196.382 E5.7363 F12000
G1 Y6.2 E12.2959
G1 X14.838 E18.0322
G1 Y213.8 E24.5917
G92 E0
; Repositioning
G1 X15.485 Y213.152 F27000
; Infill
G1 X16.057 Y213.158 E0.0181 F14203.084
G1 X15.48 Y212.581 E0.0439
G1 Y212.015 E0.0618
G1 X16.623 Y213.158 E0.1129
G1 X17.189 E0.1308
G1 X15.48 Y211.449 E0.2072
G1 Y210.883 E0.2251
G1 X17.755 Y213.158 E0.3268
G1 X18.321 E0.3447
G1 X15.48 Y210.317 E0.4717
G1 Y209.751 E0.4896
G1 X18.887 Y213.158 E0.642
G1 X19.453 E0.6599
G1 X15.48 Y209.185 E0.8375
G1 Y208.619 E0.8554
G1 X20.019 Y213.158 E1.0583
G1 X20.585 E1.0762
G1 X15.48 Y208.053 E1.3045
G1 Y207.487 E1.3223
G1 X21.151 Y213.158 E1.5759
G1 X21.717 E1.5938
G1 X15.48 Y206.921 E1.8726
G1 Y206.355 E1.8905
G1 X22.283 Y213.158 E2.1947
G1 X22.849 E2.2126
G1 X15.48 Y205.789 E2.542
G1 Y205.223 E2.5599
G1 X23.415 Y213.158 E2.9147
G1 X23.981 E2.9326
G1 X15.48 Y204.657 E3.3127
G1 Y204.091 E3.3306
G1 X24.547 Y213.158 E3.7359
G1 X25.113 E3.7538
G1 X15.48 Y203.525 E4.1845
G1 Y202.959 E4.2024
G1 X25.679 Y213.158 E4.6584
G1 X26.244 E4.6763
G1 X15.48 Y202.393 E5.1575
G1 Y201.827 E5.1754
G1 X26.81 Y213.158 E5.682
G1 X27.376 E5.6999
G1 X15.48 Y201.261 E6.2318
G1 Y200.695 E6.2497
G1 X27.942 Y213.158 E6.8069
G1 X28.508 E6.8248
G1 X15.48 Y200.129 E7.4073
G1 Y199.563 E7.4252
G1 X29.074 Y213.158 E8.033
G1 X29.64 E8.0509
G1 X15.48 Y198.997 E8.684
G1 Y198.431 E8.7019
G1 X30.206 Y213.158 E9.3603
G1 X30.772 E9.3782
G1 X15.48 Y197.865 E10.0619
G1 Y197.299 E10.0798
G1 X31.338 Y213.158 E10.7888
G1 X31.904 E10.8067
G1 X15.48 Y196.733 E11.5411
G1 Y196.167 E11.5589
G1 X32.47 Y213.158 E12.3186
G1 X33.036 E12.3365
G1 X15.48 Y195.601 E13.1214
G1 Y195.035 E13.1393
G1 X33.602 Y213.158 E13.9495
G1 X34.168 E13.9674
G1 X15.48 Y194.469 E14.803
G1 Y193.903 E14.8209
G1 X34.734 Y213.158 E15.6817
G1 X35.3 E15.6996
G1 X15.48 Y193.337 E16.5858
G1 Y192.771 E16.6037
G1 X35.866 Y213.158 E17.5151
G1 X36.432 E17.533
G1 X15.48 Y192.205 E18.4698
G1 Y191.639 E18.4877
G1 X36.998 Y213.158 E19.4497
G1 X37.564 E19.4676
G1 X15.48 Y191.073 E20.455
G1 Y190.507 E20.4729
G1 X38.13 Y213.158 E21.4855
G1 X38.696 E21.5034
G1 X15.48 Y189.941 E22.5414
G1 Y189.375 E22.5593
G1 X39.262 Y213.158 E23.6226
G1 X39.828 E23.6405
G1 X15.48 Y188.809 E24.7291
G1 Y188.244 E24.747
G1 X40.394 Y213.158 E25.8608
G1 X40.96 E25.8787
G1 X15.48 Y187.678 E27.0179
G1 Y187.112 E27.0358
G1 X41.526 Y213.158 E28.2003
G1 X42.092 E28.2182
G1 X15.48 Y186.546 E29.408
G1 Y185.98 E29.4259
G1 X42.658 Y213.158 E30.641
G1 X43.224 E30.6589
G1 X15.48 Y185.414 E31.8993
G1 Y184.848 E31.9172
G1 X43.79 Y213.158 E33.1829
G1 X44.356 E33.2008
G1 X15.48 Y184.282 E34.4918
G1 Y183.716 E34.5097
G1 X44.922 Y213.158 E35.8261
G1 X45.488 E35.844
G1 X15.48 Y183.15 E37.1856
G1 Y182.584 E37.2035
G1 X46.054 Y213.158 E38.5704
G1 X46.62 E38.5883
G1 X15.48 Y182.018 E39.9805
G1 Y181.452 E39.9984
G1 X47.186 Y213.158 E41.416
G1 X47.752 E41.4339
G1 X15.48 Y180.886 E42.8767
G1 Y180.32 E42.8946
G1 X48.318 Y213.158 E44.3627
G1 X48.884 E44.3806
G1 X15.48 Y179.754 E45.8741
G1 Y179.188 E45.892
G1 X49.45 Y213.158 E47.4107
G1 X50.016 E47.4286
G1 X15.48 Y178.622 E48.9727
G1 Y178.056 E48.9906
G1 X50.582 Y213.158 E50.5599
G1 X51.148 E50.5778
G1 X15.48 Y177.49 E52.1725
G1 Y176.924 E52.1904
G1 X51.714 Y213.158 E53.8104
G1 X52.28 E53.8283
G1 X15.48 Y176.358 E55.4735
G1 Y175.792 E55.4914
G1 X52.846 Y213.158 E57.162
G1 X53.412 E57.1799
G1 X15.48 Y175.226 E58.8758
G1 Y174.66 E58.8937
G1 X53.978 Y213.158 E60.6149
G1 X54.544 E60.6328
G1 X15.48 Y174.094 E62.3793
G1 Y173.528 E62.3972
G1 X55.11 Y213.158 E64.169
G1 X55.676 E64.1868
G1 X15.48 Y172.962 E65.9839
G1 Y172.396 E66.0018
G1 X56.241 Y213.158 E67.8242
G1 X56.807 E67.8421
G1 X15.48 Y171.83 E69.6899
G1 Y171.264 E69.7077
G1 X57.373 Y213.158 E71.5808
G1 X57.939 E71.5987
G1 X15.48 Y170.698 E73.497
G1 Y170.132 E73.5149
G1 X58.505 Y213.158 E75.4385
G1 X59.071 E75.4564
G1 X15.48 Y169.566 E77.4053
G1 Y169 E77.4232
G1 X59.637 Y213.158 E79.3974
G1 X60.203 E79.4153
G1 X15.48 Y168.434 E81.4149
G1 Y167.868 E81.4328
G1 X60.769 Y213.158 E83.4576
G1 X61.335 E83.4755
G1 X15.48 Y167.302 E85.5256
G1 Y166.736 E85.5435
G1 X61.901 Y213.158 E87.619
G1 X62.467 E87.6369
G1 X15.48 Y166.17 E89.7376
G1 Y165.604 E89.7555
G1 X63.033 Y213.158 E91.8816
G1 X63.599 E91.8995
G1 X15.48 Y165.038 E94.0508
G1 Y164.472 E94.0687
G1 X64.165 Y213.158 E96.2454
G1 X64.731 E96.2633
G1 X15.48 Y163.906 E98.4652
G1 Y163.34 E98.4831
G1 X65.297 Y213.158 E100.7104
G1 X65.863 E100.7283
G1 X15.48 Y162.774 E102.9809
G1 Y162.208 E102.9988
G1 X66.429 Y213.158 E105.2766
G1 X66.995 E105.2945
G1 X15.48 Y161.642 E107.5977
G1 Y161.076 E107.6156
G1 X67.561 Y213.158 E109.9441
G1 X68.127 E109.962
G1 X15.48 Y160.51 E112.3158
G1 Y159.944 E112.3337
G1 X68.693 Y213.158 E114.7128
G1 X69.259 E114.7307
G1 X15.48 Y159.378 E117.1351
G1 Y158.812 E117.153
G1 X69.825 Y213.158 E119.5827
G1 X70.391 E119.6006
G1 X15.48 Y158.247 E122.0556
G1 Y157.681 E122.0735
G1 X70.957 Y213.158 E124.5538
G1 X71.523 E124.5717
G1 X15.48 Y157.115 E127.0773
G1 Y156.549 E127.0952
G1 X72.089 Y213.158 E129.6261
G1 X72.655 E129.644
G1 X15.48 Y155.983 E132.2002
G1 Y155.417 E132.2181
G1 X73.221 Y213.158 E134.7997
G1 X73.787 E134.8176
G1 X15.48 Y154.851 E137.4244
G1 Y154.285 E137.4423
G1 X74.353 Y213.158 E140.0744
G1 X74.919 E140.0923
G1 X15.48 Y153.719 E142.7498
G1 Y153.153 E142.7677
G1 X75.485 Y213.158 E145.4504
G1 X76.051 E145.4683
G1 X15.48 Y152.587 E148.1763
G1 Y152.021 E148.1942
G1 X76.617 Y213.158 E150.9276
G1 X77.183 E150.9455
G1 X15.48 Y151.455 E153.7041
G1 Y150.889 E153.722
G1 X77.749 Y213.158 E156.506
G1 X78.315 E156.5239
G1 X15.48 Y150.323 E159.3332
G1 Y149.757 E159.3511
G1 X78.881 Y213.158 E162.1856
G1 X79.447 E162.2035
G1 X15.48 Y149.191 E165.0634
G1 Y148.625 E165.0813
G1 X80.013 Y213.158 E167.9665
G1 X80.579 E167.9844
G1 X15.48 Y148.059 E170.8949
G1 Y147.493 E170.9128
G1 X81.145 Y213.158 E173.8485
G1 X81.711 E173.8664
G1 X15.48 Y146.927 E176.8275
G1 Y146.361 E176.8454
G1 X82.277 Y213.158 E179.8318
G1 X82.843 E179.8497
G1 X15.48 Y145.795 E182.8614
G1 Y145.229 E182.8793
G1 X83.409 Y213.158 E185.9163
G1 X83.975 E185.9342
G1 X15.48 Y144.663 E188.9965
G1 Y144.097 E189.0144
G1 X84.541 Y213.158 E192.102
G1 X85.107 E192.1199
G1 X15.48 Y143.531 E195.2328
G1 Y142.965 E195.2507
G1 X85.673 Y213.158 E198.389
G1 X86.238 E198.4068
G1 X15.48 Y142.399 E201.5704
G1 Y141.833 E201.5883
G1 X86.804 Y213.158 E204.7771
G1 X87.37 E204.795
G1 X15.48 Y141.267 E208.0091
G1 Y140.701 E208.027
G1 X87.936 Y213.158 E211.2665
G1 X88.502 E211.2844
G1 X15.48 Y140.135 E214.5491
G1 Y139.569 E214.567
G1 X89.068 Y213.158 E217.857
G1 X89.634 E217.8749
G1 X15.48 Y139.003 E221.1903
G1 Y138.437 E221.2082
G1 X90.2 Y213.158 E224.5488
G1 X90.766 E224.5667
G1 X15.48 Y137.871 E227.9327
G1 Y137.305 E227.9506
G1 X91.332 Y213.158 E231.3418
G1 X91.898 E231.3597
G1 X15.48 Y136.739 E234.7763
G1 Y136.173 E234.7942
G1 X92.464 Y213.158 E238.2361
G1 X93.03 E238.254
G1 X15.48 Y135.607 E241.7211
G1 Y135.041 E241.739
G1 X93.596 Y213.158 E245.2315
G1 X94.162 E245.2494
G1 X15.48 Y134.475 E248.7672
G1 Y133.909 E248.7851
G1 X94.728 Y213.158 E252.3282
G1 X95.294 E252.3461
G1 X15.48 Y133.343 E255.9145
G1 Y132.777 E255.9324
G1 X95.86 Y213.158 E259.5261
G1 X96.426 E259.544
G1 X15.48 Y132.211 E263.163
G1 Y131.645 E263.1808
G1 X96.992 Y213.158 E266.8252
G1 X97.558 E266.843
G1 X15.48 Y131.079 E270.5127
G1 Y130.513 E270.5306
G1 X98.124 Y213.158 E274.2255
G1 X98.69 E274.2434
G1 X15.48 Y129.947 E277.9636
G1 Y129.381 E277.9815
G1 X99.256 Y213.158 E281.727
G1 X99.822 E281.7449
G1 X15.48 Y128.815 E285.5157
G1 Y128.249 E285.5336
G1 X100.388 Y213.158 E289.3297
G1 X100.954 E289.3476
G1 X15.48 Y127.684 E293.1691
G1 Y127.118 E293.187
G1 X101.52 Y213.158 E297.0337
G1 X102.086 E297.0516
G1 X15.48 Y126.552 E300.9236
G1 Y125.986 E300.9415
G1 X102.652 Y213.158 E304.8389
G1 X103.218 E304.8568
G1 X15.48 Y125.42 E308.7794
G1 Y124.854 E308.7973
G1 X103.784 Y213.158 E312.7453
G1 X104.35 E312.7632
G1 X15.48 Y124.288 E316.7364
G1 Y123.722 E316.7543
G1 X104.916 Y213.158 E320.7529
G1 X105.482 E320.7708
G1 X15.48 Y123.156 E324.7947
G1 Y122.59 E324.8125
G1 X106.048 Y213.158 E328.8617
G1 X106.614 E328.8796
G1 X15.48 Y122.024 E332.9541
G1 Y121.458 E332.972
G1 X107.18 Y213.158 E337.0718
G1 X107.746 E337.0897
G1 X15.48 Y120.892 E341.2147
G1 Y120.326 E341.2326
G1 X108.312 Y213.158 E345.383
G1 X108.878 E345.4009
G1 X15.48 Y119.76 E349.5766
G1 Y119.194 E349.5945
G1 X109.444 Y213.158 E353.7955
G1 X110.01 E353.8134
G1 X15.48 Y118.628 E358.0397
G1 Y118.062 E358.0576
G1 X110.576 Y213.158 E362.3092
G1 X111.142 E362.3271
G1 X15.48 Y117.496 E366.604
G1 Y116.93 E366.6219
G1 X111.708 Y213.158 E370.9241
G1 X112.274 E370.942
G1 X15.48 Y116.364 E375.2695
G1 Y115.798 E375.2874
G1 X112.84 Y213.158 E379.6402
G1 X113.406 E379.6581
G1 X15.48 Y115.232 E384.0363
G1 Y114.666 E384.0542
G1 X113.972 Y213.158 E388.4576
G1 X114.538 E388.4755
G1 X15.48 Y114.1 E392.9042
G1 Y113.534 E392.9221
G1 X115.104 Y213.158 E397.3762
G1 X115.67 E397.394
G1 X15.48 Y112.968 E401.8734
G1 Y112.402 E401.8913
G1 X116.236 Y213.158 E406.3959
G1 X116.801 E406.4138
G1 X15.48 Y111.836 E410.9438
G1 Y111.27 E410.9617
G1 X117.367 Y213.158 E415.5169
G1 X117.933 E415.5348
G1 X15.48 Y110.704 E420.1154
G1 Y110.138 E420.1333
G1 X118.499 Y213.158 E424.7391
G1 X119.065 E424.757
G1 X15.48 Y109.572 E429.3882
G1 Y109.006 E429.4061
G1 X119.631 Y213.158 E434.0626
G1 X120.197 E434.0805
G1 X15.48 Y108.44 E438.7622
G1 Y107.874 E438.7801
G1 X120.763 Y213.158 E443.4872
G1 X121.329 E443.5051
G1 X15.48 Y107.308 E448.2375
G1 Y106.742 E448.2554
G1 X121.895 Y213.158 E453.0131
G1 X122.461 E453.031
G1 X15.48 Y106.176 E457.814
G1 Y105.61 E457.8319
G1 X123.027 Y213.158 E462.6402
G1 X123.593 E462.658
G1 X15.48 Y105.044 E467.4917
G1 Y104.478 E467.5095
G1 X124.159 Y213.158 E472.3685
G1 X124.725 E472.3863
G1 X15.48 Y103.912 E477.2706
G1 Y103.346 E477.2884
G1 X125.291 Y213.158 E482.198
G1 X125.857 E482.2159
G1 X15.48 Y102.78 E487.1507
G1 Y102.214 E487.1686
G1 X126.423 Y213.158 E492.1287
G1 X126.989 E492.1466
G1 X15.48 Y101.648 E497.132
G1 Y101.082 E497.1499
G1 X127.555 Y213.158 E502.1606
G1 X128.121 E502.1785
G1 X15.48 Y100.516 E507.2146
G1 Y99.95 E507.2325
G1 X128.687 Y213.158 E512.2938
G1 X129.253 E512.3117
G1 X15.48 Y99.384 E517.3983
G1 Y98.818 E517.4162
G1 X129.819 Y213.158 E522.5282
G1 X130.385 E522.5461
G1 X15.48 Y98.252 E527.6833
G1 Y97.687 E527.7012
G1 X130.951 Y213.158 E532.8638
G1 X131.517 E532.8817
G1 X15.48 Y97.121 E538.0695
G1 Y96.555 E538.0874
G1 X132.083 Y213.158 E543.3006
G1 X132.649 E543.3185
G1 X15.48 Y95.989 E548.557
G1 Y95.423 E548.5748
G1 X133.215 Y213.158 E553.8386
G1 X133.781 E553.8565
G1 X15.48 Y94.857 E559.1456
G1 Y94.291 E559.1635
G1 X134.347 Y213.158 E564.4779
G1 X134.913 E564.4958
G1 X15.48 Y93.725 E569.8354
G1 Y93.159 E569.8533
G1 X135.479 Y213.158 E575.2183
G1 X136.045 E575.2362
G1 X15.48 Y92.593 E580.6265
G1 Y92.027 E580.6444
G1 X136.611 Y213.158 E586.06
G1 X137.177 E586.0779
G1 X15.48 Y91.461 E591.5188
G1 Y90.895 E591.5367
G1 X137.743 Y213.158 E597.0029
G1 X138.309 E597.0208
G1 X15.48 Y90.329 E602.5123
G1 Y89.763 E602.5302
G1 X138.875 Y213.158 E608.047
G1 X139.441 E608.0649
G1 X15.48 Y89.197 E613.607
G1 Y88.631 E613.6249
G1 X140.007 Y213.158 E619.1923
G1 X140.573 E619.2102
G1 X15.48 Y88.065 E624.803
G1 Y87.499 E624.8209
G1 X141.139 Y213.158 E630.4389
G1 X141.705 E630.4568
G1 X15.48 Y86.933 E636.1001
G1 Y86.367 E636.118
G1 X142.271 Y213.158 E641.7867
G1 X142.837 E641.8045
G1 X15.48 Y85.801 E647.4985
G1 Y85.235 E647.5164
G1 X143.403 Y213.158 E653.2356
G1 X143.969 E653.2535
G1 X15.48 Y84.669 E658.9981
G1 Y84.103 E659.016
G1 X144.535 Y213.158 E664.7858
G1 X145.101 E664.8037
G1 X15.48 Y83.537 E670.5989
G1 Y82.971 E670.6168
G1 X145.667 Y213.158 E676.4372
G1 X146.233 E676.4551
G1 X15.48 Y82.405 E682.3009
G1 Y81.839 E682.3188
G1 X146.798 Y213.158 E688.1899
G1 X147.364 E688.2078
G1 X15.48 Y81.273 E694.1041
G1 Y80.707 E694.122
G1 X147.93 Y213.158 E700.0437
G1 X148.496 E700.0616
G1 X15.48 Y80.141 E706.0086
G1 Y79.575 E706.0265
G1 X149.062 Y213.158 E711.9988
G1 X149.628 E712.0167
G1 X15.48 Y79.009 E718.0143
G1 Y78.443 E718.0322
G1 X150.194 Y213.158 E724.0551
G1 X150.76 E724.073
G1 X15.48 Y77.877 E730.1212
G1 Y77.311 E730.1391
G1 X151.326 Y213.158 E736.2126
G1 X151.892 E736.2305
G1 X15.48 Y76.745 E742.3293
G1 Y76.179 E742.3472
G1 X152.458 Y213.158 E748.4713
G1 X153.024 E748.4892
G1 X15.48 Y75.613 E754.6386
G1 Y75.047 E754.6565
G1 X153.59 Y213.158 E760.8312
G1 X154.156 E760.8491
G1 X15.48 Y74.481 E767.0491
G1 Y73.915 E767.067
G1 X154.722 Y213.158 E773.2924
G1 X155.288 E773.3102
G1 X15.48 Y73.349 E779.5609
G1 Y72.783 E779.5788
G1 X155.854 Y213.158 E785.8547
G1 X156.42 E785.8726
G1 X15.48 Y72.217 E792.1739
G1 Y71.651 E792.1917
G1 X156.986 Y213.158 E798.5183
G1 X157.552 E798.5362
G1 X15.48 Y71.085 E804.888
G1 Y70.519 E804.9059
G1 X158.118 Y213.158 E811.2831
G1 X158.684 E811.301
G1 X15.48 Y69.953 E817.7034
G1 Y69.387 E817.7213
G1 X159.25 Y213.158 E824.1491
G1 X159.816 E824.167
G1 X15.48 Y68.821 E830.6201
G1 Y68.255 E830.638
G1 X160.382 Y213.158 E837.1163
G1 X160.948 E837.1342
G1 X15.48 Y67.689 E843.6379
G1 Y67.124 E843.6558
G1 X161.514 Y213.158 E850.1848
G1 X162.08 E850.2027
G1 X15.48 Y66.558 E856.757
G1 Y65.992 E856.7749
G1 X162.646 Y213.158 E863.3544
G1 X163.212 E863.3723
G1 X15.48 Y65.426 E869.9772
G1 Y64.86 E869.9951
G1 X163.778 Y213.158 E876.6253
G1 X164.344 E876.6432
G1 X15.48 Y64.294 E883.2987
G1 Y63.728 E883.3166
G1 X164.91 Y213.158 E889.9974
G1 X165.476 E890.0153
G1 X15.48 Y63.162 E896.7214
G1 Y62.596 E896.7393
G1 X166.042 Y213.158 E903.4707
G1 X166.608 E903.4886
G1 X15.48 Y62.03 E910.2454
G1 Y61.464 E910.2632
G1 X167.174 Y213.158 E917.0453
G1 X167.74 E917.0632
G1 X15.48 Y60.898 E923.8705
G1 Y60.332 E923.8884
G1 X168.306 Y213.158 E930.721
G1 X168.872 E930.7389
G1 X15.48 Y59.766 E937.5968
G1 Y59.2 E937.6147
G1 X169.438 Y213.158 E944.498
G1 X170.004 E944.5159
G1 X15.48 Y58.634 E951.4244
G1 Y58.068 E951.4423
G1 X170.57 Y213.158 E958.3762
G1 X171.136 E958.3941
G1 X15.48 Y57.502 E965.3532
G1 Y56.936 E965.3711
G1 X171.702 Y213.158 E972.3556
G1 X172.268 E972.3735
G1 X15.48 Y56.37 E979.3832
G1 Y55.804 E979.4011
G1 X172.834 Y213.158 E986.4362
G1 X173.4 E986.4541
G1 X15.48 Y55.238 E993.5144
G1 Y54.672 E993.5323
G1 X173.966 Y213.158 E1000.618
G1 X174.532 E1000.6359
G1 X15.48 Y54.106 E1007.7469
G1 Y53.54 E1007.7648
G1 X175.098 Y213.158 E1014.9011
G1 X175.664 E1014.9189
G1 X15.48 Y52.974 E1022.0805
G1 Y52.408 E1022.0984
G1 X176.23 Y213.158 E1029.2853
G1 X176.796 E1029.3032
G1 X15.48 Y51.842 E1036.5154
G1 Y51.276 E1036.5333
G1 X177.361 Y213.158 E1043.7708
G1 X177.927 E1043.7887
G1 X15.48 Y50.71 E1051.0515
G1 Y50.144 E1051.0694
G1 X178.493 Y213.158 E1058.3575
G1 X179.059 E1058.3754
G1 X15.48 Y49.578 E1065.6888
G1 Y49.012 E1065.7067
G1 X179.625 Y213.158 E1073.0454
G1 X180.191 E1073.0633
G1 X15.48 Y48.446 E1080.4273
G1 Y47.88 E1080.4452
G1 X180.757 Y213.158 E1087.8345
G1 X181.323 E1087.8524
G1 X15.48 Y47.314 E1095.2671
G1 Y46.748 E1095.285
G1 X181.889 Y213.158 E1102.7249
G1 X182.455 E1102.7428
G1 X15.48 Y46.182 E1110.208
G1 Y45.616 E1110.2259
G1 X183.021 Y213.158 E1117.7165
G1 X183.587 E1117.7343
G1 X15.48 Y45.05 E1125.2502
G1 Y44.484 E1125.2681
G1 X184.153 Y213.158 E1132.8092
G1 X184.719 E1132.8271
G1 X15.48 Y43.918 E1140.3936
G1 Y43.352 E1140.4115
G1 X185.285 Y213.158 E1148.0032
G1 X185.851 E1148.0211
G1 X15.48 Y42.786 E1155.6382
G1 Y42.22 E1155.6561
G1 X186.417 Y213.158 E1163.2984
G1 X186.983 E1163.3163
G1 X15.48 Y41.654 E1170.984
G1 Y41.088 E1171.0019
G1 X187.549 Y213.158 E1178.6949
G1 X188.115 E1178.7128
G1 X15.48 Y40.522 E1186.431
G1 Y39.956 E1186.4489
G1 X188.681 Y213.158 E1194.1925
G1 X189.247 E1194.2104
G1 X15.48 Y39.39 E1201.9793
G1 Y38.824 E1201.9972
G1 X189.813 Y213.158 E1209.7914
G1 X190.379 E1209.8093
G1 X15.48 Y38.258 E1217.6288
G1 Y37.692 E1217.6467
G1 X190.945 Y213.158 E1225.4915
G1 X191.511 E1225.5094
G1 X15.48 Y37.127 E1233.3795
G1 Y36.561 E1233.3974
G1 X192.077 Y213.158 E1241.2928
G1 X192.643 E1241.3107
G1 X15.48 Y35.995 E1249.2314
G1 Y35.429 E1249.2493
G1 X193.209 Y213.158 E1257.1953
G1 X193.775 E1257.2132
G1 X15.48 Y34.863 E1265.1845
G1 Y34.297 E1265.2024
G1 X194.341 Y213.158 E1273.199
G1 X194.907 E1273.2169
G1 X15.48 Y33.731 E1281.2388
G1 Y33.165 E1281.2567
G1 X195.473 Y213.158 E1289.304
G1 X195.74 Y212.86 E1289.3166
G1 X15.48 Y32.599 E1297.3758
G1 Y32.033 E1297.3937
G1 X195.74 Y212.294 E1305.4529
G1 Y211.728 E1305.4708
G1 X15.48 Y31.467 E1313.53
G1 Y30.901 E1313.5479
G1 X195.74 Y211.162 E1321.6071
G1 Y210.596 E1321.625
G1 X15.48 Y30.335 E1329.6842
G1 Y29.769 E1329.7021
G1 X195.74 Y210.03 E1337.7613
G1 Y209.464 E1337.7792
G1 X15.48 Y29.203 E1345.8384
G1 Y28.637 E1345.8562
G1 X195.74 Y208.898 E1353.9154
G1 Y208.332 E1353.9333
G1 X15.48 Y28.071 E1361.9925
G1 Y27.505 E1362.0104
G1 X195.74 Y207.766 E1370.0696
G1 Y207.2 E1370.0875
G1 X15.48 Y26.939 E1378.1467
G1 Y26.373 E1378.1646
G1 X195.74 Y206.634 E1386.2238
G1 Y206.068 E1386.2417
G1 X15.48 Y25.807 E1394.3009
G1 Y25.241 E1394.3188
G1 X195.74 Y205.502 E1402.378
G1 Y204.936 E1402.3959
G1 X15.48 Y24.675 E1410.4551
G1 Y24.109 E1410.4729
G1 X195.74 Y204.37 E1418.5321
G1 Y203.804 E1418.55
G1 X15.48 Y23.543 E1426.6092
G1 Y22.977 E1426.6271
G1 X195.74 Y203.238 E1434.6863
G1 Y202.672 E1434.7042
G1 X15.48 Y22.411 E1442.7634
G1 Y21.845 E1442.7813
G1 X195.74 Y202.106 E1450.8405
G1 Y201.54 E1450.8584
G1 X15.48 Y21.279 E1458.9176
G1 Y20.713 E1458.9355
G1 X195.74 Y200.974 E1466.9947
G1 Y200.408 E1467.0126
G1 X15.48 Y20.147 E1475.0718
G1 Y19.581 E1475.0897
G1 X195.74 Y199.842 E1483.1488
G1 Y199.276 E1483.1667
G1 X15.48 Y19.015 E1491.2259
G1 Y18.449 E1491.2438
G1 X195.74 Y198.71 E1499.303
G1 Y198.144 E1499.3209
G1 X15.48 Y17.883 E1507.3801
G1 Y17.317 E1507.398
G1 X195.74 Y197.578 E1515.4572
G1 Y197.012 E1515.4751
G1 X15.48 Y16.751 E1523.5343
G1 Y16.185 E1523.5522
G1 X195.74 Y196.446 E1531.6114
G1 Y195.88 E1531.6293
G1 X15.48 Y15.619 E1539.6885
G1 Y15.053 E1539.7064
G1 X195.74 Y195.314 E1547.7656
G1 Y194.748 E1547.7834
G1 X15.48 Y14.487 E1555.8426
G1 Y13.921 E1555.8605
G1 X195.74 Y194.182 E1563.9197
G1 Y193.616 E1563.9376
G1 X15.48 Y13.355 E1571.9968
G1 Y12.789 E1572.0147
G1 X195.74 Y193.05 E1580.0739
G1 Y192.484 E1580.0918
G1 X15.48 Y12.223 E1588.151
G1 Y11.657 E1588.1689
G1 X195.74 Y191.918 E1596.2281
G1 Y191.352 E1596.246
G1 X15.48 Y11.091 E1604.3052
G1 Y10.525 E1604.3231
G1 X195.74 Y190.786 E1612.3823
G1 Y190.22 E1612.4001
G1 X15.48 Y9.959 E1620.4593
G1 Y9.393 E1620.4772
G1 X195.74 Y189.654 E1628.5364
G1 Y189.088 E1628.5543
G1 X15.48 Y8.827 E1636.6135
G1 Y8.261 E1636.6314
G1 X195.74 Y188.522 E1644.6906
G1 Y187.956 E1644.7085
G1 X15.48 Y7.695 E1652.7677
G1 Y7.13 E1652.7856
G1 X195.74 Y187.39 E1660.8448
G1 Y186.824 E1660.8627
G1 X15.758 Y6.842 E1668.9094
G1 X16.324 E1668.9273
G1 X195.74 Y186.258 E1676.9488
G1 Y185.692 E1676.9666
G1 X16.89 Y6.842 E1684.9628
G1 X17.456 E1684.9807
G1 X195.74 Y185.126 E1692.9515
G1 Y184.561 E1692.9694
G1 X18.022 Y6.842 E1700.9149
G1 X18.588 E1700.9328
G1 X195.74 Y183.995 E1708.853
G1 Y183.429 E1708.8709
G1 X19.154 Y6.842 E1716.7659
G1 X19.72 E1716.7837
G1 X195.74 Y182.863 E1724.6534
G1 Y182.297 E1724.6713
G1 X20.286 Y6.842 E1732.5156
G1 X20.852 E1732.5335
G1 X195.74 Y181.731 E1740.3525
G1 Y181.165 E1740.3704
G1 X21.418 Y6.842 E1748.1641
G1 X21.984 E1748.182
G1 X195.74 Y180.599 E1755.9504
G1 Y180.033 E1755.9682
G1 X22.55 Y6.842 E1763.7113
G1 X23.116 E1763.7292
G1 X195.74 Y179.467 E1771.447
G1 Y178.901 E1771.4649
G1 X23.682 Y6.842 E1779.1574
G1 X24.248 E1779.1753
G1 X195.74 Y178.335 E1786.8425
G1 Y177.769 E1786.8604
G1 X24.814 Y6.842 E1794.5023
G1 X25.38 E1794.5201
G1 X195.74 Y177.203 E1802.1367
G1 Y176.637 E1802.1546
G1 X25.946 Y6.842 E1809.7459
G1 X26.512 E1809.7638
G1 X195.74 Y176.071 E1817.3297
G1 Y175.505 E1817.3476
G1 X27.078 Y6.842 E1824.8883
G1 X27.644 E1824.9062
G1 X195.74 Y174.939 E1832.4215
G1 Y174.373 E1832.4394
G1 X28.21 Y6.842 E1839.9295
G1 X28.776 E1839.9474
G1 X195.74 Y173.807 E1847.4121
G1 Y173.241 E1847.43
G1 X29.342 Y6.842 E1854.8695
G1 X29.908 E1854.8874
G1 X195.74 Y172.675 E1862.3015
G1 Y172.109 E1862.3194
G1 X30.474 Y6.842 E1869.7082
G1 X31.039 E1869.7261
G1 X195.74 Y171.543 E1877.0897
G1 Y170.977 E1877.1075
G1 X31.605 Y6.842 E1884.4458
G1 X32.171 E1884.4637
G1 X195.74 Y170.411 E1891.7766
G1 Y169.845 E1891.7945
G1 X32.737 Y6.842 E1899.0821
G1 X33.303 E1899.1
G1 X195.74 Y169.279 E1906.3623
G1 Y168.713 E1906.3802
G1 X33.869 Y6.842 E1913.6172
G1 X34.435 E1913.6351
G1 X195.74 Y168.147 E1920.8468
G1 Y167.581 E1920.8647
G1 X35.001 Y6.842 E1928.0511
G1 X35.567 E1928.069
G1 X195.74 Y167.015 E1935.2301
G1 Y166.449 E1935.248
G1 X36.133 Y6.842 E1942.3838
G1 X36.699 E1942.4017
G1 X195.74 Y165.883 E1949.5122
G1 Y165.317 E1949.5301
G1 X37.265 Y6.842 E1956.6153
G1 X37.831 E1956.6331
G1 X195.74 Y164.751 E1963.693
G1 Y164.185 E1963.7109
G1 X38.397 Y6.842 E1970.7455
G1 X38.963 E1970.7634
G1 X195.74 Y163.619 E1977.7727
G1 Y163.053 E1977.7906
G1 X39.529 Y6.842 E1984.7745
G1 X40.095 E1984.7924
G1 X195.74 Y162.487 E1991.7511
G1 Y161.921 E1991.769
G1 X40.661 Y6.842 E1998.7023
G1 X41.227 E1998.7202
G1 X195.74 Y161.355 E2005.6283
G1 Y160.789 E2005.6462
G1 X41.793 Y6.842 E2012.5289
G1 X42.359 E2012.5468
G1 X195.74 Y160.223 E2019.4043
G1 Y159.657 E2019.4222
G1 X42.925 Y6.842 E2026.2543
G1 X43.491 E2026.2722
G1 X195.74 Y159.091 E2033.079
G1 Y158.525 E2033.0969
G1 X44.057 Y6.842 E2039.8785
G1 X44.623 E2039.8964
G1 X195.74 Y157.959 E2046.6526
G1 Y157.393 E2046.6705
G1 X45.189 Y6.842 E2053.4014
G1 X45.755 E2053.4193
G1 X195.74 Y156.827 E2060.1249
G1 Y156.261 E2060.1428
G1 X46.321 Y6.842 E2066.8231
G1 X46.887 E2066.841
G1 X195.74 Y155.695 E2073.4961
G1 Y155.129 E2073.5139
G1 X47.453 Y6.842 E2080.1437
G1 X48.019 E2080.1616
G1 X195.74 Y154.563 E2086.766
G1 Y153.998 E2086.7839
G1 X48.585 Y6.842 E2093.363
G1 X49.151 E2093.3808
G1 X195.74 Y153.432 E2099.9346
G1 Y152.866 E2099.9525
G1 X49.717 Y6.842 E2106.481
G1 X50.283 E2106.4989
G1 X195.74 Y152.3 E2113.0021
G1 Y151.734 E2113.02
G1 X50.849 Y6.842 E2119.4979
G1 X51.415 E2119.5158
G1 X195.74 Y151.168 E2125.9684
G1 Y150.602 E2125.9863
G1 X51.981 Y6.842 E2132.4135
G1 X52.547 E2132.4314
G1 X195.74 Y150.036 E2138.8334
G1 Y149.47 E2138.8513
G1 X53.113 Y6.842 E2145.228
G1 X53.679 E2145.2459
G1 X195.74 Y148.904 E2151.5972
G1 Y148.338 E2151.6151
G1 X54.245 Y6.842 E2157.9412
G1 X54.811 E2157.9591
G1 X195.74 Y147.772 E2164.2598
G1 Y147.206 E2164.2777
G1 X55.377 Y6.842 E2170.5532
G1 X55.943 E2170.5711
G1 X195.74 Y146.64 E2176.8212
G1 Y146.074 E2176.8391
G1 X56.509 Y6.842 E2183.064
G1 X57.075 E2183.0818
G1 X195.74 Y145.508 E2189.2814
G1 Y144.942 E2189.2993
G1 X57.641 Y6.842 E2195.4735
G1 X58.207 E2195.4914
G1 X195.74 Y144.376 E2201.6403
G1 Y143.81 E2201.6582
G1 X58.773 Y6.842 E2207.7819
G1 X59.339 E2207.7997
G1 X195.74 Y143.244 E2213.8981
G1 Y142.678 E2213.916
G1 X59.905 Y6.842 E2219.989
G1 X60.471 E2220.0069
G1 X195.74 Y142.112 E2226.0546
G1 Y141.546 E2226.0725
G1 X61.037 Y6.842 E2232.0949
G1 X61.602 E2232.1128
G1 X195.74 Y140.98 E2238.1099
G1 Y140.414 E2238.1278
G1 X62.168 Y6.842 E2244.0996
G1 X62.734 E2244.1175
G1 X195.74 Y139.848 E2250.064
G1 Y139.282 E2250.0819
G1 X63.3 Y6.842 E2256.0031
G1 X63.866 E2256.021
G1 X195.74 Y138.716 E2261.9169
G1 Y138.15 E2261.9347
G1 X64.432 Y6.842 E2267.8053
G1 X64.998 E2267.8232
G1 X195.74 Y137.584 E2273.6685
G1 Y137.018 E2273.6864
G1 X65.564 Y6.842 E2279.5064
G1 X66.13 E2279.5243
G1 X195.74 Y136.452 E2285.3189
G1 Y135.886 E2285.3368
G1 X66.696 Y6.842 E2291.1062
G1 X67.262 E2291.1241
G1 X195.74 Y135.32 E2296.8682
G1 Y134.754 E2296.8861
G1 X67.828 Y6.842 E2302.6048
G1 X68.394 E2302.6227
G1 X195.74 Y134.188 E2308.3162
G1 Y133.622 E2308.3341
G1 X68.96 Y6.842 E2314.0022
G1 X69.526 E2314.0201
G1 X195.74 Y133.056 E2319.6629
G1 Y132.49 E2319.6808
G1 X70.092 Y6.842 E2325.2984
G1 X70.658 E2325.3163
G1 X195.74 Y131.924 E2330.9085
G1 Y131.358 E2330.9264
G1 X71.224 Y6.842 E2336.4933
G1 X71.79 E2336.5112
G1 X195.74 Y130.792 E2342.0529
G1 Y130.226 E2342.0708
G1 X72.356 Y6.842 E2347.5871
G1 X72.922 E2347.605
G1 X195.74 Y129.66 E2353.096
G1 Y129.094 E2353.1139
G1 X73.488 Y6.842 E2358.5796
G1 X74.054 E2358.5975
G1 X195.74 Y128.528 E2364.0379
G1 Y127.962 E2364.0558
G1 X74.62 Y6.842 E2369.4709
G1 X75.186 E2369.4888
G1 X195.74 Y127.396 E2374.8786
G1 Y126.83 E2374.8965
G1 X75.752 Y6.842 E2380.261
G1 X76.318 E2380.2789
G1 X195.74 Y126.264 E2385.6181
G1 Y125.698 E2385.636
G1 X76.884 Y6.842 E2390.9499
G1 X77.45 E2390.9678
G1 X195.74 Y125.132 E2396.2564
G1 Y124.566 E2396.2743
G1 X78.016 Y6.842 E2401.5376
G1 X78.582 E2401.5555
G1 X195.74 Y124.001 E2406.7934
G1 Y123.435 E2406.8113
G1 X79.148 Y6.842 E2412.024
G1 X79.714 E2412.0419
G1 X195.74 Y122.869 E2417.2293
G1 Y122.303 E2417.2472
G1 X80.28 Y6.842 E2422.4092
G1 X80.846 E2422.4271
G1 X195.74 Y121.737 E2427.5639
G1 Y121.171 E2427.5818
G1 X81.412 Y6.842 E2432.6932
G1 X81.978 E2432.7111
G1 X195.74 Y120.605 E2437.7973
G1 Y120.039 E2437.8152
G1 X82.544 Y6.842 E2442.876
G1 X83.11 E2442.8939
G1 X195.74 Y119.473 E2447.9295
G1 Y118.907 E2447.9474
G1 X83.676 Y6.842 E2452.9576
G1 X84.242 E2452.9755
G1 X195.74 Y118.341 E2457.9604
G1 Y117.775 E2457.9783
G1 X84.808 Y6.842 E2462.938
G1 X85.374 E2462.9559
G1 X195.74 Y117.209 E2467.8902
G1 Y116.643 E2467.9081
G1 X85.94 Y6.842 E2472.8171
G1 X86.506 E2472.835
G1 X195.74 Y116.077 E2477.7187
G1 Y115.511 E2477.7366
G1 X87.072 Y6.842 E2482.595
G1 X87.638 E2482.6129
G1 X195.74 Y114.945 E2487.4461
G1 Y114.379 E2487.4639
G1 X88.204 Y6.842 E2492.2718
G1 X88.77 E2492.2897
G1 X195.74 Y113.813 E2497.0722
G1 Y113.247 E2497.09
G1 X89.336 Y6.842 E2501.8473
G1 X89.902 E2501.8651
G1 X195.74 Y112.681 E2506.597
G1 Y112.115 E2506.6149
G1 X90.468 Y6.842 E2511.3215
G1 X91.034 E2511.3394
G1 X195.74 Y111.549 E2516.0207
G1 Y110.983 E2516.0386
G1 X91.599 Y6.842 E2520.6946
G1 X92.165 E2520.7125
G1 X195.74 Y110.417 E2525.3432
G1 Y109.851 E2525.3611
G1 X92.731 Y6.842 E2529.9664
G1 X93.297 E2529.9843
G1 X195.74 Y109.285 E2534.5644
G1 Y108.719 E2534.5823
G1 X93.863 Y6.842 E2539.1371
G1 X94.429 E2539.155
G1 X195.74 Y108.153 E2543.6844
G1 Y107.587 E2543.7023
G1 X94.995 Y6.842 E2548.2065
G1 X95.561 E2548.2244
G1 X195.74 Y107.021 E2552.7032
G1 Y106.455 E2552.7211
G1 X96.127 Y6.842 E2557.1747
G1 X96.693 E2557.1926
G1 X195.74 Y105.889 E2561.6208
G1 Y105.323 E2561.6387
G1 X97.259 Y6.842 E2566.0416
G1 X97.825 E2566.0595
G1 X195.74 Y104.757 E2570.4372
G1 Y104.191 E2570.4551
G1 X98.391 Y6.842 E2574.8074
G1 X98.957 E2574.8253
G1 X195.74 Y103.625 E2579.1523
G1 Y103.059 E2579.1702
G1 X99.523 Y6.842 E2583.4719
G1 X100.089 E2583.4898
G1 X195.74 Y102.493 E2587.7663
G1 Y101.927 E2587.7842
G1 X100.655 Y6.842 E2592.0353
G1 X101.221 E2592.0532
G1 X195.74 Y101.361 E2596.279
G1 Y100.795 E2596.2969
G1 X101.787 Y6.842 E2600.4974
G1 X102.353 E2600.5153
G1 X195.74 Y100.229 E2604.6905
G1 Y99.663 E2604.7084
G1 X102.919 Y6.842 E2608.8583
G1 X103.485 E2608.8762
G1 X195.74 Y99.097 E2613.0008
G1 Y98.531 E2613.0187
G1 X104.051 Y6.842 E2617.118
G1 X104.617 E2617.1358
G1 X195.74 Y97.965 E2621.2098
G1 Y97.399 E2621.2277
G1 X105.183 Y6.842 E2625.2764
G1 X105.749 E2625.2943
G1 X195.74 Y96.833 E2629.3177
G1 Y96.267 E2629.3356
G1 X106.315 Y6.842 E2633.3337
G1 X106.881 E2633.3515
G1 X195.74 Y95.701 E2637.3243
G1 Y95.135 E2637.3422
G1 X107.447 Y6.842 E2641.2897
G1 X108.013 E2641.3076
G1 X195.74 Y94.569 E2645.2297
G1 Y94.004 E2645.2476
G1 X108.579 Y6.842 E2649.1445
G1 X109.145 E2649.1624
G1 X195.74 Y93.438 E2653.0339
G1 Y92.872 E2653.0518
G1 X109.711 Y6.842 E2656.8981
G1 X110.277 E2656.916
G1 X195.74 Y92.306 E2660.7369
G1 Y91.74 E2660.7548
G1 X110.843 Y6.842 E2664.5505
G1 X111.409 E2664.5684
G1 X195.74 Y91.174 E2668.3387
G1 Y90.608 E2668.3566
G1 X111.975 Y6.842 E2672.1016
G1 X112.541 E2672.1195
G1 X195.74 Y90.042 E2675.8392
G1 Y89.476 E2675.8571
